<?xml version="1.0" encoding="UTF-8"?>
<map version="1.10" tiledversion="1.12.1" orientation="orthogonal" renderorder="right-down" width="40" height="23" tilewidth="32" tileheight="32" infinite="0" nextlayerid="3" nextobjectid="1">
 <tileset firstgid="1" source="Tileset_Tierra_.tsx"/>
 <tileset firstgid="97" source="Tileset_cielo.tsx"/>
 <imagelayer id="2" name="Capa de Imagen 1">
  <image source="../Mapas/Cielo arriba.png" width="1280" height="736"/>
 </imagelayer>
 <layer id="1" name="Platforms" width="40" height="23">
  <data encoding="csv">
0,0,0,0,0,0,0,0,0,0,0,0,0,0,0,0,0,0,0,0,0,0,0,0,0,0,0,0,0,0,0,0,0,0,0,0,0,0,0,0,
0,0,0,0,0,0,0,0,0,0,0,0,0,0,0,0,0,0,0,0,0,0,0,0,0,0,0,0,0,0,0,0,0,0,0,0,0,0,0,0,
0,0,0,0,0,0,0,0,0,0,0,0,0,0,0,0,0,0,0,0,0,0,0,0,0,0,0,0,0,0,0,0,0,0,0,0,0,0,0,0,
0,0,0,0,0,0,0,0,0,0,0,0,0,0,0,0,0,0,0,0,0,0,0,0,0,0,0,0,0,0,0,0,0,0,0,0,0,0,0,0,
0,0,0,0,0,0,0,0,0,0,0,0,0,0,0,0,0,139,98,98,98,98,98,98,98,98,138,0,0,145,146,147,0,0,0,0,0,0,0,0,
0,0,0,0,0,0,0,0,0,0,0,0,0,0,148,0,0,1610612834,120,120,120,120,120,120,120,120,2684354658,0,0,0,0,0,0,0,0,0,0,0,0,0,
0,0,0,0,0,0,0,0,0,0,0,148,0,0,0,0,0,1610612834,120,120,120,120,120,120,120,120,2684354658,0,0,0,0,0,0,145,146,147,0,0,0,0,
0,0,0,0,0,0,0,0,0,0,0,0,0,0,0,0,0,1610612875,3221225570,3221225570,3221225570,3221225570,3221225570,3221225570,3221225570,3221225570,2684354698,0,0,0,0,0,0,0,0,0,0,0,1610612835,2684354685,
2,2,2,2,2,2,2,42,0,0,0,0,0,0,0,0,0,0,0,0,0,0,0,0,0,0,0,0,0,0,0,0,0,0,0,0,0,0,0,0,
24,24,24,24,24,24,24,2684354562,0,0,145,146,147,0,0,0,0,0,0,0,0,0,0,0,0,0,0,0,0,148,0,0,0,0,0,0,0,0,0,0,
24,24,2684354614,3221225474,3221225474,1610612791,24,2684354562,0,0,0,0,0,0,0,0,0,0,0,0,148,0,0,148,0,0,148,0,0,0,0,0,148,0,0,1610612834,1610612849,2684354716,2684354716,2684354716,
24,2684354614,3221225515,0,0,3221225514,3221225490,3221225515,0,0,0,0,0,0,145,146,0,0,0,0,0,0,0,0,0,0,0,0,0,0,0,0,0,0,0,0,0,0,0,0,
24,2684354562,0,0,0,0,0,0,0,0,0,0,0,0,0,0,0,139,97,2684354699,0,0,0,0,0,0,0,0,145,146,147,0,0,0,0,0,0,0,0,0,
24,2684354562,0,0,0,0,0,0,0,0,0,0,0,0,0,0,0,1610612875,1610612887,150,98,98,98,98,98,138,0,0,0,0,0,0,0,0,0,0,0,0,0,0,
24,2684354562,0,0,0,139,98,2147483787,0,0,0,0,0,0,97,98,99,0,1610612850,120,120,120,120,120,120,2684354658,0,0,0,0,0,0,0,0,0,0,0,0,0,0,
24,2684354562,0,0,0,1610612834,120,2684354658,0,0,105,106,108,0,152,153,154,0,1610612850,120,120,120,3221225623,3221225570,3221225575,2684354698,0,0,0,0,0,0,0,0,0,0,0,0,0,0,
24,2684354562,0,0,0,1610612834,120,2684354658,0,0,152,153,154,0,0,0,0,0,1610612875,1610612887,120,3221225623,3221225611,0,0,0,0,0,0,0,0,0,0,0,0,0,0,0,0,0,
24,2684354562,0,0,0,1610612834,120,2684354658,0,0,0,0,0,0,0,0,0,0,0,1610612875,3221225570,3221225611,0,0,0,0,0,0,0,0,0,0,0,0,0,0,0,0,0,0,
24,2684354562,0,0,0,1610612834,120,2684354658,0,0,0,0,0,0,0,0,0,0,0,0,0,0,0,0,0,0,0,0,0,0,0,0,0,0,0,0,0,0,0,0,
24,2684354562,0,0,0,1610612834,120,2684354658,0,0,0,0,0,0,0,0,0,0,0,0,0,0,0,0,0,0,0,0,0,0,0,0,0,0,0,0,0,0,0,0,
24,2684354562,0,0,0,1073741963,3221225570,3758096523,0,0,0,0,0,0,0,0,0,0,0,0,0,0,0,0,0,0,0,0,0,0,0,0,0,0,0,0,0,0,0,0,
24,54,42,0,0,0,0,0,0,0,0,0,0,0,0,0,0,0,0,0,0,0,0,0,0,0,0,0,0,0,0,0,0,0,0,0,0,0,0,0,
24,24,54,2,2,2,2,2,2,2,2,2,2,2,2,2,2,2,2,2,2,2,2,2,2,2,2,2,2,2,2,2,2,2,2,2,2,2,2,2
</data>
 </layer>
</map>
