<?xml version="1.0" encoding="UTF-8"?>
<map version="1.10" tiledversion="1.12.1" orientation="orthogonal" renderorder="right-down" width="40" height="23" tilewidth="32" tileheight="32" infinite="0" nextlayerid="3" nextobjectid="1">
 <tileset firstgid="1" source="Tileset_cielo.tsx"/>
 <tileset firstgid="97" source="Tileset_Tierra_.tsx"/>
 <tileset firstgid="193" source="Tileset_Cielo_girado.tsx"/>
 <imagelayer id="2" name="Capa de Imagen 1">
  <image source="../Mapas/Cielo arriba.png" width="1280" height="736"/>
 </imagelayer>
 <layer id="1" name="Platforms" width="40" height="23">
  <data encoding="csv">
24,24,24,24,24,24,24,24,24,24,2684354562,0,0,0,0,0,0,0,0,0,0,0,0,0,0,0,0,0,0,0,0,0,0,0,0,0,0,536870922,1073741828,1073741828,
3221225474,3221225474,3221225474,3221225474,3221225474,3221225474,3221225474,3221225474,3221225474,3221225474,1073741866,0,0,0,0,0,0,0,0,0,0,0,0,0,0,0,0,0,0,0,0,0,0,0,0,0,0,536870922,1073741828,1073741828,
0,0,0,0,0,0,0,0,0,0,0,0,0,0,0,0,0,1,7,42,0,0,0,0,0,0,0,0,0,0,0,0,0,0,0,0,0,536870922,1073741864,1073741864,
0,0,0,0,0,0,0,0,0,0,0,0,0,0,0,0,0,260,215,208,0,0,0,0,0,0,43,2,2684354603,0,0,0,0,0,0,0,0,536870945,1073741862,1073741862,
0,0,0,0,0,0,0,0,0,0,0,0,0,0,0,0,0,260,207,208,0,0,0,0,0,0,3221225680,24,208,0,0,0,0,0,0,0,0,2147483856,1073741848,1073741848,
0,0,0,0,0,0,0,0,0,0,0,0,0,0,0,0,0,268,207,208,0,0,0,0,0,0,1610612779,3221225474,3221225515,0,0,0,0,0,0,0,0,1073741867,3221225474,3221225474,
0,0,0,0,0,0,0,0,0,0,0,0,0,0,0,0,0,0,268,216,0,0,0,0,0,0,0,0,0,0,0,0,0,0,0,0,0,0,0,0,
0,0,0,0,0,0,0,0,0,0,0,0,0,0,0,0,0,0,0,0,0,0,0,0,0,0,0,0,0,0,0,0,0,0,0,0,0,0,0,0,
0,0,0,0,0,0,0,0,0,0,0,0,0,0,0,0,0,0,0,0,0,0,0,0,0,0,0,0,0,0,0,0,0,0,0,0,0,0,0,0,
0,0,0,0,0,0,0,0,0,0,43,2,2684354603,0,0,0,0,0,0,0,0,0,1,1,3,0,0,0,0,0,0,0,0,0,0,0,0,0,0,0,
2147483650,2147483650,2147483649,0,0,0,0,0,0,0,3221225680,24,208,0,0,0,0,0,0,0,0,0,1610612988,1610612943,1610613004,0,0,0,0,0,0,0,0,0,0,0,0,1,2,2,
2147483662,2147483662,2147483704,0,0,0,0,0,0,0,1610612779,3221225474,3221225515,0,0,0,0,0,0,0,0,0,0,1610613012,0,0,0,0,0,0,0,0,0,0,0,0,0,56,14,14,
57,2147483704,0,0,0,0,0,0,0,0,0,0,0,0,0,0,0,0,0,0,0,0,0,0,0,0,0,2147483848,2147483900,0,0,0,0,0,0,0,0,0,56,2147483705,
0,0,0,0,0,0,0,0,0,0,0,0,0,0,0,0,0,0,0,0,0,0,0,0,0,0,0,3221225680,2147483855,2147483900,0,0,0,0,0,0,0,0,0,0,
0,0,0,0,0,0,0,0,0,0,0,0,0,0,0,0,0,0,0,0,0,0,0,0,0,0,0,3221225680,2147483855,2147483908,0,0,0,0,0,0,0,0,0,0,
0,0,0,0,0,0,0,0,0,0,0,0,0,0,0,0,0,0,0,0,0,0,0,0,0,0,0,3221225680,2147483855,2147483916,0,0,0,0,0,0,0,0,0,0,
0,0,0,0,0,0,0,0,0,0,0,0,0,0,0,0,0,0,0,0,0,0,0,0,0,0,0,2147483864,2147483916,0,0,0,0,0,0,0,0,0,0,0,
0,0,0,0,0,0,0,0,0,0,0,0,1,1,3,0,0,0,0,0,0,0,43,2,2684354603,0,0,0,0,0,0,0,0,0,0,0,0,0,0,0,
0,0,0,0,0,0,0,0,0,0,0,0,1610612988,1610612943,1610613004,0,0,0,0,0,0,0,3221225680,24,208,0,0,0,0,0,0,0,0,0,0,0,0,0,0,0,
0,0,0,0,0,0,0,0,0,0,0,0,0,1610613012,0,0,0,0,0,0,0,0,1610612779,3221225474,3221225515,0,0,0,0,0,0,0,0,0,0,0,0,0,0,0,
0,0,0,0,0,0,0,0,0,0,0,0,0,0,0,0,0,0,0,0,0,0,0,0,0,0,0,0,0,0,0,0,0,0,0,0,0,0,0,0,
0,0,0,0,0,0,0,0,0,0,0,0,0,0,0,0,0,0,0,0,0,0,0,0,0,0,0,0,0,0,0,0,0,0,0,0,0,0,0,0,
186,186,186,186,186,186,186,186,186,186,186,186,186,186,186,186,186,186,186,186,186,186,186,186,186,186,186,186,186,186,186,186,186,186,186,186,186,186,186,186
</data>
 </layer>
</map>
