<?xml version="1.0" encoding="UTF-8"?>
<map version="1.10" tiledversion="1.12.1" orientation="orthogonal" renderorder="right-down" width="40" height="23" tilewidth="32" tileheight="32" infinite="0" nextlayerid="3" nextobjectid="1">
 <tileset firstgid="1" source="Tileset_cielo.tsx"/>
 <imagelayer id="2" name="Capa de Imagen 1">
  <image source="../Mapas/Cielo arriba.png" width="1280" height="736"/>
 </imagelayer>
 <layer id="1" name="Platforms" width="40" height="23">
  <data encoding="csv">
1610612779,1610612791,24,24,24,24,24,24,24,24,24,24,24,24,24,24,24,24,24,24,24,24,24,24,24,24,24,24,24,24,24,24,24,24,24,24,24,24,24,24,
0,1610612779,1610612791,24,24,24,24,24,24,24,24,24,24,24,24,24,24,24,24,24,24,24,24,24,24,24,24,24,24,24,24,3221225527,3221225474,1610612791,24,24,24,24,24,24,
0,0,1610612779,1610612791,24,24,24,24,24,24,24,24,24,24,24,24,24,24,24,24,24,24,24,24,24,24,24,24,24,24,3221225527,2684354602,0,3221225514,1610612791,24,24,24,24,24,
0,0,0,1610612779,3221225474,3221225474,3221225474,3221225474,3221225474,3221225474,3221225474,3221225474,3221225474,3221225474,3221225474,3221225474,3221225474,3221225474,3221225474,3221225474,3221225474,3221225474,3221225474,3221225474,3221225474,3221225474,3221225474,3221225474,3221225474,3221225474,3221225515,0,0,0,1610612738,24,24,24,24,24,
0,0,0,0,0,0,0,0,0,0,0,0,0,0,0,0,0,0,0,0,0,0,0,0,0,0,0,0,0,0,0,0,0,0,1610612738,24,24,24,24,24,
0,0,0,0,0,0,536870913,24,0,0,0,0,0,0,0,0,0,0,0,0,0,0,0,0,0,0,0,0,0,0,0,0,0,0,1610612738,24,24,24,24,24,
0,0,0,0,0,0,536870914,24,37,0,0,0,0,0,0,0,0,0,0,0,0,0,0,0,0,0,0,0,0,0,0,0,0,0,1610612738,24,24,24,24,24,
49,50,51,0,0,0,1610612738,24,37,38,0,0,0,0,0,0,0,0,0,0,0,0,0,0,0,0,0,0,0,0,0,0,0,0,1610612738,24,24,24,24,24,
0,0,0,0,0,0,1610612738,24,37,38,0,0,0,0,0,0,0,0,0,0,0,0,0,0,0,0,0,0,0,0,0,0,0,0,1610612738,24,24,24,24,24,
0,0,0,0,0,0,1610612738,24,37,0,0,0,0,0,0,0,0,0,43,2,2,2,2,2,2,2,42,0,0,0,0,0,0,0,1610612738,24,24,24,24,24,
0,0,0,0,0,0,1610612739,24,0,0,0,0,0,0,49,50,51,0,1610612738,24,24,24,24,24,24,24,2684354562,0,0,0,0,0,0,0,3221225514,3221225474,3221225474,3221225474,3221225474,3221225474,
0,0,0,0,52,0,0,0,0,0,0,0,0,0,0,0,0,0,1610612738,24,24,24,24,24,24,24,2684354562,0,0,0,0,0,0,0,0,0,0,0,0,0,
0,0,0,0,0,0,0,0,0,0,0,0,0,0,0,0,0,0,1610612738,24,24,24,24,24,24,24,2684354562,0,0,52,0,0,0,0,0,0,0,0,0,0,
0,0,0,52,0,0,0,0,0,0,0,0,49,50,51,0,0,0,1610612738,24,24,24,24,24,24,24,2684354562,0,0,0,0,0,0,0,0,0,0,0,0,0,
0,0,0,0,0,0,0,0,0,0,0,0,0,0,0,0,0,0,1610612738,24,24,24,24,24,24,24,2684354562,0,0,0,0,52,0,0,0,0,0,0,0,0,
49,50,51,0,0,0,0,0,49,50,51,0,0,0,0,0,0,0,1610612738,24,24,24,24,24,24,24,2684354562,0,0,0,0,0,0,43,2,2,2,2,2,2,
0,0,0,0,0,0,0,0,0,0,0,0,0,0,0,0,0,0,3221225514,3221225474,3221225474,3221225474,3221225474,3221225474,3221225474,3221225474,1073741866,0,0,0,0,0,0,1610612738,24,24,24,24,24,24,
0,0,0,0,49,50,51,0,0,0,0,0,0,0,0,0,0,0,0,0,0,0,0,0,0,0,0,0,0,0,0,0,0,1610612738,24,24,24,24,24,24,
0,0,0,0,0,0,0,0,0,0,0,0,0,0,0,0,0,0,0,0,0,0,0,0,0,0,0,0,0,0,0,0,0,1610612738,24,24,24,24,24,24,
0,0,0,0,0,0,0,0,0,0,0,0,0,0,0,0,0,0,0,0,0,0,0,0,0,0,0,0,0,0,0,0,43,55,24,24,24,24,24,24,
2,2,2,2,2,2,2,2,2,2,2,2,2,2,2,2,2,2,2,2,2,2,2,2,2,2,2,2,2,2,2,2,55,24,24,24,24,24,24,24,
24,24,24,24,24,24,24,24,24,24,24,24,24,24,24,24,24,24,24,24,24,24,24,24,24,24,24,24,24,24,24,24,24,24,24,24,24,24,24,24,
24,24,24,24,24,24,24,24,24,24,24,24,24,24,24,24,24,24,24,24,24,24,24,24,24,24,24,24,24,24,24,24,24,24,24,24,24,24,24,24
</data>
 </layer>
</map>
