<?xml version="1.0" encoding="UTF-8"?>
<map version="1.10" tiledversion="1.12.1" orientation="orthogonal" renderorder="right-down" width="40" height="23" tilewidth="32" tileheight="32" infinite="0" nextlayerid="3" nextobjectid="1">
 <tileset firstgid="1" source="Tileset_Cielo_girado.tsx"/>
 <tileset firstgid="97" source="Tileset_cielo.tsx"/>
 <tileset firstgid="193" source="Tileset_Tierra_.tsx"/>
 <tileset firstgid="289" name="CartelAbajo" tilewidth="32" tileheight="32" tilecount="1" columns="1">
  <image source="../Mapas/CartelAbajo.png" width="34" height="34"/>
 </tileset>
 <imagelayer id="2" name="Capa de Imagen 1">
  <image source="../Mapas/Cielo arriba.png" width="1280" height="736"/>
 </imagelayer>
 <layer id="1" name="Platforms" width="40" height="23">
  <data encoding="csv">
0,2147483664,2147483768,1073741840,0,0,0,0,0,0,0,0,0,0,0,0,0,0,0,0,0,0,0,0,0,0,0,0,0,0,0,0,0,0,0,0,0,0,0,0,
0,2147483664,2147483768,1073741840,0,0,0,0,0,0,0,0,0,0,0,0,0,0,0,0,0,0,0,0,0,0,0,0,0,0,0,0,0,0,0,0,0,0,0,0,
0,2147483664,2147483768,1073741840,0,0,0,0,0,0,0,0,0,0,0,0,0,0,0,0,0,0,0,0,0,0,0,0,0,0,0,0,0,0,0,0,0,0,0,0,
2147483786,3758096428,1073741974,1073741962,0,0,0,0,0,0,0,0,0,0,0,0,0,0,0,0,0,145,146,146,146,147,0,0,0,0,0,0,0,0,0,0,0,0,0,0,
2147483798,1073741974,3758096523,0,0,0,0,0,0,0,0,0,0,0,0,0,0,0,0,0,0,0,0,0,0,0,0,0,0,148,0,0,0,0,0,0,0,0,0,0,
1073741974,3758096523,0,0,0,0,0,0,0,0,0,0,0,0,0,0,0,0,0,0,0,0,0,0,0,0,0,0,0,0,0,0,0,0,0,0,0,0,0,0,
3758096523,0,0,0,0,0,0,0,0,0,0,0,0,0,0,0,60,16,0,0,0,0,0,0,0,0,0,0,0,0,0,0,148,0,0,0,0,0,0,0,
39,40,0,0,0,148,0,0,0,0,0,0,148,0,0,60,15,16,0,0,0,0,0,0,0,0,0,0,0,0,0,0,0,0,0,0,0,0,0,0,
0,0,0,0,0,0,0,0,0,0,0,0,0,0,0,68,15,16,0,0,0,0,0,0,0,0,0,0,0,0,0,0,0,0,0,0,0,0,0,0,
0,0,0,0,0,0,0,0,0,0,0,0,0,0,0,68,23,16,0,0,0,0,0,0,0,0,0,97,98,2147483746,2147483745,0,0,0,0,0,0,0,0,0,
3,92,39,40,0,0,0,148,0,0,0,0,0,0,0,68,23,16,0,0,0,0,0,0,0,0,0,152,110,2147483758,2147483800,0,0,0,0,0,97,98,2147483746,2147483745,
3221225486,0,0,0,0,0,0,0,0,0,0,0,0,0,0,68,23,16,0,0,0,97,98,2147483746,2147483746,2147483745,0,0,152,2147483800,0,0,0,0,0,0,152,110,2147483758,2147483800,
3221225486,0,0,0,0,0,0,0,0,0,0,0,0,0,0,68,15,16,0,0,0,152,110,2147483758,2147483758,2147483800,0,0,0,0,0,0,0,0,0,0,0,152,2147483800,0,
11,92,92,92,39,40,0,0,0,0,0,0,0,0,0,76,15,16,0,0,0,0,152,153,2147483800,0,0,0,0,0,0,0,0,0,0,0,0,0,0,0,
0,0,0,0,0,0,0,0,0,0,0,0,0,0,0,0,76,16,0,0,0,0,0,0,0,0,0,0,0,0,0,0,0,0,0,0,0,0,0,0,
98,98,138,0,0,0,0,0,0,0,0,0,0,0,0,0,0,0,0,0,0,0,0,0,0,0,0,0,0,0,0,0,0,0,0,0,0,0,0,0,
120,120,2684354658,0,97,98,98,98,98,98,98,98,99,0,0,0,0,0,0,0,0,0,0,0,0,0,0,0,0,0,0,0,0,0,0,0,0,0,0,0,
120,120,2684354658,0,109,110,110,111,111,111,110,110,154,0,0,0,0,0,0,145,146,98,98,2147483746,98,147,0,0,0,0,0,0,97,98,2147483746,2147483746,2147483745,0,0,0,
120,120,2684354658,0,0,152,136,136,135,136,136,154,0,0,0,0,0,0,0,0,0,152,110,2147483758,2147483800,0,0,0,0,0,0,0,152,110,2147483758,2147483758,2147483800,0,0,0,
120,120,2684354658,0,0,0,152,136,136,136,154,0,0,0,145,146,147,0,0,0,0,0,152,2147483800,0,0,0,0,0,0,0,0,0,152,153,2147483800,0,0,0,0,
120,2684354710,2684354698,0,0,0,0,152,153,154,0,0,0,0,0,0,0,0,0,0,0,0,0,0,0,0,0,0,0,0,0,0,0,0,0,0,0,0,0,0,
2684354710,2684354698,0,0,0,0,0,0,0,0,0,0,0,0,0,0,0,0,0,0,0,0,0,0,0,0,0,0,0,0,0,0,0,0,0,0,0,0,0,0,
16,282,282,282,282,282,282,282,282,282,282,282,282,282,282,282,282,282,282,282,282,282,282,282,282,282,282,282,282,282,282,282,282,282,282,282,282,282,282,282
</data>
 </layer>
</map>
