<?xml version="1.0" encoding="UTF-8"?>
<map version="1.10" tiledversion="1.12.1" orientation="orthogonal" renderorder="right-down" width="40" height="23" tilewidth="32" tileheight="32" infinite="0" nextlayerid="3" nextobjectid="1">
 <tileset firstgid="1" source="Tileset_cielo.tsx"/>
 <tileset firstgid="97" source="Tileset_Cielo_girado.tsx"/>
 <imagelayer id="2" name="Capa de Imagen 1">
  <image source="../Mapas/Cielo arriba.png" width="1280" height="736"/>
 </imagelayer>
 <layer id="1" name="Capa de patrones 1" width="40" height="23">
  <data encoding="csv">
0,0,0,0,0,0,0,0,0,0,0,0,0,0,0,0,0,0,0,0,0,0,0,0,0,0,0,0,0,0,0,0,0,0,0,0,0,0,0,0,
0,0,0,0,0,0,0,0,0,0,0,0,0,0,0,0,0,0,0,0,0,0,0,0,156,1073741944,0,0,0,0,0,0,0,0,0,0,0,0,0,0,
0,0,0,0,0,0,0,0,0,0,0,0,0,0,0,0,0,0,0,0,0,0,0,156,111,112,0,0,0,0,0,0,0,0,0,0,0,0,0,0,
0,0,0,0,0,0,0,0,0,0,0,0,0,0,0,0,0,0,0,0,0,0,0,164,111,112,0,0,0,0,0,0,0,0,0,0,0,0,0,0,
0,0,0,0,0,0,0,0,0,0,0,0,0,0,0,0,0,0,0,0,0,0,0,164,119,112,0,0,0,0,0,0,0,0,0,0,0,0,0,0,
0,0,0,0,0,0,0,0,0,0,0,0,0,0,0,0,0,0,0,0,0,0,0,164,119,112,0,0,0,2147483760,2147483804,0,0,0,0,0,0,0,0,0,
0,0,0,0,0,0,0,0,0,0,49,50,51,0,0,0,0,0,0,0,0,0,0,164,119,112,0,0,0,2147483760,2147483759,2147483804,0,0,0,0,0,0,0,0,
0,0,0,0,0,0,0,0,0,0,0,0,0,0,0,0,0,0,0,0,0,0,0,164,111,112,0,0,0,2147483760,2147483759,2147483812,0,0,0,0,0,0,0,0,
0,0,0,0,0,1,2,2147483650,2147483649,0,0,0,0,0,0,49,51,0,0,0,0,0,0,172,111,112,0,0,0,2147483760,2147483767,2147483812,0,0,0,0,0,0,0,0,
0,0,0,0,0,56,57,57,2147483704,0,0,0,0,0,0,0,0,0,0,0,0,0,0,0,172,120,0,0,0,2147483760,2147483767,2147483812,0,0,0,0,0,0,0,0,
2,2147483650,2147483650,2147483649,0,0,0,0,0,0,0,0,0,0,0,0,0,0,0,0,0,0,0,0,0,0,0,0,0,2147483760,2147483767,2147483812,0,0,0,0,1,2,2147483650,2147483650,
14,2147483662,2147483662,2147483704,0,0,0,0,0,0,0,0,0,0,0,0,0,0,0,0,0,0,0,0,0,0,0,0,0,2147483760,2147483759,2147483812,0,0,0,0,56,14,2147483662,2147483662,
56,57,2147483704,0,0,156,104,0,0,0,0,0,0,0,0,0,0,0,0,0,0,0,0,0,0,0,0,0,0,2147483760,2147483759,2147483820,0,0,0,0,0,56,57,2147483704,
0,0,0,0,156,111,112,0,0,0,49,51,0,0,0,0,0,0,0,0,0,0,0,0,0,0,0,0,0,2147483768,2147483820,0,0,0,0,0,0,0,0,0,
0,0,0,0,164,119,112,0,0,0,0,0,0,0,0,0,0,0,0,0,0,0,0,0,0,0,0,0,0,0,0,0,0,0,0,0,0,0,0,0,
0,0,0,0,164,111,112,0,0,0,0,0,0,0,0,0,0,0,0,0,0,0,0,0,0,0,0,0,0,0,0,0,0,0,0,0,0,0,0,0,
0,0,0,0,172,111,112,0,0,0,0,0,0,0,0,0,0,0,0,0,0,0,0,0,0,0,0,0,0,0,0,0,0,0,0,0,0,0,0,0,
0,0,0,0,0,172,120,0,0,0,49,51,0,0,0,0,0,0,0,0,0,0,0,0,0,0,0,0,0,0,0,0,0,0,0,0,0,0,0,0,
0,0,0,0,0,0,0,0,0,0,0,0,0,0,0,0,0,0,0,0,0,0,0,0,0,0,43,2,3,0,0,0,0,0,0,0,0,0,0,0,
0,0,0,0,0,0,0,0,0,0,0,0,0,0,0,0,0,0,0,0,0,0,0,0,0,43,55,15,16,0,0,0,0,0,0,0,0,0,0,0,
0,0,0,0,0,0,0,0,0,49,51,0,0,0,2147483651,2147483650,2147483691,0,0,0,0,0,0,0,43,55,15,57,58,0,0,0,0,0,0,0,0,0,0,0,
0,0,0,0,0,0,0,0,0,0,0,0,0,0,2147483664,2147483663,2147483703,42,0,0,0,0,43,2,55,15,58,0,0,0,0,0,0,0,0,0,0,0,0,0,
90,90,90,90,90,90,90,90,90,90,90,90,90,90,2147483706,2147483705,2147483663,112,0,0,0,0,2147483760,65,15,58,90,90,90,90,90,90,90,90,90,90,90,90,90,90
</data>
 </layer>
</map>
