<?xml version="1.0" encoding="UTF-8"?>
<map version="1.10" tiledversion="1.12.1" orientation="orthogonal" renderorder="right-down" width="40" height="23" tilewidth="32" tileheight="32" infinite="0" nextlayerid="3" nextobjectid="1">
 <tileset firstgid="1" source="Tileset_Tierra_.tsx"/>
 <tileset firstgid="97" source="Tileset_cielo.tsx"/>
 <tileset firstgid="193" source="Tileset_Cielo_girado.tsx"/>
 <tileset firstgid="289" source="Tileset_cielo.tsx"/>
 <imagelayer id="2" name="Capa de Imagen 1">
  <image source="../Mapas/Cielo abajo.png" width="1280" height="736"/>
 </imagelayer>
 <layer id="1" name="Platforms" width="40" height="23">
  <data encoding="csv">
4,2684354562,0,0,0,0,0,0,0,0,0,0,0,0,0,0,0,0,0,0,0,0,0,0,0,0,0,0,0,0,1610613026,312,312,312,2684354854,0,0,0,0,0,
4,2684354562,0,0,0,0,0,0,0,0,0,0,0,0,0,0,0,0,0,0,0,0,0,0,0,0,0,0,0,0,1610613026,312,312,312,2684354854,0,0,0,0,0,
4,2684354562,0,0,0,0,0,0,0,0,0,0,0,0,0,0,0,0,0,0,0,0,0,0,0,0,0,0,0,0,1610613026,312,312,312,2684354854,0,0,0,0,0,
4,2684354562,0,0,0,0,0,0,0,0,0,0,0,0,0,0,0,0,0,0,0,0,0,0,0,0,0,0,0,0,1610613026,312,312,312,2684354854,0,0,0,0,0,
4,2684354562,0,0,0,0,0,0,0,0,0,0,0,0,0,0,0,0,0,0,0,0,0,0,0,0,0,0,0,0,1610613026,312,312,312,2684354854,0,0,0,0,0,
4,2684354562,0,0,0,0,0,0,0,0,0,0,0,0,0,0,0,0,0,0,0,0,0,0,0,0,0,0,0,0,1610613026,312,312,312,2684354854,0,0,0,0,0,
4,2684354562,0,0,0,0,0,0,0,0,0,0,0,0,0,0,0,0,0,0,0,0,0,0,0,0,0,0,0,0,1610613026,312,312,312,2684354850,0,0,0,0,0,
4,2684354562,0,0,0,0,0,0,0,0,0,0,0,0,0,0,0,0,0,0,0,0,0,0,0,0,0,0,0,0,3221225802,3221225762,3221225762,3221225762,3221225803,0,0,0,0,0,
4,2684354562,0,0,0,0,0,0,0,0,0,331,294,295,295,295,295,295,295,1610612936,1610612936,245,0,0,0,0,0,0,0,0,0,0,0,0,0,0,0,0,0,0,
4,2684354562,0,0,0,0,0,0,0,0,0,3221225680,325,325,325,325,325,325,325,325,325,200,0,0,0,337,338,339,0,0,0,0,0,0,0,0,331,290,290,290,
4,2684354562,0,0,0,0,0,0,0,340,0,3221225680,325,325,325,325,325,325,325,325,325,200,0,0,0,0,0,0,0,0,0,0,0,0,0,331,343,312,312,312,
4,2684354562,0,0,0,0,0,0,0,0,0,3221225680,325,325,325,325,325,325,325,325,325,240,0,0,0,0,0,0,0,0,337,338,339,0,0,1610613026,312,312,312,312,
4,2684354562,0,0,0,337,338,339,0,0,0,3221225717,2684354768,2684354768,2684354768,2684354768,2684354768,2684354768,2684354768,2684354768,2684354768,2684354805,0,0,0,0,0,0,0,0,0,0,0,0,0,1610613026,312,312,312,312,
4,2684354562,0,0,0,0,0,0,0,0,0,0,0,0,0,0,0,0,0,0,0,0,0,0,0,0,0,0,0,0,0,0,0,0,0,1610613026,312,312,312,312,
4,2684354562,0,0,0,0,0,0,0,0,0,0,0,0,0,0,0,0,0,0,0,0,0,0,0,0,0,0,0,0,0,0,0,0,0,1610613026,312,312,312,312,
4,2684354562,0,0,0,0,0,0,0,0,0,0,0,0,0,0,0,0,0,0,0,0,0,0,0,0,0,0,0,0,0,0,0,0,0,1610613026,312,312,312,312,
4,2684354562,0,0,0,139,97,98,2147483746,2147483745,138,0,0,0,0,0,0,0,0,0,0,0,0,0,0,0,0,0,0,0,0,0,0,0,0,1610613026,312,312,312,312,
4,2684354562,0,0,0,3221225680,165,165,165,165,208,0,0,0,0,0,0,0,0,0,0,0,0,0,0,0,0,0,0,0,0,0,0,0,0,1610613026,312,312,312,312,
4,2684354562,0,0,0,3221225717,165,165,165,165,237,0,0,0,0,0,0,0,0,0,0,0,0,0,0,0,0,0,0,0,0,0,0,0,0,1610613026,312,312,312,312,
3221225478,3221225515,0,0,0,0,140,141,141,142,0,0,145,147,0,0,0,0,0,0,0,0,0,0,0,0,0,0,0,0,0,0,0,0,0,1610613067,3221225814,312,312,312,
0,0,0,0,0,0,0,0,0,0,0,0,0,0,0,145,146,147,0,0,0,0,0,0,0,0,0,0,0,0,0,0,0,0,0,0,1610613067,3221225814,312,312,
0,0,0,0,0,0,0,0,0,0,0,0,0,0,0,0,0,0,0,0,145,146,147,0,0,0,0,0,0,0,0,0,0,0,0,0,0,1610613067,3221225814,312,
0,0,0,0,0,0,0,0,0,0,0,0,0,0,0,0,0,0,0,0,0,0,0,0,43,6,6,6,42,0,0,0,0,0,0,0,0,0,1610613067,3221225762
</data>
 </layer>
</map>
