<?xml version="1.0" encoding="UTF-8"?>
<map version="1.10" tiledversion="1.12.1" orientation="orthogonal" renderorder="right-down" width="40" height="23" tilewidth="32" tileheight="32" infinite="0" nextlayerid="3" nextobjectid="1">
 <tileset firstgid="1" source="Tileset_cielo.tsx"/>
 <tileset firstgid="97" source="Tileset_Tierra_.tsx"/>
 <tileset firstgid="193" source="Tileset_Cielo_girado.tsx"/>
 <imagelayer id="2" name="Capa de Imagen 1">
  <image source="../Mapas/Cielo abajo.png" width="1280" height="736"/>
 </imagelayer>
 <layer id="1" name="Platforms" width="40" height="23">
  <data encoding="csv">
3221225474,3221225474,3221225474,3221225474,3221225474,3221225474,3221225526,37,2147483685,1073741878,1073741826,1073741826,1073741826,1073741826,1073741826,1073741826,3221225474,3221225515,0,0,0,0,1610612779,3221225474,3221225474,3221225474,3221225474,3221225474,3221225474,3221225474,3221225474,3221225474,3221225474,3221225474,3221225474,3221225526,37,24,236,2684354602,
0,0,0,0,0,0,3221225514,3221225526,1073741878,1073741866,0,0,0,0,0,0,0,0,0,0,0,0,0,0,0,0,0,0,0,0,0,0,0,0,0,3221225514,3221225526,24,208,0,
0,0,0,0,0,0,0,3221225680,208,0,0,0,0,0,0,0,0,0,0,49,51,0,0,0,0,0,0,0,0,0,0,0,0,0,0,0,3221225680,24,208,0,
0,0,0,0,0,0,0,3221225680,208,0,0,0,0,0,0,0,0,0,0,0,0,0,0,0,0,0,0,0,0,0,0,0,0,0,0,0,3221225680,24,208,0,
0,0,0,0,0,0,0,3221225680,208,0,0,0,0,0,0,0,0,0,0,0,0,0,0,49,50,51,0,0,0,49,50,51,0,0,0,0,3221225680,24,208,0,
0,0,0,0,0,0,0,3221225680,208,231,232,0,0,0,0,0,52,0,0,0,0,0,0,0,0,0,0,0,0,0,0,0,0,0,0,0,3221225680,24,208,0,
0,0,0,0,0,0,0,3221225680,208,0,0,0,0,0,0,0,0,0,0,0,0,0,0,0,0,0,0,0,0,0,0,0,0,0,52,0,3221225514,3221225526,1610612972,42,
0,0,0,0,0,0,0,3221225680,208,284,284,231,232,0,0,0,0,0,0,0,0,0,0,0,0,0,1,2,2147483650,2147483650,2147483649,51,51,0,0,0,0,1610612779,3221225526,54,
0,0,0,0,0,0,0,3221225514,3221225515,0,0,0,0,0,0,0,0,0,52,0,0,0,0,0,0,0,56,14,2147483662,2147483662,2147483704,0,0,0,0,0,0,0,1610612779,3221225526,
0,0,0,0,0,0,0,0,0,0,0,0,0,0,0,0,0,0,0,0,0,0,0,0,0,0,0,56,57,2147483704,0,0,0,0,0,0,0,0,0,1610612779,
2,2,42,0,0,0,0,0,0,0,0,0,0,0,0,0,52,0,0,0,0,0,0,0,0,0,0,0,0,0,0,0,0,0,0,0,0,0,0,0,
24,24,2684354562,0,0,0,0,0,0,0,0,0,0,0,0,0,0,0,0,0,0,0,0,0,0,0,0,0,0,0,0,0,0,0,0,0,0,0,0,0,
24,24,2684354562,0,0,0,0,0,0,0,0,0,0,49,51,0,0,0,0,0,0,0,0,0,0,0,0,0,0,0,0,0,0,0,0,0,0,0,0,0,
24,24,2684354562,0,0,0,0,0,0,0,0,0,0,0,0,0,0,0,0,0,1,2,2147483650,2147483650,2147483649,51,51,0,0,0,0,0,0,0,0,0,0,0,0,0,
24,24,2684354562,0,0,0,0,0,0,0,0,0,0,0,0,0,0,0,0,0,56,14,2147483662,2147483662,2147483704,0,0,0,0,0,49,50,51,0,0,0,0,0,0,0,
24,2684354614,2684354602,0,0,0,0,0,0,0,0,0,0,0,0,0,0,0,0,0,0,56,57,2147483704,0,0,0,0,0,0,0,0,0,0,0,0,0,0,0,0,
2684354614,2684354602,0,0,0,0,0,0,0,0,0,0,0,0,0,0,0,0,0,0,0,0,0,0,0,0,52,0,0,0,0,0,0,0,0,0,0,0,0,0,
208,0,0,0,49,51,0,0,0,0,0,0,0,0,0,0,0,0,0,0,0,0,0,0,0,0,0,0,0,0,0,0,0,0,0,0,0,0,0,0,
208,0,0,0,0,0,0,0,0,0,0,0,0,0,0,0,0,0,0,0,0,0,0,0,0,0,0,0,0,0,49,50,51,0,0,0,0,0,0,0,
208,0,0,0,0,0,0,0,0,0,0,0,0,2147483699,2147483650,2,2147483650,2147483650,2147483698,2147483697,0,0,0,0,0,0,52,0,0,0,0,0,0,0,0,0,0,0,0,0,
208,0,0,0,0,0,0,0,0,0,0,0,0,0,56,14,2147483662,2147483704,0,0,0,0,0,0,0,0,0,0,0,0,0,0,0,0,0,0,0,0,0,0,
208,0,0,0,0,0,0,0,0,0,0,0,0,0,0,56,2147483704,0,0,0,0,0,0,0,0,0,0,0,0,0,0,0,0,0,0,0,0,0,0,0,
208,186,186,186,186,186,186,186,186,186,186,186,186,186,186,186,186,186,186,186,186,186,186,186,186,186,186,186,186,186,186,186,186,186,186,186,186,186,186,186
</data>
 </layer>
</map>
