<?xml version="1.0" encoding="UTF-8"?>
<map version="1.10" tiledversion="1.12.1" orientation="orthogonal" renderorder="right-down" width="40" height="23" tilewidth="32" tileheight="32" infinite="0" nextlayerid="4" nextobjectid="1">
 <tileset firstgid="1" source="Tileset_cielo.tsx"/>
 <tileset firstgid="97" source="Tileset_Tierra_.tsx"/>
 <tileset firstgid="193" source="Tileset_Cielo_girado.tsx"/>
 <tileset firstgid="289" source="Tileset_Tierra_girado.tsx"/>
 <tileset firstgid="385" source="CartelArriba.tsx"/>
 <tileset firstgid="386" source="Decoracion/Señales.tsx"/>
 <imagelayer id="2" name="Capa de Imagen 1">
  <image source="../Mapas/Cielo abajo.png" width="1280" height="736"/>
 </imagelayer>
 <layer id="3" name="Capa de patrones 2" width="40" height="23">
  <data encoding="csv">
0,0,0,0,0,0,0,0,0,0,0,0,0,0,0,0,0,0,0,0,0,0,0,0,0,0,0,0,0,0,0,0,0,0,0,0,0,0,0,0,
0,0,0,0,0,0,0,0,0,0,0,0,0,0,0,0,0,0,0,0,0,0,0,0,0,0,0,0,0,0,0,0,0,0,0,0,0,0,0,0,
0,0,0,0,0,0,0,0,0,0,0,0,0,0,0,0,0,0,0,0,0,0,0,0,0,0,0,0,0,0,0,0,0,0,0,0,0,0,0,0,
0,0,0,0,0,0,0,0,0,0,0,0,0,0,0,0,0,0,0,0,0,0,0,0,0,0,0,0,0,0,0,0,0,0,0,0,0,0,0,0,
0,0,0,0,0,0,0,0,0,0,0,0,0,0,0,0,0,0,0,0,0,0,0,0,0,0,0,0,0,0,0,0,0,0,0,0,0,0,0,0,
0,0,0,0,0,0,0,0,0,0,0,0,0,0,0,0,0,0,0,0,0,0,0,0,0,0,0,0,0,0,0,0,0,0,0,0,0,0,0,0,
0,0,0,0,0,0,0,0,0,0,0,0,0,0,0,0,0,0,0,0,0,0,0,392,0,0,0,0,0,0,0,0,0,0,0,0,0,0,0,0,
0,0,0,0,0,0,0,0,0,0,0,0,0,0,0,0,0,0,0,0,0,0,0,0,0,0,0,0,0,0,0,0,0,0,0,0,0,0,0,0,
0,0,0,0,0,0,0,0,0,0,0,0,0,0,0,0,0,0,0,0,0,0,0,0,0,0,0,0,0,0,0,0,0,0,0,0,0,0,0,0,
0,0,0,0,0,0,0,0,0,0,0,0,0,0,0,0,0,0,0,0,0,0,0,0,0,0,0,0,0,0,0,0,0,0,0,0,0,0,0,0,
0,0,0,0,0,0,0,0,0,0,0,0,0,0,0,0,0,0,0,0,0,0,0,0,0,0,0,0,0,0,0,0,0,0,0,0,0,0,0,0,
0,0,0,0,0,0,0,0,0,0,0,0,0,0,0,0,0,0,0,0,0,390,0,0,0,0,0,0,0,0,0,0,0,0,0,0,0,0,0,0,
0,0,0,0,0,0,0,0,0,0,0,0,0,0,0,0,0,0,0,0,0,0,0,0,0,0,0,0,0,0,0,0,0,0,0,0,0,0,0,0,
0,0,0,0,0,0,0,0,0,0,0,0,0,0,0,0,0,0,0,0,0,0,0,0,0,0,0,0,0,0,0,0,0,0,0,0,0,0,0,0,
0,0,0,0,0,0,0,0,0,0,0,0,0,0,0,0,0,0,0,0,0,0,0,0,0,0,0,0,0,0,0,0,0,0,0,0,0,0,0,0,
0,0,0,0,0,0,0,0,0,0,0,0,0,0,0,0,0,0,0,0,0,0,0,0,0,0,0,0,0,0,0,0,0,0,0,0,0,0,0,0,
0,0,0,0,0,0,0,0,0,0,0,0,0,0,0,0,0,0,0,0,0,0,0,0,0,0,0,0,0,0,0,0,0,0,0,0,0,0,0,0,
0,0,0,0,0,0,0,0,0,0,0,0,0,0,0,0,0,0,0,0,0,0,0,0,0,0,0,0,0,0,0,0,0,0,0,0,0,0,0,0,
0,0,0,0,0,0,0,0,0,0,0,0,0,0,0,0,0,0,0,0,0,0,0,0,0,0,0,0,0,0,0,0,0,0,0,0,0,0,0,0,
0,0,0,0,0,0,0,0,0,0,0,392,0,0,0,0,0,0,0,0,0,0,0,0,0,0,0,0,0,0,0,0,0,0,0,0,0,0,0,0,
0,0,0,0,0,0,0,0,0,0,0,0,0,0,0,0,0,0,0,0,0,0,0,0,0,0,0,0,0,0,0,0,0,0,0,0,0,0,0,0,
0,0,0,0,0,0,0,0,0,0,0,0,0,0,0,0,393,0,0,0,0,0,0,395,0,0,0,0,0,0,0,0,0,0,0,0,0,0,0,0,
0,0,0,0,0,0,0,0,0,0,394,0,0,0,0,0,0,0,0,0,0,0,0,0,0,0,0,0,394,0,0,0,0,0,0,0,0,0,0,0
</data>
 </layer>
 <layer id="1" name="Platforms" width="40" height="23">
  <data encoding="csv">
3221225474,3221225474,3221225474,3221225474,3221225474,3221225474,3221225474,3221225474,3221225474,3221225474,3221225474,3221225474,3221225474,3221225474,3221225474,3221225474,3221225474,2684354602,0,0,0,0,3221225514,3221225474,3221225474,3221225474,3221225474,3221225515,0,0,0,0,0,0,0,0,0,0,0,0,
0,60,0,60,0,60,0,0,0,0,0,0,0,0,0,0,0,0,0,0,0,0,0,0,0,0,0,0,0,0,0,0,0,0,0,0,0,0,0,0,
0,60,0,60,0,60,0,0,0,0,0,0,0,0,0,0,0,0,391,0,0,2147484039,0,0,0,0,0,0,0,0,0,0,0,0,0,0,0,0,0,0,
0,60,0,60,0,3221225489,0,0,0,0,252,200,0,0,0,0,0,0,49,50,50,51,0,0,0,0,0,0,0,0,0,0,0,0,0,0,0,0,0,0,
0,60,0,60,0,3221225477,0,0,0,276,207,1073742032,0,0,0,0,0,0,0,0,0,0,0,0,0,0,0,0,0,0,0,0,0,0,0,0,0,0,0,0,
0,60,0,3221225489,0,0,0,0,0,0,268,216,0,0,0,0,0,0,0,0,0,0,0,0,0,0,0,0,0,0,0,0,0,0,0,0,0,0,0,0,
0,60,0,3221225477,0,0,0,0,0,0,0,0,0,0,0,0,0,0,0,0,0,0,0,0,0,0,0,0,2147483848,2147483900,0,0,0,0,0,0,0,0,0,0,
0,3221225489,0,0,0,0,0,0,0,0,0,0,0,1610612936,3758096592,1610612952,0,0,0,0,0,0,0,49,51,0,0,0,3221225680,2147483855,2147483900,0,0,0,0,0,0,0,0,0,
0,3221225477,0,0,0,0,0,0,0,0,0,0,0,1610612988,1610612943,1610613004,0,0,0,0,0,0,0,0,0,0,0,0,3221225680,2147483855,2147483908,0,52,0,0,0,0,0,0,0,
0,0,0,0,0,0,0,0,0,0,0,0,0,0,1610613012,0,0,0,0,0,0,0,0,0,0,0,0,0,3221225680,2147483863,2147483908,0,0,0,0,0,0,0,389,0,
0,0,0,0,0,0,0,0,0,0,0,0,0,0,0,0,0,0,0,0,0,0,0,0,0,0,0,0,3221225680,2147483855,2147483908,0,0,52,0,0,1610612778,2,2,2,
0,0,0,0,0,0,0,0,0,0,0,0,0,0,0,0,0,0,0,0,0,0,0,0,0,0,0,0,3221225680,2147483855,2147483916,0,0,0,0,0,3221225680,38,38,38,
0,0,0,0,0,0,0,0,0,0,0,0,0,0,0,0,0,0,0,0,1,2,2147483650,2147483649,0,0,0,0,2147483864,2147483916,0,0,0,0,0,0,1610612779,3221225479,3221225526,38,
0,0,0,0,0,0,0,0,0,0,0,0,0,0,0,0,3221225741,0,0,0,56,14,2147483662,2147483704,0,0,0,0,0,0,0,0,0,0,0,0,0,0,3221225680,38,
0,0,0,196,0,0,0,49,51,0,0,0,0,0,0,0,3221225725,0,0,0,0,56,2147483704,0,0,0,0,0,0,0,0,0,0,0,0,0,0,0,3221225680,38,
0,0,2684354616,208,0,0,0,0,0,0,0,0,0,0,0,0,0,0,0,0,0,0,0,0,0,0,0,0,0,0,0,0,0,0,0,0,0,0,3221225680,38,
0,2684354616,2684354574,208,0,0,0,0,0,0,0,0,0,0,0,0,0,0,0,0,0,0,0,0,0,0,0,0,0,0,0,0,0,0,0,0,0,0,3221225680,38,
0,3758096440,3758096398,208,0,0,0,0,0,0,0,0,0,0,0,0,0,0,0,0,0,0,0,0,0,0,0,0,0,0,0,0,0,0,0,0,0,0,3221225514,3221225526,
0,0,3758096440,208,0,0,0,0,0,0,0,0,0,0,0,0,0,0,0,0,0,0,0,0,0,0,0,0,0,0,0,0,0,0,0,0,0,0,0,1610612779,
0,0,0,204,0,0,0,0,0,0,0,0,0,0,0,0,0,0,0,0,0,0,0,0,0,0,0,0,0,0,0,0,0,0,0,0,0,0,0,0,
0,0,0,212,0,0,0,0,0,0,0,52,0,0,0,0,0,0,0,0,0,0,0,0,0,0,0,0,0,0,0,0,0,0,0,0,0,0,0,0,
0,0,0,0,0,0,0,0,0,0,0,0,0,0,0,0,0,0,0,0,0,0,0,0,0,0,0,0,0,0,0,0,0,0,0,0,0,0,0,0,
186,186,186,186,186,186,186,186,186,186,186,186,186,186,43,2,2,42,0,0,0,0,43,2,2,42,186,186,186,186,186,186,186,186,186,186,186,186,186,186
</data>
 </layer>
</map>
