<?xml version="1.0" encoding="UTF-8"?>
<map version="1.10" tiledversion="1.12.1" orientation="orthogonal" renderorder="right-down" width="40" height="23" tilewidth="32" tileheight="32" infinite="0" nextlayerid="3" nextobjectid="1">
 <tileset firstgid="1" source="Tileset_Tierra_.tsx"/>
 <tileset firstgid="97" source="Tileset_cielo.tsx"/>
 <tileset firstgid="193" source="Tileset_infierno.tsx"/>
 <tileset firstgid="289" source="Tileset_Cielo_girado.tsx"/>
 <tileset firstgid="385" source="Decoracion/Señales.tsx"/>
 <imagelayer id="2" name="Capa de Imagen 1">
  <image source="../Mapas/Zona_descanso.png" width="1280" height="736"/>
 </imagelayer>
 <layer id="1" name="Platforms" width="40" height="23">
  <data encoding="csv">
0,0,0,0,0,0,0,0,0,0,0,0,0,0,0,0,0,0,0,0,0,0,0,0,0,0,0,0,0,0,0,0,0,0,0,0,0,0,0,0,
0,0,0,0,0,0,0,0,0,0,0,0,0,0,0,0,0,0,0,0,0,0,0,0,0,0,0,0,0,0,0,0,0,0,0,0,0,0,0,0,
0,0,0,0,0,0,0,0,0,0,0,0,0,0,0,0,1610612874,2147483746,2147483650,2147483650,2147483650,2147483650,2147483842,3758096618,0,0,0,0,0,0,0,0,0,0,0,0,0,0,0,0,
0,0,0,0,0,0,0,0,0,0,0,0,0,0,0,1610612874,2147483798,1073741974,1073741826,1073741826,1073741826,1073741826,536871158,3758096630,2147483883,0,0,0,0,0,0,0,0,0,0,0,0,0,0,0,
0,0,0,0,0,0,0,0,0,0,0,0,0,0,1610612874,2147483798,1073741974,1073741962,0,0,0,0,536871146,536871158,3758096630,2147483883,0,0,0,0,0,0,0,0,0,0,0,0,0,0,
0,0,0,0,0,0,0,0,0,0,0,0,0,1610612874,2147483798,1073741974,1073741962,0,0,0,0,0,0,1073742059,536871158,3758096630,2147483883,0,0,0,0,0,0,0,0,0,0,0,0,0,
0,0,0,0,0,0,0,0,0,0,0,0,0,536871010,1073741974,1073741962,0,0,0,0,0,0,0,0,1073742059,536871158,3758096578,0,0,0,0,0,0,0,0,0,0,0,0,0,
0,0,0,0,0,0,0,0,0,0,0,0,0,1073741963,1073741962,0,0,0,0,0,0,0,0,0,0,1073742059,1073742058,0,0,0,0,0,0,0,0,0,0,0,0,0,
0,0,0,0,0,0,0,0,0,0,0,0,0,0,0,0,0,0,0,0,0,0,0,0,0,0,0,0,0,0,0,0,0,0,0,0,0,0,0,0,
0,0,0,0,0,0,0,0,0,0,0,0,0,0,0,0,0,0,0,0,0,0,0,0,0,0,0,0,0,0,0,0,0,0,0,0,0,0,0,0,
2147483746,2147483746,2147483746,3758096522,0,0,0,0,0,0,0,0,0,0,0,0,139,138,0,0,0,0,235,234,0,0,0,0,0,0,0,0,0,0,0,0,0,0,0,0,
2147483782,2147483782,2147483782,1073742128,0,0,0,0,0,0,0,0,0,0,0,0,1610612834,150,2,2,2,2,1610612982,2684354754,0,0,0,0,0,0,0,0,0,0,0,0,0,0,0,0,
2147483782,1073741974,1073741927,3758096523,0,0,0,0,0,0,0,145,146,147,0,0,536871050,3221225570,3221225474,3221225474,3221225474,3221225474,3221225666,3221225707,0,0,241,242,243,0,0,0,0,0,0,0,241,242,243,0,
2147483782,1073742128,0,0,0,0,0,0,0,0,0,0,0,0,0,0,0,0,0,0,0,0,0,0,0,0,0,0,0,0,0,0,0,0,0,0,0,0,0,0,
2147483782,1073742128,0,0,0,0,145,146,147,0,0,0,0,0,0,0,0,0,0,0,0,0,0,0,0,0,0,0,0,0,0,241,242,243,0,0,0,0,0,0,
2147483782,1073742128,0,0,0,0,0,0,0,0,0,0,0,0,0,0,0,0,0,0,0,0,0,0,0,0,0,0,0,0,0,0,0,0,0,0,0,0,0,0,
2147483782,1073742128,0,0,0,0,0,0,0,0,0,145,146,147,0,0,0,0,0,0,0,0,0,0,0,0,241,242,243,0,0,0,0,0,0,0,241,242,243,0,
1073741974,1073741962,0,0,0,0,0,0,0,0,0,0,0,0,0,0,0,0,0,0,0,0,0,0,0,0,0,0,0,0,0,0,0,0,0,0,0,0,0,0,
3758096523,0,0,0,0,0,145,146,147,0,0,0,0,0,0,0,0,0,0,0,0,0,0,0,0,0,0,0,0,0,0,241,242,243,0,0,0,0,0,0,
0,0,0,0,0,0,0,0,0,0,0,0,0,0,0,0,0,0,0,0,0,0,0,0,0,0,0,0,0,0,0,0,0,0,0,0,0,0,0,0,
0,145,146,147,0,0,0,0,0,0,0,145,146,147,0,0,0,0,0,0,0,0,0,0,0,0,241,242,243,0,0,0,0,0,0,0,241,242,243,0,
0,0,0,0,0,0,0,0,0,0,0,0,0,0,0,0,0,0,0,0,0,0,0,0,0,0,0,0,0,0,0,0,0,0,0,0,0,0,0,0,
98,98,98,98,98,98,98,98,98,98,98,98,98,98,98,98,98,2,2,2,2,2,2,194,194,194,194,194,194,194,194,194,194,194,194,194,194,194,194,194
</data>
 </layer>
</map>
