<?xml version="1.0" encoding="UTF-8"?>
<map version="1.10" tiledversion="1.12.1" orientation="orthogonal" renderorder="right-down" width="40" height="23" tilewidth="32" tileheight="32" infinite="0" nextlayerid="7" nextobjectid="1">
 <tileset firstgid="1" name="Tierra arriba" tilewidth="32" tileheight="32" tilecount="920" columns="40">
  <image source="../Mapas/Tierra arriba.png" width="1280" height="736"/>
 </tileset>
 <tileset firstgid="921" source="Tileset_Tierra_.tsx"/>
 <tileset firstgid="1017" source="Tileset_Tierra_girado.tsx"/>
 <tileset firstgid="1113" source="CartelDerecha.tsx"/>
 <tileset firstgid="1114" source="Decoracion/Arboles.tsx"/>
 <tileset firstgid="1246" source="Decoracion/Arbustos.tsx"/>
 <imagelayer id="3" name="FondoTierraArriba">
  <image source="../Mapas/Tierra arriba.png" width="1280" height="736"/>
 </imagelayer>
 <layer id="2" name="Deco" width="40" height="23">
  <data encoding="csv">
0,0,0,0,0,0,0,0,0,0,0,0,0,0,0,0,0,0,0,0,0,0,0,0,0,0,0,0,0,0,0,0,0,0,0,0,0,0,3221226504,957,
0,0,0,0,0,0,0,0,0,0,0,0,0,0,0,0,0,0,0,0,0,0,0,0,0,0,0,0,0,0,0,0,0,0,0,0,0,0,3221226504,958,
0,0,0,0,0,0,0,0,0,0,0,0,0,0,0,0,0,0,0,0,0,0,0,0,0,0,0,0,0,0,0,1254,1255,0,0,0,0,0,3221226504,959,
0,0,0,0,0,0,0,0,0,0,0,0,0,0,0,0,0,0,0,0,0,0,0,0,0,0,0,0,0,0,963,2147484570,2147484570,2147484569,0,0,0,0,3221226504,960,
0,0,0,0,0,0,0,0,0,0,0,969,970,971,0,0,969,970,971,0,0,0,0,0,0,0,0,0,0,963,2147484622,2147484583,2147484583,2147484581,0,0,0,0,3221226504,924,
0,0,0,0,0,0,0,0,0,0,0,0,0,0,0,0,0,0,0,0,0,0,0,0,0,0,0,0,963,2147484622,2147484583,2147484588,2147484625,2147484624,0,0,0,0,1073742787,3221226446,
0,0,0,0,0,0,0,972,0,0,0,0,0,0,0,0,0,0,0,0,0,969,970,971,0,0,2147484571,2147484570,2147484622,2147484583,2147484588,2147484624,0,0,0,0,0,0,0,1073742787,
0,0,1256,1257,0,0,0,0,0,0,0,0,0,0,0,0,0,0,0,0,0,0,0,0,0,0,2147484584,2147484582,2147484582,2147484588,2147484624,0,0,0,0,0,0,0,0,0,
0,969,970,971,0,0,0,0,0,0,0,0,0,0,0,0,0,0,0,0,0,0,0,0,0,0,2147484626,2147484625,2147484625,2147484624,0,0,0,0,0,0,0,0,0,0,
0,0,0,0,0,0,0,1268,1269,0,0,0,0,0,0,0,972,0,0,0,0,0,0,0,0,0,0,0,0,0,0,0,0,0,0,969,2147484618,2147484617,0,0,
0,0,0,0,0,0,969,970,971,0,0,0,0,0,0,0,0,0,0,0,0,0,0,0,0,0,0,0,0,0,0,0,0,0,0,0,0,0,0,0,
0,0,0,0,0,0,0,0,0,0,0,0,0,0,0,0,0,0,0,925,0,0,0,0,0,0,0,0,0,0,1186,1187,1188,1189,1190,1191,0,0,0,0,
0,0,0,0,0,0,0,0,0,0,0,0,0,925,0,0,0,0,0,949,0,0,0,0,0,0,1278,1279,0,0,1198,1199,1200,1201,1202,1203,0,0,963,922,
0,0,0,0,0,0,0,0,0,0,0,0,0,949,0,0,0,0,0,0,0,0,969,971,0,0,921,922,922,962,1210,1211,1212,1213,1214,1215,0,0,2147484720,957,
0,0,0,0,0,0,0,0,0,0,0,0,0,0,0,0,0,0,0,0,0,0,0,0,0,0,933,935,935,974,1222,1223,1224,1225,1226,1227,0,0,2147484720,957,
0,0,0,0,0,0,0,0,0,0,0,0,0,0,0,0,0,0,0,0,0,2147484772,2147484771,2147484770,2147484769,0,976,977,940,935,1234,1235,1236,1237,1238,1239,0,0,2147484720,957,
0,0,0,0,0,0,0,0,0,0,0,0,0,0,1121,1122,1123,1124,0,0,0,2147484784,2147484783,2147484782,2147484781,0,0,0,976,940,935,974,922,923,0,0,0,0,2147484720,957,
0,1114,1115,1116,1117,1118,1119,1120,0,0,0,0,0,0,1133,1134,1135,1136,0,0,0,2147484796,2147484795,2147484794,2147484793,0,0,0,0,976,940,934,934,936,2684355485,0,0,0,2147484720,957,
0,1126,1127,1128,1129,1130,1131,1132,0,0,0,0,0,0,1145,1146,1147,1148,0,0,0,2147484808,2147484807,2147484806,2147484805,0,0,0,0,0,976,977,977,978,0,0,0,1610613661,2147484720,957,
0,1138,1139,1140,1141,1142,1143,1144,0,0,0,0,0,0,1157,1158,1159,1160,0,0,0,2147484820,2147484819,2147484818,2147484817,0,0,0,0,0,0,0,0,0,0,0,0,0,2147484720,957,
0,1150,1151,1152,1153,1154,1155,1156,0,0,0,0,0,0,1169,1170,1171,1172,0,0,0,2147484832,2147484831,2147484830,2147484829,0,0,0,0,0,0,0,0,0,0,0,1610613661,1610613673,2147484720,957,
0,1264,1265,1164,1165,1166,1167,1264,1265,0,0,0,0,0,1181,1182,1183,1184,0,0,963,975,957,974,962,0,1278,1279,0,0,0,0,0,0,0,0,1254,1255,2147484720,957,
921,1174,1175,1176,1177,1178,1179,1180,922,0,922,922,922,922,922,975,957,974,922,922,975,957,957,957,974,922,922,954,930,930,930,930,930,930,930,953,927,927,975,957
</data>
 </layer>
 <layer id="6" name="Platforms" width="40" height="23">
  <data encoding="csv">
0,0,0,0,0,0,0,0,0,0,0,0,0,0,0,0,0,0,0,0,0,0,0,0,0,0,0,0,0,0,0,0,0,0,0,0,0,0,3221226504,957,
0,0,0,0,0,0,0,0,0,0,0,0,0,0,0,0,0,0,0,0,0,0,0,0,0,0,0,0,0,0,0,0,0,0,0,0,0,0,3221226504,958,
0,0,0,0,0,0,0,0,0,0,0,0,0,0,0,0,0,0,0,0,0,0,0,0,0,0,0,0,0,0,0,0,0,0,0,0,0,0,3221226504,959,
0,0,0,0,0,0,0,0,0,0,0,0,0,0,0,0,0,0,0,0,0,0,0,0,0,0,0,0,0,0,963,2147484570,2147484570,2147484569,0,0,0,0,3221226504,960,
0,0,0,0,0,0,0,0,0,0,0,969,970,971,0,0,969,970,971,0,0,0,0,0,0,0,0,0,0,963,2147484622,2147484583,2147484583,2147484581,0,0,0,0,3221226504,924,
0,0,0,0,0,0,0,0,0,0,0,0,0,0,0,0,0,0,0,0,0,0,0,0,0,0,0,0,963,2147484622,2147484583,2147484588,2147484625,2147484624,0,0,0,0,1073742787,3221226446,
0,0,0,0,0,0,0,972,0,0,0,0,0,0,0,0,0,0,0,0,0,969,970,971,0,0,2147484571,2147484570,2147484622,2147484583,2147484588,2147484624,0,0,0,0,0,0,0,1073742787,
0,0,0,0,0,0,0,0,0,0,0,0,0,0,0,0,0,0,0,0,0,0,0,0,0,0,2147484584,2147484582,2147484582,2147484588,2147484624,0,0,0,0,0,0,0,0,0,
0,969,970,971,0,0,0,0,0,0,0,0,0,0,0,0,0,0,0,0,0,0,0,0,0,0,2147484626,2147484625,2147484625,2147484624,0,0,0,0,0,0,0,0,0,0,
0,0,0,0,0,0,0,0,0,0,0,0,0,0,0,0,972,0,0,0,0,0,0,0,0,0,0,0,0,0,0,0,0,0,0,969,2147484618,2147484617,0,0,
0,0,0,0,0,0,969,970,971,0,0,0,0,0,0,0,0,0,0,0,0,0,0,0,0,0,0,0,0,0,0,0,0,0,0,0,0,0,0,0,
0,0,0,0,0,0,0,0,0,0,0,0,0,0,0,0,0,0,0,925,0,0,0,0,0,0,0,0,0,0,0,0,0,0,0,0,0,0,0,0,
0,0,0,0,0,0,0,0,0,0,0,0,0,925,0,0,0,0,0,949,0,0,0,0,0,0,0,0,0,0,0,0,0,0,0,0,0,0,963,922,
0,0,0,0,0,0,0,0,0,0,0,0,0,949,0,0,0,0,0,0,0,0,969,971,0,0,921,922,922,962,0,0,0,0,0,0,0,0,2147484720,957,
0,0,0,0,0,0,0,0,0,0,0,0,0,0,0,0,0,0,0,0,0,0,0,0,0,0,933,935,935,974,962,0,0,0,0,0,0,0,2147484720,957,
0,0,0,0,0,0,0,0,0,0,0,0,0,0,0,0,0,0,0,0,0,0,0,0,0,0,976,977,940,935,974,962,0,0,0,0,0,0,2147484720,957,
0,0,0,0,0,0,0,0,0,0,0,0,0,0,0,0,0,0,0,0,0,0,0,0,0,0,0,0,976,940,935,974,922,923,0,0,0,0,2147484720,957,
0,0,0,0,0,0,0,0,0,0,0,0,0,0,0,0,0,0,0,0,0,0,0,0,0,0,0,0,0,976,940,934,934,936,2684355485,0,0,0,2147484720,957,
0,0,0,0,0,0,0,0,0,0,0,0,0,0,0,0,0,0,0,0,0,0,0,0,0,0,0,0,0,0,976,977,977,978,0,0,0,1610613661,2147484720,957,
0,0,0,0,0,0,0,0,0,0,0,0,0,0,0,0,0,0,0,0,0,0,0,0,0,0,0,0,0,0,0,0,0,0,0,0,0,0,2147484720,957,
0,0,0,0,0,0,0,0,0,0,0,0,0,0,0,0,0,0,0,0,0,963,922,962,0,0,0,0,0,0,0,0,0,0,0,0,1610613661,1610613673,2147484720,957,
0,0,0,0,0,0,0,0,0,0,0,0,0,0,0,963,922,962,0,0,963,975,957,974,962,0,0,0,0,0,0,0,0,0,0,0,0,0,2147484720,957,
921,922,922,922,922,922,922,922,922,922,922,922,922,922,922,975,957,974,922,922,975,957,957,957,974,922,922,954,930,930,930,930,930,930,930,953,927,927,975,957
</data>
 </layer>
</map>
