<?xml version="1.0" encoding="UTF-8"?>
<map version="1.10" tiledversion="1.12.1" orientation="orthogonal" renderorder="right-down" width="40" height="23" tilewidth="32" tileheight="32" infinite="0" nextlayerid="4" nextobjectid="1">
 <tileset firstgid="1" source="Tileset_Tierra_.tsx"/>
 <tileset firstgid="97" source="Tileset_Tierra_girado.tsx"/>
 <tileset firstgid="193" source="Tileset_cielo.tsx"/>
 <tileset firstgid="289" source="CartelArriba.tsx"/>
 <tileset firstgid="290" source="CartelAbajo.tsx"/>
 <imagelayer id="2" name="FondoTierraArriba">
  <image source="../Mapas/Tierra arriba.png" width="1280" height="736"/>
 </imagelayer>
 <layer id="1" name="Platforms" width="40" height="23">
  <data encoding="csv">
38,140,3221225474,3221225474,3221225474,3221225474,3221225474,3221225474,3221225474,3221225474,3221225474,3221225474,3221225474,3221225474,3221225474,3221225474,3221225474,3221225515,0,0,0,0,1610612779,3221225474,3221225584,4,39,4,112,2684354620,2684354620,2684354577,2684354565,0,0,0,0,0,0,3221225584,
38,112,0,0,0,0,0,0,0,0,0,0,0,0,0,0,0,0,0,0,0,0,0,0,3221225584,4,39,4,112,0,0,0,0,0,0,0,0,0,0,3221225584,
1073741878,2684354602,0,0,0,0,0,0,0,0,0,0,0,0,0,0,0,0,0,0,0,52,0,0,3221225584,4,39,4,112,0,0,0,0,0,1610612741,1610612753,1610612796,1610612796,1610612796,3221225584,
2684354602,0,0,0,0,0,0,43,2,2,42,0,0,0,0,0,0,0,0,289,0,0,0,0,3221225584,4,39,4,112,0,0,0,0,0,0,0,0,0,0,3221225584,
0,0,0,0,536870917,536870929,536870972,3221225584,37,37,2684354562,0,0,0,0,0,0,0,0,536870917,536870929,536870972,536870972,536870972,3221225584,4,39,4,112,0,0,0,0,0,0,0,0,0,0,1610612779,
0,0,0,0,0,0,0,1610612779,1610612791,37,54,42,0,0,0,0,0,0,0,0,0,0,0,0,3221225584,4,39,4,112,0,0,0,0,0,0,0,0,0,0,0,
0,52,0,0,0,0,0,0,1610612779,3221225474,3221225474,2684354602,0,0,0,0,0,536870917,536870929,536870972,536870972,536870972,536870972,536870972,3221225584,4,39,4,112,0,0,0,0,0,0,0,0,1610612741,1610612753,1610612796,
0,0,0,0,0,0,0,0,0,0,0,0,0,0,0,0,0,0,0,0,0,0,0,0,3221225584,4,39,4,112,0,0,0,0,0,0,0,0,0,0,0,
0,0,52,0,0,0,0,0,0,0,0,0,0,0,0,0,0,0,0,0,0,0,0,0,3221225584,4,39,4,112,0,0,0,0,52,0,0,0,0,0,0,
0,0,0,0,0,0,0,0,0,2147483752,104,0,0,0,0,0,0,0,0,0,0,0,0,0,3221225584,4,39,4,112,0,0,0,0,0,0,0,0,0,0,0,
0,0,0,0,0,0,0,0,0,3221225584,112,2684354620,2684354620,2684354577,2684354565,0,0,0,0,0,0,0,0,0,1610612779,3221225474,3221225474,3221225474,3221225515,0,0,0,0,0,0,0,0,1610612741,1610612753,1610612796,
0,0,0,0,0,0,0,0,0,3221225584,112,0,0,0,0,0,0,52,0,0,0,0,0,0,0,0,0,0,0,0,0,0,0,0,0,0,0,0,0,0,
2,2,2,3,0,0,0,0,0,3221225584,112,0,0,0,0,0,0,0,0,0,0,0,0,0,0,0,0,0,0,52,0,0,0,0,0,0,0,0,0,43,
65,3221225527,3221225474,1073741827,0,0,0,0,0,3221225584,112,0,0,0,0,0,0,0,0,49,51,0,0,0,0,0,0,0,0,0,0,0,0,0,0,0,0,0,0,3221225584,
2684354614,2684354602,0,0,0,0,1610612741,1610612753,1610612796,3221225584,112,0,0,0,49,50,51,0,0,0,0,0,0,0,0,0,0,0,0,0,0,0,49,50,51,0,0,0,0,3221225584,
112,0,0,0,0,0,0,0,0,3221225584,112,0,0,0,0,0,0,0,0,0,0,0,0,0,0,0,0,0,0,0,0,0,0,0,0,0,0,0,0,3221225584,
112,0,0,0,0,0,0,0,0,3221225584,112,0,0,0,0,0,0,0,0,0,0,0,0,0,0,0,0,0,0,0,0,0,0,0,0,0,0,1610612741,1610612753,3221225584,
112,0,0,0,0,0,0,0,0,2684354701,141,0,49,51,0,0,0,0,0,0,0,0,0,0,0,0,0,0,0,0,0,0,0,0,0,0,0,0,0,3221225584,
112,0,0,0,0,0,0,0,0,0,0,0,0,0,0,0,44,46,0,0,0,44,46,0,0,0,0,0,0,0,0,0,0,0,43,2,2,2,2,3221225612,
112,0,0,0,0,0,0,0,0,0,0,0,0,0,0,0,0,0,0,0,0,0,0,0,0,0,0,0,0,0,0,0,0,43,55,37,37,37,37,37,
112,0,0,0,0,0,0,0,0,0,0,0,0,0,0,0,0,0,0,0,0,0,0,0,0,0,0,0,0,0,0,0,43,55,37,38,38,38,38,38,
112,0,47,0,0,0,0,0,0,44,45,46,0,0,0,0,0,0,0,0,0,0,0,290,0,0,0,0,0,0,0,43,55,37,38,39,39,39,39,39,
112,90,90,90,90,90,90,90,90,90,90,90,90,90,90,1610612778,2,42,0,0,0,0,43,2,42,90,90,90,90,90,43,55,37,38,39,40,40,40,40,40
</data>
 </layer>
</map>
