<?xml version="1.0" encoding="UTF-8"?>
<map version="1.10" tiledversion="1.12.1" orientation="orthogonal" renderorder="right-down" width="40" height="23" tilewidth="32" tileheight="32" infinite="0" nextlayerid="4" nextobjectid="1">
 <tileset firstgid="1" source="Tileset_Tierra_.tsx"/>
 <tileset firstgid="97" source="Tileset_Tierra_girado.tsx"/>
 <tileset firstgid="193" source="Tileset_cielo.tsx"/>
 <tileset firstgid="289" source="Decoracion/Arboles.tsx"/>
 <tileset firstgid="421" source="Decoracion/Señales.tsx"/>
 <tileset firstgid="433" source="Decoracion/Arbustos.tsx"/>
 <tileset firstgid="469" source="Decoracion/Hierba.tsx"/>
 <imagelayer id="2" name="Capa de Imagen 1">
  <image source="../Mapas/Tierra arriba.png" width="1280" height="736"/>
 </imagelayer>
 <layer id="3" name="Capa de patrones 2" width="40" height="23">
  <data encoding="csv">
0,0,0,0,0,0,0,0,0,0,0,0,0,0,0,0,0,0,0,0,0,0,0,0,0,0,0,0,0,0,0,0,0,0,0,0,0,0,0,0,
0,0,0,0,0,0,0,0,0,0,0,0,0,0,0,0,0,0,0,0,0,0,0,0,0,0,0,0,0,0,0,0,0,0,0,0,0,0,0,0,
0,0,0,0,0,0,0,0,0,0,0,0,0,0,0,0,0,0,0,0,0,0,470,476,0,0,0,0,0,0,0,0,0,0,0,0,0,0,0,0,
0,0,0,0,0,0,0,0,0,0,0,0,0,0,0,0,0,0,0,0,0,0,0,0,0,0,0,0,0,0,0,0,0,0,0,0,0,0,0,0,
0,0,0,0,0,0,0,0,0,0,0,0,0,0,441,442,0,0,0,0,0,0,0,0,0,0,0,0,0,0,0,0,0,0,0,0,0,0,0,0,
0,0,0,0,0,0,0,0,0,0,0,0,0,0,0,0,0,0,0,0,0,0,0,0,0,0,0,0,0,0,0,0,0,0,0,0,0,0,0,0,
0,0,0,0,0,0,0,0,0,0,0,0,0,0,0,0,0,0,0,0,0,0,0,0,0,0,0,0,0,0,0,0,0,0,0,0,0,0,0,0,
0,0,0,0,0,0,0,0,0,0,0,0,0,0,0,0,0,0,0,0,0,0,0,0,0,0,0,0,0,0,0,0,0,0,0,0,0,0,0,0,
0,0,0,0,0,0,0,0,0,0,0,0,0,0,0,0,0,0,0,0,0,0,0,0,0,0,0,0,0,0,0,0,0,0,0,0,0,0,0,0,
0,453,454,0,0,0,0,0,0,0,0,0,0,0,427,0,0,0,0,0,0,0,0,0,0,0,0,0,0,0,0,0,0,0,0,429,0,473,472,0,
0,0,0,0,0,0,0,0,0,0,0,0,0,0,0,0,0,0,0,0,0,0,0,0,0,0,0,0,0,0,0,0,0,0,0,0,0,0,0,0,
0,0,0,0,0,0,0,0,0,0,0,0,0,0,0,0,0,0,0,0,0,0,0,0,0,0,0,0,0,0,0,0,0,0,0,0,0,0,0,0,
0,0,0,0,0,0,0,0,0,0,0,0,0,0,0,0,0,0,0,0,0,0,0,0,0,0,0,0,0,0,0,0,0,0,0,0,0,0,0,0,
0,0,0,0,0,0,0,0,0,0,0,0,0,0,0,0,0,0,0,0,0,0,0,0,0,0,0,0,0,0,0,0,0,0,0,0,0,0,0,0,
0,0,0,0,0,0,0,0,0,0,0,0,0,0,0,0,0,0,0,0,0,0,0,0,0,0,0,0,0,0,0,0,0,0,0,0,0,0,0,0,
0,2147483943,2147483942,2147483941,2147483940,2147483939,2147483938,2147483937,0,0,0,0,0,0,0,0,0,0,0,0,0,0,0,427,0,0,0,0,0,0,0,0,0,0,0,0,0,0,0,0,
0,2147483955,2147483954,2147483953,2147483952,2147483951,2147483950,2147483949,0,0,0,0,0,0,0,0,0,0,0,0,0,0,0,0,0,0,0,0,0,0,0,0,0,0,0,0,0,0,0,0,
0,2147483967,2147483966,2147483965,2147483964,2147483963,2147483962,2147483961,0,0,0,0,0,0,0,0,0,0,0,0,0,0,0,0,0,0,0,0,0,0,0,0,0,0,0,0,0,0,0,0,
0,2147483979,2147483978,2147483977,2147483976,2147483975,2147483974,2147483973,0,0,0,0,0,0,0,0,0,0,0,0,0,0,0,0,0,0,0,0,0,0,0,0,0,0,0,0,0,0,0,0,
0,2147483991,2147483990,2147483989,2147483988,2147483987,2147483986,2147483985,0,0,0,0,0,0,0,0,0,0,0,0,0,0,0,0,0,0,0,0,0,0,0,0,0,0,0,0,0,0,0,0,
0,2147484003,2147484002,2147484001,2147484000,2147483999,2147483998,2147483997,0,0,0,0,0,0,0,0,0,0,0,0,0,0,0,0,0,0,0,0,0,0,0,0,0,0,0,0,0,0,0,0,
0,0,0,0,0,0,0,0,0,0,0,0,0,0,0,0,0,0,0,0,0,0,0,0,0,0,0,0,0,0,0,0,0,0,0,0,0,0,0,0,
0,0,0,0,0,0,0,0,0,429,0,0,0,0,0,429,0,0,429,0,0,0,0,0,0,429,0,0,0,0,0,0,0,0,0,429,0,0,0,0
</data>
 </layer>
 <layer id="1" name="Platforms" width="40" height="23">
  <data encoding="csv">
0,0,0,0,0,0,0,0,3221225584,37,112,1610612971,3221225666,3221225666,3221225666,3221225666,3221225666,2684354794,0,0,0,0,3221225706,3221225666,3221225666,3221225666,3221225666,3221225666,3221225666,3221225666,3221225666,3221225666,3221225666,3221225666,3221225666,3221225707,3221225584,38,112,0,
0,0,0,2147483784,2147483783,2147483836,2147483836,2147483836,3221225584,37,112,0,0,0,0,0,0,0,0,0,0,0,0,0,0,0,0,0,0,0,0,0,0,0,0,0,3221225584,38,112,0,
0,0,0,0,0,0,0,0,3221225584,37,112,0,0,0,0,0,0,0,0,0,0,0,0,0,0,0,0,0,0,536870917,536870929,536870972,536870972,536870972,536870972,536870972,3221225584,38,112,0,
1073742012,1073741959,1073741960,0,0,0,0,0,3221225584,37,112,0,0,0,0,0,0,0,0,0,0,43,2,2,42,0,0,0,0,0,0,0,0,0,0,0,3221225584,38,112,0,
0,0,0,0,0,0,0,0,3221225584,37,112,0,0,0,0,0,0,0,536870917,536870929,536870972,3221225584,37,37,2684354562,0,0,0,0,0,0,0,0,0,0,0,1610612779,3221225474,3221225515,0,
0,0,0,0,0,0,0,0,3221225584,37,112,0,0,0,49,51,0,0,0,0,0,1610612779,1610612791,37,54,42,0,0,0,0,0,0,0,0,0,0,0,0,0,0,
0,0,0,0,0,0,0,0,3221225584,37,112,0,0,0,0,0,0,0,0,0,0,0,1610612779,3221225474,3221225474,2684354602,0,0,0,0,0,0,0,0,0,0,0,0,0,0,
0,0,0,0,0,0,0,0,3221225584,37,112,0,0,0,0,0,0,0,0,0,0,0,0,0,0,0,0,0,0,0,0,0,1610612778,42,0,0,3221225608,3221225607,3221225660,3221225660,
0,0,0,0,0,0,0,0,3221225584,37,112,0,0,0,0,0,0,0,0,0,0,0,0,0,0,0,0,0,0,0,0,0,3221225584,112,0,0,0,0,0,0,
0,0,0,0,0,0,0,0,3221225514,3221225479,3221225515,0,0,0,0,0,0,0,0,0,0,0,0,0,0,0,0,0,0,0,0,0,3221225584,112,0,0,0,0,0,0,
2,2,2,42,0,0,0,0,0,0,0,0,0,49,51,0,0,0,0,0,0,0,0,0,0,0,0,0,0,0,0,0,3221225584,54,2,2,2,2,2,2,
4,4,4,54,42,0,0,0,0,0,0,0,0,0,0,0,0,0,0,0,0,0,0,0,0,0,0,0,0,0,0,0,3221225514,3221225474,3221225474,3221225474,3221225474,3221225474,3221225474,3221225474,
140,3221225474,3221225474,3221225474,3221225515,0,0,0,0,0,0,0,0,0,0,0,0,0,156,104,0,0,0,0,0,0,0,0,0,0,0,0,0,0,0,0,0,0,0,0,
112,0,0,0,0,0,0,0,0,0,0,0,0,0,0,0,0,156,125,112,0,0,0,0,0,0,0,0,0,0,0,0,0,0,0,0,0,0,536870955,2,
112,0,0,0,0,0,0,0,0,0,0,0,0,0,0,0,0,172,125,112,0,0,0,0,0,0,0,0,0,0,0,0,0,0,0,0,0,0,3221225584,3758096424,
112,0,0,0,0,0,0,0,0,0,0,0,0,0,0,0,0,0,172,120,0,0,0,0,0,0,0,0,0,0,0,0,0,0,0,0,0,0,3221225584,3758096424,
112,0,0,0,0,0,0,0,0,0,0,0,0,0,0,0,0,0,0,0,0,0,0,3221225592,3221225644,0,0,0,0,0,0,0,0,0,0,0,0,0,3221225584,3758096424,
112,0,0,0,0,0,0,0,0,0,0,0,0,0,0,0,0,0,0,0,0,0,0,3221225584,3221225597,3221225644,0,0,0,0,0,0,0,0,0,0,0,0,3221225584,3758096424,
1610612876,42,0,0,0,0,0,0,0,0,0,0,0,0,0,0,0,0,0,0,0,0,0,3221225584,3221225597,3221225628,0,0,0,0,0,0,0,0,0,0,0,0,3221225584,3758096424,
14,54,2,42,0,0,0,0,0,0,0,0,0,0,0,0,0,0,0,0,0,0,0,3221225576,3221225628,0,0,0,0,0,0,0,0,0,0,0,0,0,3221225584,3758096424,
4,4,14,54,42,0,0,0,0,0,0,0,0,0,0,0,0,0,0,0,0,0,0,0,0,0,0,0,0,0,0,0,0,0,0,0,0,0,3221225584,3758096424,
4,4,4,14,54,42,0,0,0,0,0,0,0,0,0,0,0,0,0,0,43,3,42,0,0,0,0,0,0,0,0,0,0,0,0,0,0,0,3221225584,3758096424,
4,4,4,4,14,54,42,90,90,90,90,43,3,42,90,90,90,90,90,90,1610612738,2684354573,2684354562,90,90,90,90,90,90,90,90,90,90,90,90,90,90,90,3221225584,3758096424
</data>
 </layer>
</map>
