<?xml version="1.0" encoding="UTF-8"?>
<map version="1.10" tiledversion="1.12.1" orientation="orthogonal" renderorder="right-down" width="40" height="23" tilewidth="32" tileheight="32" infinite="0" nextlayerid="5" nextobjectid="1">
 <tileset firstgid="1" source="Tileset_Tierra_.tsx"/>
 <tileset firstgid="97" source="Tileset_Tierra_girado.tsx"/>
 <tileset firstgid="193" source="Decoracion/Señales.tsx"/>
 <tileset firstgid="205" source="Decoracion/Arboles.tsx"/>
 <tileset firstgid="337" source="Decoracion/Arbustos.tsx"/>
 <tileset firstgid="373" source="Decoracion/Hierba.tsx"/>
 <imagelayer id="3" name="Capa de Imagen 1">
  <image source="../Mapas/Tierra arriba.png" width="1280" height="736"/>
 </imagelayer>
 <layer id="4" name="Capa de patrones 2" width="40" height="23">
  <data encoding="csv">
0,0,0,0,0,0,0,0,0,0,0,0,0,0,0,0,0,0,0,0,0,0,0,0,0,0,0,0,0,0,0,0,0,0,0,0,0,0,0,0,
0,0,0,0,0,0,0,0,0,0,0,0,0,0,0,0,0,0,0,0,0,0,0,0,0,0,0,0,0,0,0,0,212,213,214,215,216,0,0,0,
0,0,0,0,0,0,0,0,345,346,0,347,348,0,376,381,0,0,0,0,0,0,0,0,0,0,0,0,0,0,0,0,224,225,226,227,228,0,0,0,
0,0,0,0,0,0,0,0,0,0,0,0,0,0,0,0,0,0,0,0,0,0,0,0,0,0,0,0,0,0,0,0,236,237,238,239,240,0,0,0,
0,0,0,0,0,0,0,0,0,0,0,0,0,0,0,0,0,0,0,0,0,0,0,0,0,0,0,0,0,0,197,0,248,249,250,251,252,0,0,0,
0,0,0,0,0,0,0,0,0,0,0,0,0,0,0,0,0,0,0,0,0,0,0,0,0,0,0,0,0,0,0,0,260,261,262,263,264,0,0,0,
0,0,0,0,0,0,0,0,0,0,0,0,0,0,0,0,0,0,0,0,0,0,0,0,0,0,0,0,0,0,0,0,272,273,274,275,276,0,0,0,
0,0,0,0,0,0,0,0,0,0,0,0,0,0,0,0,0,0,0,0,0,0,0,0,0,0,0,0,0,0,0,0,0,0,0,0,0,0,0,0,
0,0,0,0,0,0,0,0,0,0,0,0,0,0,0,0,0,193,0,0,0,0,0,0,0,0,0,0,0,0,0,0,0,0,0,0,0,0,0,0,
0,200,0,0,0,0,0,0,0,0,0,0,0,0,0,0,0,0,0,0,0,0,0,0,0,0,0,0,0,0,0,0,0,0,0,0,0,0,196,0,
0,0,0,0,0,0,0,0,0,0,0,0,0,0,0,0,0,0,0,0,0,0,0,0,0,0,0,0,0,0,0,0,0,0,0,0,0,0,0,0,
0,0,0,0,0,0,0,0,0,0,0,0,0,0,0,0,0,0,0,0,0,0,0,0,0,0,0,0,0,0,0,0,0,0,0,0,0,0,0,0,
0,0,0,0,0,0,0,0,0,0,0,0,0,0,0,0,0,0,0,0,0,0,0,0,0,0,0,0,0,0,0,0,0,0,0,0,0,0,0,0,
0,0,0,0,0,0,0,0,0,0,0,0,0,0,0,0,0,0,0,0,0,0,0,0,0,0,0,0,0,0,0,0,0,0,0,0,0,0,0,0,
0,0,0,0,0,0,0,0,0,0,0,0,0,0,0,0,0,0,0,0,0,0,0,0,0,0,0,0,0,0,0,0,0,0,0,0,0,0,0,0,
0,0,0,0,0,0,0,0,0,0,0,0,0,0,0,0,0,0,0,0,0,0,0,0,0,0,0,0,0,0,0,0,0,0,0,0,0,0,0,0,
0,0,0,0,0,0,0,0,0,0,0,0,0,0,0,0,0,0,0,0,0,0,0,0,0,0,0,0,0,0,0,0,0,0,0,0,0,0,0,0,
0,0,0,0,0,0,0,0,0,0,0,0,0,0,0,0,0,0,0,0,0,0,0,0,0,0,0,0,0,0,0,0,0,0,0,0,0,0,0,0,
0,0,0,0,0,0,0,0,0,0,0,0,0,0,0,0,0,0,0,0,0,0,0,0,0,0,0,0,0,0,0,0,0,0,0,0,0,0,0,0,
0,0,0,0,0,0,0,0,0,0,0,0,0,0,0,0,0,0,0,0,0,0,0,0,0,0,0,0,0,0,0,0,0,0,0,0,0,0,0,0,
0,0,0,0,0,0,0,0,0,0,0,0,0,0,0,0,0,0,0,0,0,0,0,0,0,0,0,0,0,0,0,0,0,0,0,0,0,0,0,0,
0,0,0,0,0,0,0,0,0,0,0,0,0,0,0,0,0,0,0,0,0,0,0,0,0,0,0,0,0,0,0,0,0,0,0,0,0,0,0,0,
0,0,201,0,0,0,0,0,0,201,0,0,0,0,0,0,0,0,0,0,201,0,0,0,0,0,0,0,0,0,0,0,0,0,0,0,0,201,0,0
</data>
 </layer>
 <layer id="1" name="Platforms" width="40" height="23">
  <data encoding="csv">
65,3221225527,3221225474,3221225474,3221225474,3221225474,3221225474,3221225474,3221225474,3221225474,3221225474,3221225474,3221225474,3221225474,3221225474,3221225474,3221225474,3221225515,0,0,0,0,0,0,0,0,0,0,0,0,0,0,0,0,0,0,0,0,0,0,
2684354614,2684354602,0,0,0,0,0,0,0,0,0,0,0,0,0,0,0,0,0,0,0,0,0,0,0,0,0,0,0,0,0,0,0,0,0,0,0,0,0,0,
2684354615,42,0,0,0,0,0,0,0,0,0,0,0,0,0,0,0,0,0,0,0,0,0,0,0,0,0,0,0,0,0,0,0,0,0,0,0,0,0,0,
65,2684354615,2,2684354603,0,0,43,2,2,2,2,2,2,2,2,2,2,2684354603,0,0,52,0,0,0,0,0,0,0,0,0,0,0,0,0,0,0,0,0,0,0,
65,65,65,112,0,0,3221225584,65,65,65,65,65,65,65,65,65,65,2684354567,0,0,0,0,0,0,49,50,51,0,0,0,0,0,0,0,0,0,0,0,0,0,
3221225474,3221225474,3221225474,3221225515,0,0,1610612779,3221225474,3221225526,65,65,65,2684354614,3221225474,3221225474,3221225474,3221225474,3221225515,0,0,0,0,0,0,0,0,0,0,0,1,2,2,2147483691,0,0,0,0,0,0,0,
0,0,0,0,0,0,0,0,3221225514,3221225526,65,2684354614,3221225515,0,0,0,0,0,0,0,0,0,0,0,0,0,0,0,0,13,15,15,54,2,3,0,0,0,0,0,
0,0,0,0,0,0,0,0,0,3221225584,65,112,0,0,0,0,0,0,0,0,0,0,0,0,0,0,0,0,0,56,57,20,14,14,16,0,0,0,0,0,
0,0,0,0,0,0,0,0,0,3221225584,65,112,0,0,0,0,0,0,0,0,0,0,0,0,0,0,0,0,0,0,0,56,57,57,58,0,0,0,0,0,
0,0,0,0,0,0,0,0,0,3221225584,65,112,0,0,0,0,49,50,51,0,0,0,0,0,0,0,0,0,0,0,0,0,0,0,0,0,0,0,0,0,
49,50,51,0,0,0,0,0,0,3221225584,65,112,0,0,0,0,0,0,0,0,0,0,0,0,0,0,0,0,0,0,0,0,0,0,0,0,0,43,2,2,
0,0,0,0,0,0,0,0,0,3221225584,65,112,0,0,0,0,0,0,0,0,0,0,0,0,0,0,0,0,0,0,0,0,0,0,0,0,0,3221225584,37,37,
0,0,0,0,0,0,0,0,0,3221225584,65,112,0,0,0,0,0,0,0,0,0,0,0,0,0,0,0,0,0,0,0,0,0,0,0,0,0,3221225514,3221225474,3221225474,
0,0,0,0,0,0,0,0,0,3221225584,65,112,0,0,0,0,0,0,0,0,0,0,0,0,0,0,0,52,0,0,0,0,0,0,0,3221225653,0,0,0,0,
0,0,0,0,0,0,0,0,0,3221225584,65,112,0,0,0,0,0,0,0,0,0,0,0,0,0,0,0,0,0,0,0,0,0,0,0,0,0,0,0,0,
0,0,0,0,0,0,0,0,0,3221225514,3221225474,3221225515,0,0,0,52,0,0,0,0,0,0,0,0,0,0,0,0,0,0,0,0,0,0,0,0,0,0,0,0,
0,0,0,0,0,0,0,0,0,0,0,0,0,0,0,0,0,0,0,0,0,0,0,0,0,0,0,0,0,0,0,0,0,0,0,0,0,0,0,0,
0,0,0,0,0,0,0,0,0,0,0,0,0,0,0,0,0,0,0,0,0,0,0,0,0,0,0,0,0,0,0,0,0,0,0,0,0,0,0,0,
0,0,0,0,0,0,0,0,0,0,0,0,3221225592,3221225644,0,0,0,0,0,0,0,0,0,0,0,0,0,0,0,0,0,0,0,0,0,0,0,0,0,0,
0,0,0,0,0,0,0,0,0,0,0,0,3221225584,3221225597,3221225644,0,0,0,0,0,0,0,0,0,0,0,0,0,0,0,0,0,0,0,0,0,0,0,0,0,
0,0,0,49,50,51,0,0,0,0,0,0,3221225584,3221225597,3221225628,0,0,0,0,0,0,0,0,0,0,0,0,0,0,0,0,0,0,0,0,0,0,0,0,0,
0,0,0,0,0,0,0,0,0,0,0,0,3221225576,3221225628,0,0,0,0,0,0,0,0,0,0,0,0,0,0,0,0,0,0,0,0,0,0,0,0,0,0,
90,90,90,90,90,90,90,90,90,90,90,90,90,90,90,90,90,90,90,90,90,90,90,90,90,90,90,90,90,90,90,90,90,90,90,90,90,90,90,90
</data>
 </layer>
</map>
