<?xml version="1.0" encoding="UTF-8"?>
<map version="1.10" tiledversion="1.12.1" orientation="orthogonal" renderorder="right-down" width="40" height="23" tilewidth="32" tileheight="32" infinite="0" nextlayerid="4" nextobjectid="1">
 <tileset firstgid="1" source="Tileset_Tierra_.tsx"/>
 <tileset firstgid="97" source="Tileset_Tierra_girado.tsx"/>
 <tileset firstgid="193" source="Decoracion/Señales.tsx"/>
 <tileset firstgid="205" source="Decoracion/Arbustos.tsx"/>
 <tileset firstgid="241" source="Decoracion/Hierba.tsx"/>
 <imagelayer id="2" name="Capa de Imagen 1">
  <image source="../Mapas/Tierra abajo.png" width="1280" height="736"/>
 </imagelayer>
 <layer id="3" name="Capa de patrones 2" width="40" height="23">
  <data encoding="csv">
0,0,0,0,0,0,0,0,0,0,0,0,0,0,0,0,0,0,0,0,0,0,0,0,0,0,0,0,0,0,0,0,0,0,0,0,0,0,0,0,
0,0,0,0,0,0,0,0,0,0,0,0,0,0,0,0,0,0,0,0,0,0,0,0,0,0,0,0,0,0,0,0,0,0,0,0,0,0,0,0,
0,0,0,0,0,0,0,0,0,0,0,0,0,0,0,0,0,0,0,0,0,0,0,0,0,0,0,0,0,0,0,0,0,0,0,0,0,0,0,0,
0,0,0,0,0,0,0,0,0,0,0,0,0,0,0,0,0,0,202,0,0,0,0,0,0,0,0,0,0,0,0,0,0,0,0,0,0,0,0,0,
0,0,0,0,0,0,0,0,0,0,0,0,0,0,0,0,0,0,0,0,0,0,0,0,0,0,0,0,0,0,0,0,0,0,0,0,0,0,0,0,
0,0,0,0,0,0,0,0,0,0,0,0,0,0,0,0,0,0,0,0,0,0,0,0,0,0,0,0,0,0,0,0,0,0,0,0,0,0,0,0,
0,0,0,0,0,0,0,0,0,0,0,0,0,0,0,0,0,0,0,0,0,0,0,0,0,0,0,0,0,0,0,0,0,0,0,0,0,0,0,0,
0,0,0,0,0,0,0,0,0,0,0,0,0,0,0,0,0,0,0,0,0,0,0,0,0,0,0,0,0,0,0,0,0,0,0,0,0,0,0,0,
0,0,0,0,0,0,0,0,0,0,0,0,0,0,0,0,0,0,0,0,0,0,0,0,0,213,214,215,216,0,0,0,0,0,0,0,0,0,0,0,
0,0,0,0,0,0,0,0,0,0,0,0,0,0,0,0,0,0,0,0,0,0,0,0,0,0,0,0,0,0,0,0,0,0,0,0,0,0,193,0,
0,0,0,0,0,0,0,0,0,0,0,0,202,0,0,0,0,0,0,0,0,0,0,0,0,0,0,0,0,0,0,0,0,0,0,0,0,0,0,0,
0,0,0,0,0,0,0,0,0,0,0,0,0,0,0,0,0,0,0,0,0,0,0,0,0,0,0,0,0,0,0,0,0,0,0,0,0,0,0,0,
0,0,0,0,0,0,0,0,0,0,0,0,0,0,0,0,0,0,0,0,0,0,0,0,0,0,0,0,0,0,0,0,0,0,0,0,0,0,0,0,
0,0,0,0,0,0,0,0,0,0,0,0,0,0,0,0,0,0,0,0,0,0,0,0,0,0,0,0,0,0,0,0,0,0,0,0,0,0,0,0,
0,0,0,0,0,0,0,0,0,0,0,0,0,0,0,0,0,0,0,0,0,0,0,0,0,0,0,0,0,0,0,0,0,0,0,0,0,0,0,0,
0,0,0,0,0,0,0,0,0,0,0,0,0,0,0,0,0,0,0,0,0,0,0,0,0,0,0,0,0,0,0,0,0,0,0,0,0,0,0,0,
0,0,0,0,0,0,0,0,0,0,0,0,0,0,0,0,0,0,0,0,0,0,0,0,0,0,0,0,0,0,0,0,0,0,0,0,0,0,0,0,
0,0,0,0,0,0,0,0,0,0,0,0,0,0,0,0,0,0,0,0,0,0,0,0,0,0,0,0,0,0,0,0,0,0,0,0,0,0,0,0,
0,0,0,0,0,0,0,0,0,0,0,0,0,0,0,0,0,0,0,0,0,0,0,0,0,0,0,0,0,0,0,0,0,0,0,0,0,0,0,0,
0,0,0,0,193,0,0,0,0,0,0,0,0,0,0,0,0,0,0,0,0,0,0,0,0,0,0,0,0,0,0,0,0,0,0,0,0,0,0,0,
0,0,0,0,0,0,0,0,0,0,0,0,0,0,0,0,0,0,0,0,0,0,0,0,0,0,0,0,0,0,0,0,0,0,0,0,0,0,0,0,
0,0,0,0,0,0,0,0,0,0,0,0,0,0,0,0,0,0,0,0,0,0,0,0,0,0,198,0,0,0,0,0,0,0,0,0,0,0,0,0,
0,0,0,0,0,0,0,0,201,0,0,0,0,0,0,0,0,0,201,0,0,201,0,0,0,0,0,0,0,0,201,0,0,0,0,0,0,0,0,0
</data>
 </layer>
 <layer id="1" name="Platforms" width="40" height="23">
  <data encoding="csv">
112,188,188,188,188,188,135,136,0,0,0,0,0,0,0,1073741867,3221225474,3221225515,0,0,0,0,1073741867,3221225474,3221225515,0,0,0,0,43,55,14,14,14,38,38,38,38,38,38,
112,0,0,0,0,0,0,0,0,0,0,0,0,0,0,0,0,0,0,0,0,0,0,3221225489,0,0,0,0,43,55,4,4,4,4,14,14,14,14,14,14,
112,0,0,0,0,0,0,0,0,0,0,0,0,0,0,0,0,0,0,0,0,0,0,3221225477,0,0,0,0,1610612779,3221225474,2684354700,140,3221225474,3221225474,3221225474,3221225474,3221225474,3221225474,3221225474,3221225474,
112,0,0,0,0,0,0,0,0,0,0,0,0,0,0,0,0,0,0,0,0,0,0,0,0,0,0,0,0,0,2147483752,104,0,0,0,0,0,0,0,0,
112,0,0,0,0,0,0,0,0,0,0,0,0,0,0,0,0,0,49,50,50,51,0,0,3221225608,3221225607,3221225660,3221225660,3221225660,3221225660,3221225584,112,0,0,0,0,0,0,0,0,
112,0,0,0,0,0,0,0,0,0,0,0,0,0,0,0,0,0,0,0,0,0,0,0,0,0,0,0,0,0,3221225584,112,0,0,0,0,0,0,0,0,
112,0,0,0,0,0,0,0,0,0,0,0,0,0,0,0,0,0,0,0,0,1610612778,42,0,0,3221225608,3221225607,3221225660,3221225660,3221225660,3221225584,112,0,3221225608,3221225607,3221225660,3221225660,3221225660,3221225660,3221225660,
112,0,0,0,0,0,0,0,0,0,0,0,0,0,0,9,12,0,0,0,0,3221225584,112,0,0,0,0,0,0,0,3221225584,112,0,0,0,0,0,0,0,0,
112,0,0,0,0,0,0,0,0,0,0,0,0,0,0,56,58,0,0,0,0,3221225584,112,0,0,0,0,0,0,0,3221225584,112,0,0,0,0,0,0,0,0,
112,0,0,0,0,0,0,0,0,0,0,0,0,0,0,0,0,0,0,0,0,3221225584,54,2,2,2,2,2,2,2,3221225612,112,0,0,0,0,0,0,0,0,
112,0,0,0,0,0,0,0,0,0,0,0,0,0,0,0,0,0,0,0,0,3221225514,3221225474,3221225474,3221225474,3221225474,3221225474,3221225474,3221225474,3221225474,2684354700,112,0,0,0,0,0,43,34,10,
112,0,0,0,0,0,0,0,47,0,0,0,9,12,0,0,0,0,0,0,0,0,0,0,0,0,0,0,0,0,2684354701,141,0,0,0,0,0,1610612769,40,40,
112,0,0,0,0,0,0,0,0,0,0,0,56,58,0,0,0,0,0,0,0,0,0,0,0,0,0,0,0,0,0,0,0,0,0,3221225608,3221225607,1610612770,40,40,
112,0,0,0,0,0,0,0,0,0,0,0,0,0,0,0,0,0,0,0,0,0,0,0,0,0,0,0,0,0,0,0,0,0,0,0,0,1610612779,3221225505,1610612772,
112,0,0,0,0,0,47,0,0,0,0,0,0,0,0,0,0,0,0,0,0,0,0,0,0,0,0,0,0,0,2147483695,0,0,0,0,0,0,0,0,3221225648,
112,0,0,0,0,0,0,0,0,0,0,0,0,0,0,0,0,0,0,0,0,0,156,168,0,0,0,0,0,0,0,0,0,0,0,0,0,0,0,3221225648,
112,0,0,0,0,0,0,0,0,0,0,0,0,0,0,0,0,0,0,0,0,0,164,176,0,0,0,0,0,0,0,0,2147483695,0,0,0,0,3221225608,3221225607,3221225648,
112,0,0,0,47,0,0,0,0,0,0,0,0,0,0,0,0,0,0,0,0,0,172,192,0,0,0,0,0,0,0,0,0,0,0,0,0,0,0,3221225648,
112,0,0,0,0,0,0,0,0,0,0,0,0,0,0,0,0,0,0,0,0,0,0,0,0,0,0,0,0,0,0,0,0,0,0,43,34,10,10,36,
54,42,0,0,0,0,0,0,0,0,0,0,0,0,0,0,250,0,0,0,0,0,0,0,0,0,0,0,0,0,0,0,0,0,43,55,4,4,4,4,
17,54,34,33,2,2684354603,0,0,0,0,0,0,9,10,10,10,12,0,0,0,0,0,0,0,0,0,0,0,0,0,0,0,0,43,55,4,4,4,39,39,
61,4,4,4,4,2684354562,0,0,0,0,0,0,56,40,40,40,58,0,0,0,0,0,0,0,0,0,0,0,0,0,0,0,0,1610612769,4,4,4,39,39,39,
61,4,4,4,4,2684354594,90,90,90,90,90,90,90,56,57,58,90,90,90,90,90,90,90,90,9,10,10,12,90,90,90,90,90,1610612746,4,4,39,39,38,38
</data>
 </layer>
</map>
