<?xml version="1.0" encoding="UTF-8"?>
<map version="1.10" tiledversion="1.12.1" orientation="orthogonal" renderorder="right-down" width="40" height="23" tilewidth="32" tileheight="32" infinite="0" nextlayerid="3" nextobjectid="1">
 <tileset firstgid="1" source="Tileset_Tierra_.tsx"/>
 <tileset firstgid="97" source="Tileset_Tierra_girado.tsx"/>
 <imagelayer id="2" name="Capa de Imagen 1">
  <image source="../Mapas/Tierra abajo.png" width="1280" height="736"/>
 </imagelayer>
 <layer id="1" name="Platforms" width="40" height="23">
  <data encoding="csv">
38,38,38,38,38,38,38,40,112,0,0,0,0,0,0,0,0,0,0,0,3221225584,128,128,112,0,0,0,0,0,0,0,0,0,0,0,0,0,0,0,0,
39,39,39,39,39,39,39,40,112,0,0,0,0,0,0,0,0,0,0,0,3221225584,128,128,112,0,0,0,0,0,0,0,0,0,0,0,0,0,0,0,0,
40,40,40,40,40,40,40,40,112,0,44,45,46,0,0,0,44,45,46,0,3221225584,128,128,112,0,0,0,0,0,0,0,0,0,0,0,0,0,43,34,10,
2684354672,2684354672,2684354672,2684354672,2684354672,2684354672,2684354672,2684354672,3221225515,0,0,0,0,0,0,0,0,0,0,0,3221225584,128,128,112,0,0,44,45,46,0,0,0,0,0,0,0,43,55,10,10,
0,0,0,0,0,0,0,0,0,0,0,0,0,0,0,0,0,0,0,0,3221225584,128,128,112,0,0,0,0,0,0,0,0,0,0,0,43,55,1610612750,31,32,
0,0,0,0,0,0,0,0,0,0,0,0,0,0,0,0,0,0,0,0,3221225638,128,128,174,0,0,0,0,0,0,0,0,0,0,43,55,1610612750,19,19,19,
0,0,0,0,0,0,0,0,0,0,0,0,0,0,0,0,0,0,0,0,3221225648,128,128,176,0,0,0,0,0,0,0,0,0,43,55,1610612750,19,19,19,19,
10,10,10,10,10,10,33,42,0,0,0,0,0,0,44,45,46,0,0,0,3221225648,128,128,176,0,0,0,0,0,0,0,0,43,55,1610612750,4,4,4,35,36,
40,39,38,39,37,39,40,174,0,0,0,0,0,0,0,0,0,0,0,0,1610612745,26,26,2684354572,0,0,0,0,0,0,0,0,1610612738,1610612750,19,35,36,4,4,2684354591,
40,39,38,38,37,39,40,166,0,0,0,0,0,0,0,0,0,0,0,0,0,0,0,0,0,0,0,0,0,0,0,0,1610612769,19,19,4,4,2684354591,4,2684354592,
3221225482,3221225482,3221225482,3221225482,3221225482,3221225482,3221225506,3221225515,0,0,0,0,0,0,0,0,0,0,0,0,0,0,0,0,0,0,0,0,0,0,0,0,1610612770,3221225486,4,35,36,2684354592,35,36,
0,0,0,0,0,0,0,0,0,0,0,0,0,0,0,0,0,0,9,10,10,10,10,10,10,12,0,0,0,0,0,0,1610612779,3221225474,3221225505,3221225482,3221225482,3221225482,3221225482,3221225482,
0,0,0,0,0,0,0,0,0,0,0,44,45,46,0,0,0,0,61,4,4,4,4,4,4,62,0,0,0,0,0,0,0,0,0,0,0,0,0,0,
0,0,0,0,0,0,0,0,0,0,0,0,0,0,0,0,0,0,61,4,4,4,4,4,4,62,0,0,0,0,0,0,0,0,0,0,0,0,0,0,
0,0,0,0,0,0,0,0,0,0,0,0,0,0,0,0,0,0,56,57,57,57,57,57,57,58,0,0,0,0,0,0,0,0,0,0,0,0,0,0,
0,0,0,0,0,0,0,0,0,0,0,0,0,0,0,0,0,0,0,0,0,0,0,0,0,0,0,0,0,0,0,0,0,0,0,0,0,0,0,0,
33,2,42,0,0,0,0,0,0,0,0,0,0,0,0,0,0,0,0,0,0,0,0,0,0,0,0,0,0,0,0,0,0,0,0,0,0,0,0,0,
38,38,54,42,0,0,0,0,0,0,0,0,0,0,0,0,0,0,0,0,0,0,0,0,0,0,0,0,0,0,0,0,0,0,0,0,0,0,0,0,
38,38,38,54,42,0,0,0,0,0,0,0,0,0,0,0,0,0,0,0,0,0,0,0,0,0,0,0,0,0,0,0,0,0,43,34,10,10,10,10,
37,38,38,38,54,42,0,0,0,0,0,0,0,0,0,0,0,0,0,0,0,0,0,0,0,0,0,0,0,0,0,0,0,43,55,1610612750,4,4,4,4,
37,37,38,38,38,54,42,0,0,0,0,9,10,10,10,10,10,12,0,0,0,0,0,0,0,0,0,0,0,0,0,0,43,55,37,1610612750,4,4,4,4,
37,37,37,38,39,40,2684354594,0,0,0,0,61,1610612797,1610612797,1610612797,1610612797,1610612797,3221225533,0,0,0,0,0,0,0,0,0,0,0,0,0,0,1610612769,39,14,3221225510,4,4,4,4,
37,37,37,37,39,40,2684354570,0,0,0,0,25,1610612797,1610612797,1610612797,1610612797,1610612797,28,0,0,0,0,0,0,0,0,0,0,0,0,0,0,1610612746,4,4,4,4,4,4,4
</data>
 </layer>
</map>
