<?xml version="1.0" encoding="UTF-8"?>
<map version="1.10" tiledversion="1.12.1" orientation="orthogonal" renderorder="right-down" width="40" height="23" tilewidth="32" tileheight="32" infinite="0" nextlayerid="3" nextobjectid="1">
 <tileset firstgid="1" source="Tileset_Tierra_.tsx"/>
 <tileset firstgid="97" source="Tileset_infierno.tsx"/>
 <imagelayer id="2" name="Capa de Imagen 1">
  <image source="../Mapas/Infierno arriba.png" width="1280" height="736"/>
 </imagelayer>
 <layer id="1" name="Platforms" width="40" height="23">
  <data encoding="csv">
168,168,168,168,168,168,168,168,2684354658,0,0,0,1610612738,4,4,4,4,2684354562,0,0,0,0,61,20,20,20,20,2147483709,0,0,3221225514,3221225474,3221225474,3221225474,3221225474,3221225474,3221225474,3221225474,3221225474,3221225474,
168,168,168,168,168,168,168,168,2684354658,0,0,0,1610612738,4,4,4,4,2684354562,0,0,0,0,61,20,20,20,20,2147483709,0,0,0,0,0,0,0,0,0,0,0,0,
168,168,168,168,168,168,168,168,2684354658,0,0,0,1610612738,4,4,4,4,2684354562,0,0,0,0,61,20,20,20,20,2147483709,0,0,0,0,0,0,0,0,0,0,0,0,
168,168,168,168,168,168,168,168,2684354658,0,0,0,1610612738,4,4,4,4,2684354562,0,0,0,0,61,20,20,20,20,2147483709,0,0,0,0,0,0,0,0,0,140,141,142,
168,168,168,168,168,168,168,168,2684354658,0,0,0,1610612738,4,4,4,4,2684354562,0,0,0,0,61,20,20,20,20,2147483709,0,0,0,0,0,0,0,0,0,0,0,0,
168,168,168,168,168,168,168,168,2684354658,0,0,0,1610612738,4,4,4,4,2684354562,0,0,0,0,61,20,20,20,20,2147483709,0,0,0,0,0,140,141,142,0,0,0,0,
168,168,168,168,168,168,168,168,2684354658,0,0,0,1610612738,4,4,4,4,2684354562,0,0,0,0,61,20,20,20,20,2147483709,0,0,0,0,0,0,0,0,0,0,0,0,
168,168,168,168,168,168,168,168,2684354658,0,0,0,1610612738,4,4,4,4,2684354562,0,0,0,0,61,20,20,20,20,2147483709,0,0,0,0,0,0,0,0,0,0,0,0,
168,168,168,168,168,168,168,168,2684354658,0,0,0,1610612738,4,4,4,4,2684354562,0,0,0,0,61,20,20,20,20,2147483709,0,0,0,140,141,142,0,0,0,0,0,0,
168,168,168,168,168,168,168,168,2684354658,0,0,0,1073741867,3221225474,3221225474,3221225474,3221225474,3221225515,0,0,0,0,61,20,20,20,20,2147483709,0,0,0,0,0,0,0,0,0,0,0,0,
168,168,168,168,168,168,168,168,2684354658,0,0,0,0,0,0,0,0,0,0,0,0,0,61,20,20,20,20,2147483709,0,0,0,0,0,0,0,0,0,0,139,98,
168,168,168,168,168,168,168,168,2684354658,0,143,0,0,0,0,0,0,0,0,0,0,0,61,20,20,20,20,2147483709,0,0,0,0,0,140,141,142,0,0,1610612834,168,
168,168,168,168,168,168,168,168,2684354658,0,0,0,0,0,0,0,0,140,141,142,0,0,2147483676,26,26,26,26,28,0,0,0,0,0,0,0,0,0,0,1610612834,168,
168,168,168,168,168,168,168,168,2684354658,0,0,0,0,0,0,0,0,0,0,0,0,0,0,0,0,0,0,0,0,0,0,0,0,0,0,0,0,0,1610612834,168,
168,168,168,168,168,168,168,168,2684354658,0,0,140,141,142,0,0,0,0,0,0,0,0,0,0,0,0,0,0,0,0,0,0,0,0,0,0,0,0,1610612834,168,
168,168,168,168,168,168,168,168,2684354658,0,0,0,0,0,0,0,0,0,0,0,0,0,0,0,0,0,0,0,0,0,140,141,142,0,0,0,0,0,1610612834,168,
168,168,168,168,168,168,168,168,2684354658,0,0,0,0,0,0,0,0,0,140,141,142,0,0,0,0,0,0,0,0,0,0,0,0,0,0,0,0,0,1610612834,168,
168,168,168,168,168,168,168,168,2684354658,0,0,0,0,0,0,0,0,0,0,0,0,0,0,0,140,141,142,0,0,0,0,0,0,0,0,0,0,0,1610612834,168,
168,168,168,168,168,168,168,168,2684354658,0,0,0,0,0,0,0,0,0,0,0,0,0,0,0,0,0,0,0,0,0,0,0,0,0,0,0,0,0,1610612834,168,
168,168,168,168,168,168,168,168,2684354658,0,0,0,0,0,0,0,0,0,0,0,0,0,0,0,0,0,0,0,0,0,0,0,0,0,0,0,0,0,1610612834,168,
168,168,168,168,168,168,168,168,150,138,0,0,0,0,0,0,0,0,0,0,0,0,0,0,0,0,0,0,0,0,0,0,0,0,0,0,0,139,2147483798,168,
168,168,168,168,168,168,168,168,168,150,98,98,98,98,98,98,98,98,98,98,98,98,98,98,98,98,98,98,98,98,98,98,98,98,98,98,98,2147483798,168,168,
168,168,168,168,168,168,168,168,168,168,168,168,168,168,168,168,168,168,168,168,168,168,168,168,168,168,168,168,168,168,168,168,168,168,168,168,168,168,168,168
</data>
 </layer>
</map>
