<?xml version="1.0" encoding="UTF-8"?>
<map version="1.10" tiledversion="1.12.1" orientation="orthogonal" renderorder="right-down" width="40" height="23" tilewidth="32" tileheight="32" infinite="0" nextlayerid="3" nextobjectid="1">
 <tileset firstgid="1" source="Tileset_infierno.tsx"/>
 <tileset firstgid="97" source="Tileset_Tierra_.tsx"/>
 <tileset firstgid="193" source="CartelAbajo.tsx"/>
 <tileset firstgid="194" source="Tileset_Infierno_girado.tsx"/>
 <imagelayer id="2" name="Capa de Imagen 1">
  <image source="../Mapas/Tierra abajo.png" width="1280" height="736"/>
 </imagelayer>
 <layer id="1" name="Platforms" width="40" height="23">
  <data encoding="csv">
2147483650,2147483691,0,0,0,0,0,0,0,0,0,0,0,0,0,0,0,0,0,0,0,0,536870955,2147483702,3758096386,0,0,0,0,0,0,0,0,0,0,0,0,0,0,0,
536870966,3758096438,2147483691,0,0,0,0,0,0,0,0,0,0,0,0,0,0,0,0,0,0,536870955,2147483702,1073741878,3758096427,0,0,0,0,0,0,0,0,0,0,0,0,0,0,0,
1073741867,536870966,3758096438,2147483691,0,0,0,0,0,0,0,0,0,0,0,0,0,0,0,0,536870955,2147483702,1073741878,3758096427,0,0,0,0,0,0,0,0,0,0,0,0,0,0,0,0,
0,1073741867,536870966,3758096438,3758096426,0,0,0,0,0,0,0,0,0,0,0,0,0,0,0,536870914,1073741878,3758096427,0,0,0,0,0,0,0,0,0,0,0,0,0,0,0,0,0,
0,0,1073741867,1073741826,1073741866,0,0,0,0,0,0,0,0,0,0,0,0,0,0,0,536870914,3758096386,0,0,0,0,0,0,0,0,0,0,0,0,0,0,0,0,0,0,
0,0,0,0,0,0,0,0,0,0,0,0,0,0,0,0,0,0,0,0,536870954,1073741866,0,0,0,0,0,0,0,0,0,0,0,0,0,0,0,0,0,0,
0,0,0,0,0,0,0,0,0,1610612778,2,42,0,0,0,0,0,0,0,0,0,0,0,0,0,0,0,0,0,0,1610612778,2,42,0,0,0,0,0,0,0,
0,0,0,0,0,0,0,0,0,3221225681,198,209,0,0,0,0,0,0,0,0,0,0,0,0,0,0,0,0,0,0,3221225681,198,209,0,0,0,0,0,0,0,
0,0,0,0,0,0,0,0,0,3221225514,3221225474,2684354602,0,0,0,0,0,0,0,0,0,0,0,0,0,0,0,0,0,0,3221225514,3221225474,2684354602,0,0,0,0,0,0,0,
0,0,0,0,0,0,0,0,0,0,0,0,0,0,0,0,0,0,0,0,0,0,0,0,0,0,0,0,0,0,0,0,0,0,0,0,0,0,0,0,
2,2,42,0,0,0,0,0,0,0,0,0,0,0,0,0,0,0,0,0,49,51,0,0,0,0,0,0,0,0,0,0,0,0,0,0,0,0,0,0,
24,24,2684354562,0,0,0,0,0,0,0,0,0,0,0,0,0,0,0,0,0,0,0,0,0,0,0,0,0,0,0,0,0,0,0,0,0,0,3221225689,1610612794,0,
3221225474,3221225474,2684354602,0,0,0,0,0,0,0,0,0,0,0,0,0,0,0,0,0,97,0,0,0,0,0,0,0,0,0,0,0,0,0,0,0,0,3221225681,3221225733,0,
0,0,0,0,0,0,0,0,0,0,0,0,0,0,0,0,0,0,0,0,0,0,0,0,0,0,0,0,0,0,0,0,0,0,0,0,0,3221225681,3221225733,0,
0,0,0,0,0,0,0,0,0,0,0,0,0,0,0,0,0,0,0,0,0,0,0,0,0,0,0,0,0,0,0,0,0,0,0,0,0,3221225673,3221225725,0,
0,0,0,0,0,0,0,0,0,0,0,0,0,0,0,0,0,0,0,0,0,0,0,0,0,0,0,0,0,0,0,0,0,0,0,49,51,0,0,0,
0,0,0,0,0,0,0,0,0,0,0,0,0,0,0,0,0,0,0,0,0,0,0,0,0,0,0,0,0,0,0,0,0,0,0,0,0,0,0,0,
0,0,0,0,0,0,0,0,0,0,0,0,0,0,0,0,0,0,0,0,0,0,0,0,0,0,0,0,0,0,0,0,0,0,0,0,0,0,0,0,
0,0,0,0,0,0,0,0,0,0,0,0,0,0,0,0,0,0,0,0,0,0,0,0,0,0,0,0,0,0,193,0,0,0,0,0,0,0,0,0,
0,0,0,0,0,0,0,0,0,0,0,0,0,0,0,0,0,0,0,0,0,0,0,0,0,0,0,0,0,0,49,50,51,0,0,0,0,0,0,0,
0,0,0,0,0,0,0,0,0,0,0,0,0,0,0,0,0,0,0,0,0,0,0,0,0,0,0,0,0,0,0,0,0,0,0,0,0,0,0,0,
0,0,0,0,0,0,0,0,0,0,0,0,0,0,0,0,0,0,0,0,0,0,0,0,0,0,0,0,0,0,0,0,0,0,0,0,0,0,0,0,
0,0,0,0,0,0,0,0,0,0,0,0,0,0,0,1610612778,2,42,0,0,0,0,1610612778,2,42,0,0,0,0,0,0,0,0,0,0,0,0,0,0,0
</data>
 </layer>
</map>
