<?xml version="1.0" encoding="UTF-8"?>
<map version="1.10" tiledversion="1.12.1" orientation="orthogonal" renderorder="right-down" width="40" height="23" tilewidth="32" tileheight="32" infinite="0" nextlayerid="3" nextobjectid="1">
 <tileset firstgid="1" source="Tileset_Tierra_.tsx"/>
 <tileset firstgid="97" source="Tileset_Tierra_girado.tsx"/>
 <tileset firstgid="193" source="CartelArriba.tsx"/>
 <tileset firstgid="194" source="Tileset_infierno.tsx"/>
 <tileset firstgid="290" source="Tileset_cielo.tsx"/>
 <imagelayer id="2" name="Capa de Imagen 1">
  <image source="../Mapas/Zona_descanso.png" width="1280" height="736"/>
 </imagelayer>
 <layer id="1" name="Platforms" width="40" height="23">
  <data encoding="csv">
1073742115,1073742115,1073742115,1073742115,1073742115,1073742115,1073742115,1073742115,1073742115,1073742115,1073742115,1073742115,1073742115,1073742115,1073742115,1073742115,1073742115,3758096716,0,0,0,0,1073742060,1073742019,1073742019,1073742019,1073742019,1073742019,1073742019,1073742019,1073742019,1073742019,1073742019,1073742019,1073742019,1073742019,1073742019,1073742019,1073742019,1073742019,
0,0,0,0,0,0,0,0,0,0,0,0,0,0,0,0,0,0,0,0,0,0,0,0,0,0,0,0,0,0,0,0,0,0,0,0,0,0,0,0,
0,0,0,0,0,0,0,0,0,0,0,0,0,0,0,0,0,0,0,0,0,0,0,0,0,0,0,0,0,0,0,0,0,0,0,0,0,0,0,0,
0,0,0,0,0,0,0,0,0,0,0,338,340,0,0,0,1610613067,2147483939,2147483650,2147483650,2147483650,2147483650,2147483843,3758096619,0,0,0,242,244,0,0,0,0,0,0,0,0,0,0,0,
0,0,0,0,0,0,0,0,0,0,0,0,0,0,0,1610613067,2147483991,1073742167,1073741826,1073741826,1073741826,1073741826,536871159,3758096631,2147483884,0,0,0,0,0,0,0,0,0,0,0,0,0,0,0,
0,0,0,0,0,0,0,0,0,0,0,0,0,0,1610613067,2147483991,1073742167,1073742155,0,0,0,0,536871147,536871159,3758096631,2147483884,0,0,0,0,0,0,0,0,0,0,0,0,0,0,
0,0,0,0,0,0,338,339,340,0,0,0,0,1610613067,2147483991,1073742167,1073742155,0,0,0,0,0,0,1073742060,536871159,3758096631,2147483884,0,0,0,0,242,243,244,0,0,0,0,0,0,
0,0,0,0,0,0,0,0,0,0,0,0,0,536871203,1073742167,1073742155,0,0,0,0,0,0,0,0,1073742060,536871159,3758096579,0,0,0,0,0,0,0,0,0,0,0,0,0,
0,338,339,340,0,0,0,0,0,0,0,0,0,1073742156,1073742155,0,0,0,0,0,0,0,0,0,0,1073742060,1073742059,0,0,0,0,0,0,0,0,0,242,243,244,0,
0,0,0,0,0,0,0,0,0,0,0,0,0,0,0,0,0,0,0,0,0,0,0,0,0,0,0,0,0,0,0,0,0,0,0,0,0,0,0,0,
0,0,0,0,0,0,338,339,340,0,0,0,0,0,0,0,332,331,0,0,0,0,236,235,0,0,0,0,0,0,0,242,243,244,0,0,0,0,0,0,
0,0,0,0,0,0,0,0,0,0,0,0,0,0,0,0,1610613027,343,2,2,2,2,1610612983,2684354755,0,0,0,0,0,0,0,0,0,0,0,0,0,0,0,0,
0,338,339,340,0,0,0,0,0,0,0,338,339,340,0,0,536871243,3221225763,3221225474,3221225474,3221225474,3221225474,3221225667,3221225708,0,0,242,243,244,0,0,0,0,0,0,0,242,243,244,0,
0,0,0,0,0,0,0,0,0,0,0,0,0,0,0,0,0,0,0,0,0,0,0,0,0,0,0,0,0,0,0,0,0,0,0,0,0,0,0,0,
0,0,0,0,0,0,338,339,340,0,0,0,0,0,0,0,0,0,0,0,0,0,0,0,0,0,0,0,0,0,0,242,243,244,0,0,0,0,0,0,
0,0,0,0,0,0,0,0,0,0,0,0,0,0,0,0,0,0,0,0,0,0,0,0,0,0,0,0,0,0,0,0,0,0,0,0,0,0,0,0,
0,338,339,340,0,0,0,0,0,0,0,338,339,340,0,0,0,0,0,0,0,0,0,0,0,0,242,243,244,0,0,0,0,0,0,0,242,243,244,0,
0,0,0,0,0,0,0,0,0,0,0,0,0,0,0,0,0,0,0,0,0,0,0,0,0,0,0,0,0,0,0,0,0,0,0,0,0,0,0,0,
0,0,0,0,0,0,338,339,340,0,0,0,0,0,0,0,0,0,0,0,0,0,0,0,0,0,0,0,0,0,0,242,243,244,0,0,0,0,0,0,
0,0,0,0,0,0,0,0,0,0,0,0,0,0,0,0,0,0,0,0,0,0,0,0,0,0,0,0,0,0,0,0,0,0,0,0,0,0,0,0,
0,338,339,340,0,0,0,0,0,0,0,338,339,340,0,0,0,0,0,0,0,0,0,0,0,0,242,243,244,0,0,0,0,0,0,0,242,243,244,0,
0,0,0,0,0,0,0,0,0,0,0,0,0,0,0,0,0,0,0,0,0,0,0,0,0,0,0,0,0,0,0,0,0,0,0,0,0,0,0,0,
291,291,291,291,291,291,291,291,291,291,291,291,291,291,291,291,291,2,2,2,2,2,2,195,195,195,195,195,195,195,195,195,195,195,195,195,195,195,195,195
</data>
 </layer>
</map>
