<?xml version="1.0" encoding="UTF-8"?>
<map version="1.10" tiledversion="1.12.1" orientation="orthogonal" renderorder="right-down" width="40" height="23" tilewidth="32" tileheight="32" infinite="0" nextlayerid="4" nextobjectid="1">
 <tileset firstgid="1" source="Tileset_Tierra_.tsx"/>
 <tileset firstgid="97" source="Tileset_infierno.tsx"/>
 <tileset firstgid="193" source="Tileset_Infierno_girado.tsx"/>
 <imagelayer id="2" name="Capa de Imagen 1">
  <image source="../Mapas/Infierno arriba.png" width="1280" height="736"/>
 </imagelayer>
 <layer id="1" name="Platforms" width="40" height="23">
  <data encoding="csv">
133,133,133,133,208,0,0,0,0,0,0,0,0,0,0,3221225610,3221225570,2684354698,0,0,0,0,3221225610,3221225570,2684354698,0,0,0,0,0,0,0,0,0,0,0,0,0,0,3221225680,
133,133,133,133,208,0,0,0,0,0,0,0,0,0,0,0,0,0,0,0,0,0,0,0,0,0,0,0,0,0,0,0,0,0,0,0,0,0,0,3221225680,
133,133,133,133,208,0,0,0,0,0,0,0,0,0,0,0,0,0,0,0,0,0,0,0,0,0,0,0,0,0,0,0,0,0,0,0,0,0,0,3221225680,
3221225592,3221225623,3221225570,3221225570,237,0,0,0,0,0,0,0,0,0,0,0,0,0,145,146,146,147,0,0,0,0,0,0,0,0,0,0,0,0,0,0,0,0,139,151,
3221225623,0,0,0,0,0,0,0,0,0,0,0,0,0,0,0,0,0,0,0,0,0,0,0,0,0,0,0,0,0,0,0,0,0,0,0,0,139,151,133,
208,0,0,0,0,0,0,0,0,0,0,0,0,0,0,0,0,0,0,0,0,0,0,0,0,0,0,97,99,0,0,0,0,0,0,0,139,151,133,133,
208,0,0,0,0,0,0,0,0,0,0,0,0,0,0,0,0,0,0,0,0,0,0,0,0,0,0,152,154,0,0,0,0,0,0,139,151,133,133,133,
208,0,0,0,0,0,0,0,0,0,0,0,0,0,0,0,0,0,0,0,0,0,0,0,0,0,0,0,0,0,0,0,0,139,98,151,133,133,133,133,
208,0,0,0,0,0,0,0,0,0,0,0,0,0,0,0,0,0,0,0,0,0,0,0,0,0,0,0,0,0,0,0,0,1610612875,3221225575,3221225575,3221225575,3221225575,1610612887,133,
208,0,0,0,0,0,0,0,0,0,0,0,0,0,0,0,0,0,0,0,105,108,0,0,0,0,0,0,0,0,0,0,0,0,0,0,0,0,1610612875,1610612887,
208,0,0,0,0,0,0,0,0,0,0,0,0,0,0,0,0,0,0,105,100,158,0,0,0,0,0,97,99,0,0,0,0,0,0,0,0,0,0,3221225680,
208,0,0,0,0,0,0,0,0,0,0,0,0,0,0,0,0,0,105,100,153,154,0,0,0,0,0,152,154,0,0,0,0,0,0,0,0,0,0,3221225680,
208,0,0,0,0,0,0,0,0,0,0,0,0,0,0,0,105,106,100,154,0,0,0,0,0,0,0,0,0,0,0,0,0,0,0,0,0,0,0,3221225680,
2684354711,2684354699,0,0,0,0,0,0,0,0,0,0,0,0,0,0,152,153,154,0,0,0,0,0,0,0,0,0,0,0,0,0,0,0,97,99,0,0,0,3221225680,
133,2684354711,103,103,103,103,103,103,2684354699,0,0,0,0,0,0,0,0,0,0,0,0,0,0,0,0,0,0,0,0,0,0,0,0,0,152,154,0,0,0,3221225680,
133,133,133,133,3221225623,3221225570,3221225570,3221225570,3221225611,0,0,0,0,0,0,0,0,0,0,0,0,0,0,0,0,0,0,0,0,0,0,0,0,0,0,0,0,0,0,3221225680,
133,133,133,3221225623,3221225611,0,0,0,0,0,0,0,0,0,0,0,0,0,0,0,0,0,0,0,0,0,0,0,0,0,0,0,0,0,0,0,0,0,0,3221225680,
133,133,3221225623,3221225611,0,0,0,0,0,0,0,0,0,0,0,0,0,0,0,0,0,0,0,0,0,0,0,0,0,0,0,0,0,0,0,0,0,0,0,3221225680,
133,3221225623,3221225611,0,0,0,0,0,0,0,97,99,0,0,0,0,0,0,0,0,0,0,0,0,0,0,0,0,0,0,0,0,0,0,0,0,0,0,139,151,
3221225623,3221225611,0,0,0,0,0,0,0,0,152,154,0,0,0,0,0,0,0,0,0,0,0,0,0,0,0,0,0,97,99,0,0,0,0,139,1610612944,1610612944,151,120,
208,0,0,0,0,0,0,0,0,0,0,0,0,0,0,0,0,0,0,0,0,0,0,0,0,0,0,0,0,152,154,0,0,0,0,3221225680,133,133,133,133,
208,0,0,0,0,0,0,0,0,0,0,0,0,0,0,0,0,0,0,0,0,0,0,0,0,0,0,0,0,0,0,0,0,0,0,3221225680,133,133,133,133,
208,90,90,90,90,90,90,90,90,90,90,90,90,90,90,1610612874,98,138,0,0,0,0,1610612874,98,138,90,90,90,90,90,90,90,90,90,90,3221225680,133,133,133,133
</data>
 </layer>
</map>
