<?xml version="1.0" encoding="UTF-8"?>
<map version="1.10" tiledversion="1.12.1" orientation="orthogonal" renderorder="right-down" width="40" height="23" tilewidth="32" tileheight="32" infinite="0" nextlayerid="3" nextobjectid="1">
 <tileset firstgid="1" source="Tileset_infierno.tsx"/>
 <tileset firstgid="97" source="Tileset_Tierra_.tsx"/>
 <tileset firstgid="193" source="Tileset_Infierno_girado.tsx"/>
 <imagelayer id="2" name="Capa de Imagen 1">
  <image source="../Mapas/Infierno arriba.png" width="1280" height="736"/>
 </imagelayer>
 <layer id="1" name="Platforms" width="40" height="23">
  <data encoding="csv">
0,0,0,0,0,0,0,0,0,0,0,0,0,0,0,0,0,0,0,0,0,0,0,0,0,0,0,0,0,0,0,0,0,0,0,0,0,0,0,3221225680,
0,0,0,0,0,0,0,0,0,0,0,0,0,0,0,0,0,0,0,0,0,0,0,0,0,0,0,0,0,0,0,0,0,0,0,0,0,0,0,3221225680,
0,0,0,0,0,0,0,0,0,0,0,0,0,0,0,0,0,0,0,0,0,0,0,0,0,0,0,0,0,0,0,0,0,0,0,0,0,0,0,3221225680,
0,0,0,0,0,0,0,0,0,0,0,0,0,0,0,0,0,0,0,0,0,0,0,0,0,0,0,0,0,0,0,0,0,0,0,0,0,0,43,55,
0,0,0,0,0,0,0,0,0,0,0,0,0,0,0,0,0,0,0,0,0,0,0,0,0,0,0,0,0,0,0,0,0,0,0,0,0,43,55,37,
0,0,0,0,0,0,0,0,0,0,0,0,0,0,0,0,0,0,0,0,0,0,0,0,0,0,0,0,0,0,0,0,0,0,0,0,43,55,37,37,
0,0,0,0,0,0,0,0,0,0,0,0,0,0,0,0,0,0,0,43,2,2147483650,2147483650,2147483691,0,0,0,0,1,3,0,0,0,0,0,43,55,37,37,37,
0,0,0,0,0,0,0,0,0,0,0,0,0,0,0,0,0,0,0,3221225680,37,37,3221225527,3221225515,0,0,0,0,56,58,0,0,0,43,2,55,37,37,37,37,
0,0,0,49,1,2,2,2,2,2,2,2,2,51,0,0,0,0,0,3221225680,37,3221225527,3221225515,0,0,0,0,0,0,0,0,0,0,1610612779,3221225479,3221225479,3221225479,3221225479,1610612791,37,
0,0,0,0,56,2147483687,38,38,38,38,38,38,2147483704,0,0,0,0,0,0,3221225680,37,3221225515,0,0,0,0,0,0,0,0,0,0,0,0,0,0,0,0,1610612779,1610612791,
0,0,0,0,0,56,38,38,38,40,40,2147483704,0,0,0,0,0,0,0,3221225680,37,2147483691,0,0,0,0,0,0,0,0,0,0,0,0,0,0,0,0,0,3221225680,
0,0,0,0,0,0,56,40,39,40,2147483704,0,0,0,0,0,0,0,0,3221225680,37,2147483703,2147483691,0,0,0,0,0,0,0,0,0,0,0,0,0,0,0,0,3221225680,
0,0,0,0,0,0,0,56,56,2147483704,0,0,0,0,0,0,0,0,0,3221225680,37,2147483671,2147483703,2147483691,0,0,0,0,0,0,0,0,0,0,0,0,0,0,0,3221225680,
0,0,0,0,0,0,0,0,0,0,0,0,0,0,0,0,0,0,0,3221225680,37,2147483671,2147483671,2147483703,2,3,0,0,0,0,0,0,0,0,1,3,0,0,0,3221225680,
0,0,0,0,0,0,0,0,0,0,0,0,0,0,0,0,0,0,0,3221225680,37,3221225495,3221225495,3221225527,3221225474,1073741827,0,0,0,0,0,0,0,0,56,58,0,0,0,3221225680,
0,0,0,0,0,0,0,0,0,0,0,0,0,0,0,0,0,0,0,3221225680,37,3221225495,3221225527,3221225515,0,0,0,0,0,0,0,0,0,0,0,0,0,0,0,3221225680,
0,0,0,0,0,0,0,0,0,0,0,0,0,0,0,0,0,0,0,3221225680,37,3221225527,3221225515,0,0,0,0,0,0,0,0,0,0,0,0,0,0,0,0,3221225680,
0,0,0,0,0,0,0,0,0,0,0,0,0,0,0,0,0,0,0,1610612779,3221225474,3221225515,0,0,0,0,0,0,0,0,0,0,0,0,0,0,0,0,0,3221225680,
0,0,0,0,0,0,0,0,0,0,0,0,0,0,0,0,0,0,0,0,0,0,0,0,0,0,0,0,0,0,0,0,0,0,0,0,0,0,43,55,
0,0,49,50,50,50,51,0,0,0,0,0,0,0,0,0,0,0,0,0,0,0,0,0,0,0,0,0,0,0,0,0,0,0,0,43,1610612944,1610612944,55,24,
0,0,0,0,0,0,0,0,0,0,0,0,0,0,0,0,0,0,0,0,0,0,0,0,0,0,0,0,0,0,0,0,0,0,0,3221225680,37,37,37,37,
0,0,0,0,0,0,0,0,0,0,0,0,0,0,0,0,0,0,0,0,0,0,0,0,0,0,0,0,0,0,0,0,0,0,0,3221225680,37,37,37,37,
186,186,186,186,186,186,186,186,186,186,186,186,186,186,186,1610612778,2,42,0,0,0,0,1610612778,2,42,186,186,186,186,186,186,186,186,186,186,3221225680,37,37,37,37
</data>
 </layer>
</map>
