<?xml version="1.0" encoding="UTF-8"?>
<map version="1.10" tiledversion="1.12.1" orientation="orthogonal" renderorder="right-down" width="40" height="23" tilewidth="32" tileheight="32" infinite="0" nextlayerid="3" nextobjectid="1">
 <tileset firstgid="1" source="Tileset_infierno.tsx"/>
 <tileset firstgid="97" source="Tileset_Tierra_.tsx"/>
 <imagelayer id="2" name="Capa de Imagen 1">
  <image source="../Mapas/Infierno abajo.png" width="1280" height="736"/>
 </imagelayer>
 <layer id="1" name="Platforms" width="40" height="23">
  <data encoding="csv">
24,24,2684354562,0,0,0,0,0,0,0,0,0,0,0,0,0,1610612738,24,24,24,24,24,24,24,24,2684354562,0,0,0,0,0,0,0,0,0,0,0,0,0,1610612834,
24,24,2684354562,0,0,0,0,0,0,0,0,0,0,47,0,0,1610612738,24,24,24,24,24,24,24,24,2684354562,0,0,0,0,0,0,49,50,51,52,0,0,0,1610612834,
24,24,2684354562,0,0,0,0,0,0,0,0,0,0,0,0,0,1610612738,24,24,24,24,24,24,24,24,2684354562,0,0,0,0,0,0,0,0,0,0,0,0,0,1610612875,
24,24,2684354562,0,0,0,0,0,49,50,51,0,0,0,0,0,1610612738,24,24,24,24,24,24,24,24,2684354562,0,0,0,0,0,0,0,0,0,0,0,0,0,0,
24,24,2684354562,0,0,0,0,0,0,0,0,0,0,0,0,0,1610612738,24,24,24,24,24,24,24,24,2684354562,0,0,49,50,51,52,0,0,0,0,0,0,0,0,
24,24,2684354562,0,0,0,0,0,0,0,0,0,0,0,0,0,1610612738,24,24,24,24,24,24,24,24,2684354562,0,0,0,0,0,0,0,0,0,0,0,0,0,0,
24,24,2684354562,0,49,50,51,0,0,0,0,0,0,0,0,0,1610612738,24,24,24,24,24,24,24,24,2684354562,0,0,0,0,0,0,0,0,0,0,0,0,0,0,
24,24,2684354562,0,0,0,0,0,0,0,0,0,0,0,0,0,1610612738,24,24,24,24,24,24,24,24,2684354562,0,0,0,0,0,0,0,49,50,51,52,0,0,0,
24,24,2684354562,0,0,0,0,0,0,0,0,0,49,50,51,0,1610612738,24,24,24,24,24,24,24,24,2684354562,0,0,0,0,0,0,0,0,0,0,0,0,0,0,
24,24,2684354562,0,0,0,0,0,0,0,0,0,0,0,0,0,1610612738,24,24,24,24,24,24,24,24,54,42,0,0,0,0,0,0,0,0,0,0,0,0,0,
24,24,2684354562,0,0,0,0,0,0,0,0,0,0,0,0,0,1610612738,24,24,24,24,24,24,24,24,24,54,2,2,2,2,2,42,0,0,0,0,1610612778,2,2,
24,24,2684354562,0,0,0,0,0,0,49,50,51,0,0,0,0,1610612738,24,24,24,24,24,24,24,24,24,24,24,24,24,24,24,2684354562,0,0,0,0,1610612738,24,24,
24,24,2684354562,0,0,0,0,0,0,0,0,0,0,0,0,0,1610612738,24,24,24,24,24,24,24,24,24,24,24,24,24,24,24,2684354562,0,0,0,0,1610612738,24,24,
24,24,2684354562,0,0,0,0,0,0,0,0,0,0,0,0,0,1610612738,24,24,24,24,24,24,24,24,24,24,24,24,24,24,24,2684354562,0,0,0,0,1610612738,24,24,
24,24,2684354562,0,0,0,0,0,0,0,0,0,0,0,0,0,1610612738,24,24,24,24,24,24,24,24,24,24,24,24,24,24,24,2684354562,0,0,0,0,1610612738,24,24,
24,24,2684354562,0,0,0,0,0,0,0,0,49,50,51,0,0,1610612738,24,24,24,24,24,24,24,24,24,24,24,24,24,24,24,2684354562,0,0,0,0,1610612738,24,24,
24,24,2684354562,0,0,0,0,0,0,0,0,0,0,0,0,0,1610612779,3221225474,3221225474,3221225474,3221225474,3221225474,3221225474,3221225474,3221225474,3221225474,3221225474,3221225474,3221225474,3221225474,3221225474,3221225474,2684354602,0,0,0,0,3221225514,3221225474,3221225474,
24,24,2684354562,0,0,49,50,51,0,0,0,0,0,0,0,0,0,0,0,0,0,0,0,0,0,0,0,0,0,0,0,0,0,0,0,0,0,0,0,0,
24,24,2684354562,0,0,0,0,0,0,0,0,0,0,0,0,0,0,0,0,0,0,0,0,0,0,0,0,0,0,0,0,0,0,0,0,0,0,0,0,0,
24,24,2684354562,0,0,0,0,0,0,0,0,0,0,0,0,0,0,0,0,0,0,0,0,0,0,0,0,0,0,0,0,0,0,0,0,0,0,0,0,0,
24,24,2684354562,0,0,0,0,0,0,0,0,0,0,0,0,0,0,0,0,0,0,0,0,0,0,0,0,0,0,0,0,0,0,0,0,0,0,0,0,0,
24,24,2684354615,42,0,0,0,0,0,0,0,0,0,0,0,0,0,0,0,0,0,0,0,0,0,0,0,0,0,0,0,0,0,0,0,0,0,0,0,0,
24,24,24,54,2,2,2,2,2,2,2,2,2,2,2,2,2,2,2,2,2,2,2,2,2,2,2,2,2,2,2,2,2,2,2,2,2,2,2,2
</data>
 </layer>
</map>
