<?xml version="1.0" encoding="UTF-8"?>
<map version="1.10" tiledversion="1.12.1" orientation="orthogonal" renderorder="right-down" width="40" height="23" tilewidth="32" tileheight="32" infinite="0" nextlayerid="3" nextobjectid="1">
 <tileset firstgid="1" source="Tileset_Tierra_.tsx"/>
 <tileset firstgid="97" source="Tileset_infierno.tsx"/>
 <imagelayer id="2" name="Capa de Imagen 1">
  <image source="../Mapas/Infierno abajo.png" width="1280" height="736"/>
 </imagelayer>
 <layer id="1" name="Capa de patrones 1" width="40" height="23">
  <data encoding="csv">
24,24,24,24,24,24,24,24,24,24,24,24,24,24,24,24,24,24,24,24,24,24,24,24,24,24,24,24,24,24,24,24,24,24,24,24,24,24,24,24,
24,24,24,24,24,24,24,24,24,24,24,24,24,24,24,24,24,24,24,24,24,24,24,24,24,24,24,24,24,24,24,24,24,24,24,24,24,24,24,24,
3221225474,3221225474,3221225474,3221225474,3221225474,3221225474,3221225474,3221225474,3221225474,3221225474,3221225474,3221225474,3221225474,3221225474,3221225474,3221225474,3221225474,3221225474,3221225474,3221225474,3221225474,3221225474,3221225474,3221225474,3221225474,3221225474,3221225474,3221225474,3221225474,3221225474,3221225474,3221225474,3221225474,3221225474,3221225474,3221225474,3221225474,3221225474,3221225474,3221225474,
0,0,0,0,0,0,0,0,0,0,0,0,0,0,0,0,0,0,0,0,0,0,0,0,0,0,0,0,0,0,0,0,0,0,0,0,0,0,0,0,
0,0,0,0,0,0,0,0,0,0,0,0,0,0,0,0,0,0,0,0,0,0,0,0,0,0,0,0,0,0,0,0,0,0,0,0,0,0,0,0,
0,0,0,0,0,0,0,0,0,0,0,0,0,0,0,0,0,0,0,0,0,0,0,0,0,0,0,0,0,0,0,0,0,0,0,0,0,0,0,0,
0,0,0,0,0,0,0,0,0,0,0,0,0,0,0,0,0,0,0,0,0,0,0,0,0,0,0,0,0,0,0,0,0,0,0,0,0,0,0,0,
0,0,0,0,0,0,0,0,0,0,0,0,0,0,0,0,0,0,0,0,0,0,0,0,0,0,0,0,0,0,0,0,0,0,0,0,0,0,0,0,
0,0,0,0,0,0,0,0,0,0,0,0,0,0,0,0,0,0,0,0,0,0,0,0,0,0,0,0,0,0,0,0,0,0,0,0,0,0,0,0,
0,0,0,0,0,0,0,0,0,0,0,0,0,0,0,0,0,0,0,0,0,0,0,0,0,0,0,0,0,0,0,0,0,0,0,0,0,0,0,0,
98,98,98,98,98,98,138,0,0,0,0,0,0,0,0,0,0,0,0,0,0,0,0,0,0,0,0,0,0,0,0,0,0,0,0,0,0,0,0,0,
120,120,120,120,120,120,2684354658,0,0,0,0,143,0,0,0,0,0,0,0,0,0,0,0,0,0,0,0,0,0,0,0,0,0,0,0,0,0,0,0,0,
120,120,120,120,120,120,2684354658,0,0,0,0,0,0,0,0,145,146,147,148,0,0,0,0,0,0,0,0,0,0,0,0,0,0,139,98,98,98,98,98,98,
120,120,120,120,120,120,2684354658,0,0,0,0,0,0,0,0,0,0,0,0,0,0,0,0,0,0,0,0,0,0,0,0,0,0,1610612834,120,120,120,120,120,120,
120,120,120,120,120,120,2684354658,0,0,0,0,0,0,0,0,0,0,0,0,0,0,0,0,145,146,147,148,0,0,0,0,0,0,1610612834,120,120,120,120,120,120,
120,120,120,120,120,120,2684354658,0,0,0,0,0,0,0,0,0,0,0,0,0,0,0,0,0,0,0,0,0,0,0,0,0,0,1610612834,120,120,120,120,120,120,
3221225574,3221225574,3221225574,3221225574,3221225574,3221225574,3221225611,0,0,0,0,0,0,0,0,0,0,0,0,0,0,0,0,0,0,0,0,0,0,0,0,0,0,1610612834,120,120,120,120,120,120,
0,0,0,0,0,0,0,0,0,0,0,0,0,0,145,146,147,148,0,0,0,0,0,0,0,0,0,0,0,0,0,0,0,1610612834,120,120,120,120,120,120,
0,0,0,0,0,0,0,0,0,0,0,0,0,0,0,0,0,0,0,0,0,0,0,0,0,0,0,0,0,0,0,0,0,1610612834,120,120,120,120,120,120,
0,0,0,0,0,0,0,0,0,0,0,143,0,0,0,0,0,0,0,0,0,0,0,0,0,0,0,0,0,0,0,0,0,1610612834,120,120,120,120,120,120,
0,0,0,0,0,0,0,0,0,0,0,0,0,0,0,0,0,0,0,0,0,0,0,0,0,0,0,0,0,0,0,0,0,1610612834,120,120,120,120,120,120,
0,0,0,0,0,0,0,0,0,0,0,0,0,0,0,0,0,0,0,0,0,0,0,0,0,0,0,0,0,0,0,0,0,1610612834,120,120,120,120,120,120,
98,98,98,98,98,98,98,98,98,138,0,0,0,0,0,0,0,0,0,0,0,0,0,0,0,0,0,0,0,0,0,0,0,1610612834,120,120,120,120,120,120
</data>
 </layer>
</map>
