<?xml version="1.0" encoding="UTF-8"?>
<map version="1.10" tiledversion="1.12.1" orientation="orthogonal" renderorder="right-down" width="40" height="23" tilewidth="32" tileheight="32" infinite="0" nextlayerid="3" nextobjectid="1">
 <tileset firstgid="1" source="Tileset_infierno.tsx"/>
 <imagelayer id="2" name="Capa de Imagen 1">
  <image source="../Mapas/Infierno abajo.png" width="1280" height="736"/>
 </imagelayer>
 <layer id="1" name="Platforms" width="40" height="23">
  <data encoding="csv">
72,72,72,72,72,72,72,2684354614,2684354602,0,0,0,0,0,0,0,0,0,0,0,0,0,0,0,0,0,0,0,0,0,0,0,0,0,0,0,0,0,0,0,
72,72,72,72,72,72,2684354614,2684354602,0,0,0,0,0,0,0,0,0,0,0,0,0,0,0,0,0,0,0,0,0,0,0,0,0,0,0,0,0,0,0,0,
72,72,72,72,72,2684354614,2684354602,0,0,0,0,0,0,0,0,0,0,0,0,0,0,0,0,0,0,0,0,0,0,0,0,0,0,0,0,0,0,0,0,0,
72,72,72,72,2684354614,2684354602,0,0,0,0,0,0,0,0,0,0,0,0,0,0,0,0,0,0,0,0,0,0,0,0,0,0,0,0,0,0,0,0,0,0,
72,72,72,2684354614,2684354602,0,0,0,0,0,0,0,0,0,0,0,0,0,0,0,0,0,44,45,46,0,0,0,43,34,10,33,42,0,0,0,0,0,0,0,
72,72,2684354614,2684354602,0,0,0,0,0,0,0,0,0,0,0,0,0,44,45,46,0,0,0,0,0,0,0,0,1610612769,4,4,4,2684354594,0,44,45,46,0,0,0,
72,2684354614,2684354602,0,0,0,0,0,0,0,0,0,0,0,0,0,0,0,0,0,0,0,0,0,0,0,0,0,1610612746,4,4,4,2684354570,0,0,0,0,0,0,0,
2684354614,2684354602,0,0,0,0,0,0,0,0,0,0,44,45,46,0,0,0,0,0,0,0,0,0,0,0,0,0,1610612746,4,4,4,2684354570,0,0,0,0,0,0,0,
2684354602,0,0,0,0,0,0,0,0,0,0,0,0,0,0,0,0,0,0,0,0,0,0,0,0,0,0,0,1610612770,4,4,4,2684354593,0,0,0,0,0,0,0,
0,0,0,0,0,0,0,0,0,0,0,0,0,0,0,0,0,0,0,0,0,0,0,0,0,0,0,0,3221225514,3221225505,2684354570,3221225506,2684354602,0,0,0,0,0,0,0,
0,0,0,0,0,0,0,44,45,46,0,0,0,0,0,0,0,0,0,0,0,0,0,0,0,0,0,0,0,0,0,0,0,0,0,0,43,2,2,6,
0,0,0,0,0,0,0,0,0,0,0,0,0,0,0,0,0,0,44,45,46,0,0,0,0,0,0,0,0,0,0,0,0,0,0,0,1610612738,23,23,23,
0,0,0,0,0,0,0,0,0,0,0,0,0,0,0,0,0,0,0,0,0,0,0,0,0,0,0,0,0,0,0,0,0,0,0,0,1610612738,23,23,23,
42,0,0,0,0,0,0,0,0,0,0,0,0,0,0,0,0,0,0,0,0,0,0,0,0,0,0,0,0,0,0,0,0,0,0,0,1610612738,23,23,23,
54,42,0,0,0,0,0,0,0,0,0,0,0,0,0,44,45,46,0,0,0,0,0,0,0,0,0,0,0,0,0,0,0,0,0,0,1610612779,3221225474,3221225474,3221225474,
24,54,42,0,0,0,0,0,9,10,10,12,0,0,0,0,0,0,0,0,0,9,10,10,10,10,10,10,10,10,12,0,0,0,0,0,0,0,0,0,
24,24,54,42,0,0,0,0,61,4,4,62,0,0,0,0,0,0,0,0,0,0,25,4,4,4,4,4,4,2147483673,0,0,0,0,0,0,0,0,0,0,
24,24,24,2684354562,0,0,0,0,56,57,57,57,0,0,0,0,0,0,0,0,0,0,0,25,4,4,4,4,2147483673,0,0,0,0,0,0,0,0,0,0,0,
24,24,24,2684354562,0,0,0,0,0,0,0,0,0,0,0,0,0,0,0,0,0,0,0,0,25,4,4,2147483673,0,0,0,0,0,0,0,0,0,0,0,0,
24,24,24,2684354562,0,0,0,0,0,0,0,0,0,0,0,0,0,0,0,0,0,0,0,0,0,25,2147483673,0,0,0,0,0,0,0,0,0,43,2,2,2,
24,24,24,2684354562,0,0,0,0,0,0,0,0,0,0,0,0,0,0,0,0,0,0,0,0,0,0,0,0,0,0,0,0,0,0,0,43,55,23,23,23,
24,24,24,2684354562,0,0,0,0,0,0,0,0,0,0,0,0,0,0,0,0,0,0,0,0,0,0,0,0,0,0,0,0,0,0,43,55,23,23,23,23,
24,24,24,2684354562,0,0,0,0,0,0,0,0,0,0,0,0,0,0,0,0,0,0,0,0,0,0,0,0,0,0,0,0,0,43,55,23,23,23,23,23
</data>
 </layer>
</map>
