<?xml version="1.0" encoding="UTF-8"?>
<map version="1.10" tiledversion="1.12.1" orientation="orthogonal" renderorder="right-down" width="40" height="23" tilewidth="32" tileheight="32" infinite="0" nextlayerid="3" nextobjectid="1">
 <tileset firstgid="1" source="Tileset_infierno.tsx"/>
 <imagelayer id="2" name="Capa de Imagen 1">
  <image source="../Mapas/Infierno abajo.png" width="1280" height="736"/>
 </imagelayer>
 <layer id="1" name="Platforms" width="40" height="23">
  <data encoding="csv">
3221225474,3221225474,3221225515,0,0,0,0,0,0,0,0,0,0,0,0,0,0,0,0,0,0,0,0,0,0,0,0,0,0,0,0,0,0,0,0,1610612779,3221225474,3221225474,3221225474,3221225474,
0,0,0,0,0,0,0,0,0,0,0,0,0,0,0,0,0,0,0,0,0,0,0,0,0,0,0,0,0,43,2,42,0,0,0,0,0,0,0,0,
0,0,0,0,0,0,0,0,0,0,0,0,0,0,0,0,0,0,0,0,0,0,0,0,0,0,0,0,43,24,24,24,42,0,0,0,0,0,0,0,
0,0,0,0,0,0,0,0,0,0,0,0,0,0,0,0,0,0,0,0,0,0,0,0,0,0,0,0,1610612738,24,24,24,24,42,0,0,0,0,0,0,
0,0,0,0,0,0,0,0,0,0,0,0,0,0,0,0,0,0,0,0,0,0,0,0,0,0,0,0,1610612738,24,24,24,24,24,42,0,0,0,0,0,
0,0,0,0,0,0,0,0,0,0,0,0,0,0,0,0,0,0,0,0,0,0,0,0,0,0,47,0,1610612738,24,24,24,24,24,24,42,0,0,0,0,
0,0,0,0,0,0,0,0,0,0,0,0,0,0,0,0,0,0,0,0,0,0,0,0,0,0,0,0,1610612738,24,24,24,24,24,24,24,42,0,0,0,
0,0,0,0,0,0,0,0,0,0,0,0,0,0,0,0,0,0,0,0,0,0,0,0,47,0,0,0,1610612738,24,24,24,24,24,24,24,2684354562,0,0,0,
0,0,0,0,0,0,0,0,0,0,0,0,0,0,0,0,0,0,0,0,0,0,0,0,0,0,0,0,1610612738,24,24,24,24,24,24,24,2684354562,0,0,0,
0,0,0,0,0,0,0,0,0,0,0,0,0,0,0,0,0,0,2147483690,2147483654,2147483654,2147483654,42,0,0,0,0,0,1610612738,24,24,24,24,24,24,24,2684354562,0,0,0,
2684354603,0,0,0,0,0,0,0,0,0,0,0,0,0,0,0,0,0,536870918,24,24,24,2684354562,0,0,0,0,0,1610612738,24,24,24,24,24,24,24,2684354562,0,0,0,
2684354562,0,0,0,0,0,0,0,0,0,0,0,0,0,0,0,0,0,536870918,24,24,24,2684354562,0,0,0,0,0,3221225514,24,24,24,24,24,24,24,2684354562,0,0,0,
2684354562,0,0,44,45,46,0,0,0,0,43,2,2,2,42,0,0,0,536870918,24,24,24,2684354562,0,0,0,0,0,0,3221225514,3221225474,3221225474,3221225474,3221225474,3221225474,3221225474,2684354602,0,0,0,
2684354562,0,0,0,0,0,0,0,47,0,536870914,24,24,24,2684354567,0,0,0,1610612779,3221225474,3221225474,3221225474,3221225515,0,0,0,0,0,0,0,0,0,0,0,0,0,0,0,0,0,
2684354602,0,0,0,0,0,0,0,0,0,3221225514,3221225478,3221225478,3221225478,1073741866,0,0,0,0,0,0,0,0,0,0,0,0,0,0,0,0,0,0,0,0,0,0,0,0,0,
0,0,0,0,0,0,0,0,0,0,0,0,0,0,0,0,0,0,0,0,0,0,0,0,0,0,0,0,0,0,0,0,0,0,0,0,0,0,0,0,
0,0,2147483690,2,2,2,2,42,0,0,0,0,0,0,0,0,0,0,0,0,0,0,0,0,0,44,45,46,0,0,0,0,0,0,0,0,0,0,0,0,
0,2147483690,55,24,24,24,24,2684354562,0,0,0,0,0,0,0,0,0,0,536870955,2,2,2,2684354603,0,0,0,0,0,0,0,0,0,0,0,0,0,0,0,0,0,
2147483690,55,24,24,24,24,24,2684354562,0,0,2147483690,2,2,2,3758096426,0,0,0,536870918,24,24,24,2684354562,0,0,0,0,0,0,0,0,0,0,0,0,0,0,0,0,0,
55,24,24,24,24,24,24,2684354562,0,0,536870914,24,24,24,2684354567,0,0,0,536870918,24,24,24,2684354562,0,0,0,0,0,0,0,0,0,0,0,0,0,0,0,0,0,
24,24,24,24,24,24,24,2684354562,0,0,536870914,24,24,24,2684354567,0,0,0,536870918,24,24,24,2684354562,0,0,0,0,0,0,0,0,0,0,0,0,0,0,0,0,0,
24,24,24,24,24,24,24,2684354562,0,0,536870914,24,24,24,2684354567,0,0,0,536870918,24,24,24,2684354562,0,0,0,0,0,0,0,0,0,0,0,0,0,0,0,0,0,
24,24,24,24,24,24,24,2684354562,0,0,536870914,24,24,24,2684354567,0,0,0,536870918,24,24,24,2684354562,0,0,0,0,0,0,0,0,0,0,0,0,0,0,0,0,0
</data>
 </layer>
</map>
