<?xml version="1.0" encoding="UTF-8"?>
<map version="1.10" tiledversion="1.12.1" orientation="orthogonal" renderorder="right-down" width="40" height="23" tilewidth="32" tileheight="32" infinite="0" nextlayerid="3" nextobjectid="1">
 <tileset firstgid="1" source="Tileset_Tierra_.tsx"/>
 <imagelayer id="2" name="FondoTierraArriba">
  <image source="../Mapas/Tierra arriba.png" width="1280" height="736"/>
 </imagelayer>
 <layer id="1" name="Capa de patrones 1" width="40" height="23">
  <data encoding="csv">
4,4,4,4,4,2147483688,2147483687,2147483686,2147483685,54,42,0,0,0,0,0,0,0,0,0,0,0,0,0,0,0,0,0,0,0,0,0,0,0,0,0,0,0,0,0,
4,4,4,4,4,4,2147483688,2147483687,2147483686,2147483685,54,42,0,0,0,0,0,0,0,0,0,0,0,0,0,0,0,0,0,0,0,0,0,0,0,0,0,0,0,0,
4,4,4,4,4,4,4,2147483688,2147483687,2147483686,2147483685,54,42,0,0,0,0,0,0,0,0,0,0,0,0,0,0,0,0,0,0,0,0,0,0,0,0,0,0,0,
4,4,4,4,4,4,4,4,2147483688,2147483687,2147483686,2147483685,54,42,0,0,0,0,0,0,0,0,0,0,0,0,0,0,0,0,0,0,0,0,0,0,0,0,0,0,
4,4,4,4,4,4,4,4,4,2147483688,2147483687,2147483686,2147483685,54,42,0,0,0,0,0,0,0,0,0,0,0,0,0,0,0,0,0,0,0,0,0,0,0,0,0,
1073741838,1073741838,1073741838,1073741838,1073741838,1073741838,1073741838,1073741838,1073741838,1073741838,1073741838,1073741838,1073741838,38,54,42,0,0,0,0,0,0,0,0,0,0,0,0,0,0,0,0,0,0,0,0,0,0,0,0,
1073741826,1073741826,1073741826,1073741826,1073741826,1073741826,1073741826,1073741826,1073741826,1073741826,1073741826,1073741826,1073741826,1073741826,1073741826,1073741866,0,0,0,0,0,0,0,0,0,0,0,0,0,0,0,0,0,0,0,0,0,0,0,0,
0,0,0,0,0,0,0,0,0,0,0,0,0,0,0,0,0,52,0,0,0,0,0,0,0,0,0,0,0,0,0,0,0,0,0,0,0,0,0,0,
0,0,0,0,0,0,0,0,0,0,0,0,0,0,0,0,0,0,0,49,50,51,0,0,52,0,0,0,0,0,0,0,0,0,0,0,0,0,0,0,
0,0,0,0,0,0,0,0,0,0,0,0,0,0,0,0,0,0,0,0,0,0,0,0,0,0,0,0,0,0,0,0,0,0,0,0,0,0,0,0,
0,0,0,0,0,0,0,0,0,0,0,0,0,0,0,0,0,0,0,0,0,0,0,0,0,0,43,1,2,3,0,0,0,0,0,0,0,0,0,0,
0,0,0,0,0,0,0,0,0,0,0,0,0,0,0,0,0,0,0,0,0,0,0,0,0,43,55,13,14,16,0,0,44,45,46,0,0,0,0,0,
0,0,0,0,0,0,0,0,0,0,0,0,0,0,0,0,0,0,0,0,0,49,50,50,50,55,37,25,26,28,0,0,0,0,0,0,47,0,0,47,
0,0,0,0,0,0,0,0,0,0,0,0,0,0,0,0,49,50,51,0,0,0,0,0,0,0,0,0,0,0,0,0,0,0,0,0,0,0,0,0,
0,0,0,0,0,0,0,0,0,0,0,0,0,0,0,0,0,0,0,0,0,0,0,0,0,0,0,0,0,0,0,0,0,0,0,0,0,0,0,0,
0,0,0,0,0,0,0,0,0,0,0,49,50,51,0,0,0,0,0,0,49,50,51,0,0,0,0,0,0,0,0,0,0,0,0,0,0,0,0,0,
0,0,0,0,0,0,0,43,1,0,0,0,0,0,0,0,0,0,0,0,0,0,0,0,0,0,0,0,0,0,0,0,0,0,0,0,0,0,0,0,
0,0,0,0,0,0,43,1,37,0,0,0,0,0,0,0,0,0,0,0,0,0,0,0,49,50,51,0,0,0,0,0,0,0,0,0,0,0,0,0,
0,0,0,0,43,1,1,38,37,1,0,0,0,0,0,0,0,0,0,0,0,0,0,0,0,0,0,0,0,0,0,0,0,0,0,0,0,0,0,0,
0,0,0,43,55,37,38,39,40,4,0,49,50,51,0,0,0,0,0,0,0,0,0,0,0,0,0,0,0,0,49,51,0,0,1,2,2,2,42,0,
0,0,43,55,37,38,39,40,4,4,0,0,0,0,0,49,50,51,0,0,0,0,0,0,0,0,0,0,47,0,0,0,0,0,2147483688,2147483687,2147483686,2147483685,54,42,
0,43,55,37,38,39,40,4,0,0,0,0,0,0,0,0,0,0,0,9,10,11,12,0,44,45,46,0,0,0,0,0,0,0,4,2147483688,2147483687,2147483686,2147483685,54,
49,55,37,38,39,40,4,0,0,0,0,0,0,0,0,0,0,0,0,61,4,4,2147483709,0,0,0,0,0,0,0,0,0,0,0,4,4,2147483688,2147483687,2147483686,2147483685
</data>
 </layer>
</map>
