<?xml version="1.0" encoding="UTF-8"?>
<map version="1.10" tiledversion="1.12.1" orientation="orthogonal" renderorder="right-down" width="40" height="23" tilewidth="32" tileheight="32" infinite="0" nextlayerid="6" nextobjectid="1">
 <tileset firstgid="1" name="Tierra arriba" tilewidth="32" tileheight="32" tilecount="920" columns="40">
  <image source="../Mapas/Tierra arriba.png" width="1280" height="736"/>
 </tileset>
 <tileset firstgid="921" source="Tileset_Tierra_.tsx"/>
 <imagelayer id="3" name="FondoTierraArriba">
  <image source="../Mapas/Tierra arriba.png" width="1280" height="736"/>
 </imagelayer>
 <layer id="2" name="Capa de patrones 1" width="40" height="23">
  <data encoding="csv">
0,0,0,0,0,0,0,0,0,0,0,0,0,0,0,0,0,0,0,0,0,0,0,0,0,0,0,0,0,0,0,0,0,0,0,0,0,0,0,0,
0,0,0,0,0,0,0,0,0,0,0,0,0,0,0,0,0,0,0,0,0,0,0,0,0,0,0,0,0,0,0,0,0,0,0,0,0,0,0,0,
0,0,0,0,0,0,0,0,0,0,0,0,0,0,0,0,0,0,0,0,0,0,0,0,0,0,0,0,0,0,0,0,0,0,0,0,0,0,0,0,
0,0,0,0,0,0,0,0,0,0,0,0,0,0,0,0,0,0,0,0,0,0,0,0,0,0,0,0,0,0,0,0,0,0,0,0,0,0,0,0,
0,0,0,0,0,0,0,0,0,0,0,0,0,0,0,0,0,0,0,0,0,0,0,0,0,0,0,0,0,0,0,0,0,0,0,0,0,0,0,0,
0,0,0,0,0,0,0,0,0,0,0,0,0,0,0,0,0,0,0,0,0,0,0,0,0,0,0,0,0,0,0,0,0,0,0,0,0,0,0,0,
0,0,0,0,0,0,0,0,0,0,0,0,0,0,0,0,0,0,0,0,0,0,0,0,0,0,0,0,0,0,0,0,0,0,0,0,0,0,0,0,
0,0,0,0,0,0,0,0,0,0,0,0,0,0,0,0,0,0,0,0,0,0,0,0,0,0,0,0,0,0,0,0,0,0,0,0,0,0,0,0,
0,0,0,0,0,0,0,0,0,0,0,0,0,0,0,0,0,0,0,0,0,0,0,0,0,0,0,0,0,0,0,0,0,0,0,0,0,0,0,0,
0,0,0,0,0,0,0,0,0,0,0,0,0,0,0,0,0,0,0,0,0,0,0,0,0,0,0,0,0,0,0,0,0,0,0,0,0,0,0,0,
0,0,0,0,0,0,0,0,0,0,0,0,0,0,0,0,0,0,0,0,0,0,0,0,0,0,0,0,0,0,0,0,0,0,0,0,0,0,0,0,
0,0,0,0,0,0,0,0,0,0,0,0,0,0,0,0,0,0,0,0,0,0,0,0,0,0,0,0,0,0,0,0,0,0,0,0,0,0,0,0,
0,0,0,0,0,0,0,0,0,0,0,0,0,0,0,0,0,0,921,0,0,922,923,962,0,0,0,0,0,0,0,0,0,0,0,0,0,0,0,0,
0,0,0,0,0,0,0,0,0,0,0,0,0,969,970,971,0,0,937,0,0,933,936,974,962,0,0,0,0,0,0,0,0,0,0,0,0,0,0,0,
0,0,0,0,0,0,0,0,0,0,0,0,0,0,0,0,0,0,949,0,0,976,977,977,974,962,0,0,0,0,0,0,0,0,0,0,0,0,0,0,
962,0,0,0,0,0,0,0,969,970,971,0,0,0,0,0,0,0,0,0,0,0,0,0,0,0,0,0,0,0,0,0,0,0,0,0,0,0,0,0,
974,962,0,0,0,0,0,0,0,0,0,0,0,0,0,0,0,0,0,0,0,0,0,0,0,0,0,0,969,970,971,0,0,0,0,0,0,0,0,0,
957,974,962,0,0,0,0,0,0,0,0,0,0,0,0,0,0,0,0,0,0,0,0,0,0,0,0,0,0,0,0,0,0,0,0,0,0,0,0,0,
958,957,974,962,0,0,0,0,0,0,0,0,0,0,0,0,0,0,0,0,0,0,921,923,962,0,0,0,0,0,0,0,969,970,971,0,0,0,0,0,
959,958,957,974,962,0,0,0,0,0,0,0,0,0,0,0,0,0,0,0,972,0,957,957,974,962,0,0,0,0,0,0,0,0,0,0,0,0,0,0,
960,959,958,957,974,962,0,0,0,0,0,0,0,0,0,0,0,0,972,0,0,0,959,984,957,974,962,0,0,0,0,0,0,0,0,0,0,969,971,0,
924,960,959,958,957,974,962,0,0,0,0,0,0,0,0,963,975,0,0,0,0,0,960,959,958,957,974,962,0,0,0,0,0,0,0,0,0,0,0,0,
924,924,960,959,958,957,974,922,922,922,922,922,922,922,922,975,957,922,922,922,922,922,924,960,959,958,957,922,922,922,922,922,922,922,922,922,922,922,922,923
</data>
 </layer>
</map>
