<?xml version="1.0" encoding="UTF-8"?>
<map version="1.10" tiledversion="1.12.1" orientation="orthogonal" renderorder="right-down" width="38" height="23" tilewidth="32" tileheight="32" infinite="0" nextlayerid="2" nextobjectid="1">
 <tileset firstgid="1" source="Tierra abajo.tsx"/>
 <layer id="1" name="Capa de patrones 1" width="38" height="23">
  <data encoding="csv">
2147483686,2147483685,2147483684,2147483683,2147483682,2147483681,2147483680,2147483679,2147483678,2147483677,2147483676,2147483675,2147483674,2147483673,2147483672,2147483671,2147483670,2147483669,2147483668,2147483667,2147483666,2147483665,2147483664,2147483663,2147483662,2147483661,2147483660,2147483659,2147483658,2147483657,2147483656,2147483655,2147483654,2147483653,2147483652,2147483651,2147483650,38,
2147483726,2147483725,2147483724,2147483723,2147483722,2147483721,2147483720,2147483719,2147483718,2147483717,2147483716,2147483715,2147483714,2147483713,2147483712,2147483711,2147483710,2147483709,2147483708,2147483707,2147483706,2147483705,2147483704,2147483703,2147483702,2147483701,2147483700,2147483699,2147483698,2147483697,2147483696,2147483695,2147483694,2147483693,2147483692,2147483691,2147483690,78,
2147483766,2147483765,2147483764,2147483763,2147483762,2147483761,2147483760,2147483759,2147483758,2147483757,2147483756,2147483755,2147483754,2147483753,2147483752,2147483751,2147483750,2147483749,2147483748,2147483747,2147483746,2147483745,2147483744,2147483743,2147483742,2147483741,2147483740,2147483739,2147483738,2147483737,2147483736,2147483735,2147483734,2147483733,2147483732,2147483731,2147483730,118,
2147483806,2147483805,2147483804,2147483803,2147483802,2147483801,2147483800,2147483799,2147483798,2147483797,2147483796,2147483795,2147483794,2147483793,2147483792,2147483791,2147483790,2147483789,2147483788,2147483787,2147483786,2147483785,2147483784,2147483783,2147483782,2147483781,2147483780,2147483779,2147483778,2147483777,2147483776,2147483775,2147483774,2147483773,2147483772,2147483771,2147483770,158,
2147483846,2147483845,2147483844,2147483843,2147483842,2147483841,2147483840,2147483839,2147483838,2147483837,2147483836,2147483835,2147483834,2147483833,2147483832,2147483831,2147483830,2147483829,2147483828,2147483827,2147483826,2147483825,2147483824,2147483823,2147483822,2147483821,2147483820,2147483819,2147483818,2147483817,2147483816,2147483815,2147483814,2147483813,2147483812,2147483811,2147483810,198,
2147483886,2147483885,2147483884,2147483883,2147483882,2147483881,2147483880,2147483879,2147483878,2147483877,2147483876,2147483875,2147483874,2147483873,2147483872,2147483871,2147483870,2147483869,2147483868,2147483867,2147483866,2147483865,2147483864,2147483863,2147483862,2147483861,2147483860,2147483859,2147483858,2147483857,2147483856,2147483855,2147483854,2147483853,2147483852,2147483851,2147483850,238,
2147483926,2147483925,2147483924,2147483923,2147483922,2147483921,2147483920,2147483919,2147483918,2147483917,2147483916,2147483915,2147483914,2147483913,2147483912,2147483911,2147483910,2147483909,2147483908,2147483907,2147483906,2147483905,2147483904,2147483903,2147483902,2147483901,2147483900,2147483899,2147483898,2147483897,2147483896,2147483895,2147483894,2147483893,2147483892,2147483891,2147483890,278,
2147483966,2147483965,2147483964,2147483963,2147483962,2147483961,2147483960,2147483959,2147483958,2147483957,2147483956,2147483955,2147483954,2147483953,2147483952,2147483951,2147483950,2147483949,2147483948,2147483947,2147483946,2147483945,2147483944,2147483943,2147483942,2147483941,2147483940,2147483939,2147483938,2147483937,2147483936,2147483935,2147483934,2147483933,2147483932,2147483931,2147483930,318,
2147484006,2147484005,2147484004,2147484003,2147484002,2147484001,2147484000,2147483999,2147483998,2147483997,2147483996,2147483995,2147483994,2147483993,2147483992,2147483991,2147483990,2147483989,2147483988,2147483987,2147483986,2147483985,2147483984,2147483983,2147483982,2147483981,2147483980,2147483979,2147483978,2147483977,2147483976,2147483975,2147483974,2147483973,2147483972,2147483971,2147483970,358,
2147484046,2147484045,2147484044,2147484043,2147484042,2147484041,2147484040,2147484039,2147484038,2147484037,2147484036,2147484035,2147484034,2147484033,2147484032,2147484031,2147484030,2147484029,2147484028,2147484027,2147484026,2147484025,2147484024,2147484023,2147484022,2147484021,2147484020,2147484019,2147484018,2147484017,2147484016,2147484015,2147484014,2147484013,2147484012,2147484011,2147484010,398,
2147484086,2147484085,2147484084,2147484083,2147484082,2147484081,2147484080,2147484079,2147484078,2147484077,2147484076,2147484075,2147484074,2147484073,2147484072,2147484071,2147484070,2147484069,2147484068,2147484067,2147484066,2147484065,2147484064,2147484063,2147484062,2147484061,2147484060,2147484059,2147484058,2147484057,2147484056,2147484055,2147484054,2147484053,2147484052,2147484051,2147484050,438,
2147484126,2147484125,2147484124,2147484123,2147484122,2147484121,2147484120,2147484119,2147484118,2147484117,2147484116,2147484115,2147484114,2147484113,2147484112,2147484111,2147484110,2147484109,2147484108,2147484107,2147484106,2147484105,2147484104,2147484103,2147484102,2147484101,2147484100,2147484099,2147484098,2147484097,2147484096,2147484095,2147484094,2147484093,2147484092,2147484091,2147484090,478,
2147484166,2147484165,2147484164,2147484163,2147484162,2147484161,2147484160,2147484159,2147484158,2147484157,2147484156,2147484155,2147484154,2147484153,2147484152,2147484151,2147484150,2147484149,2147484148,2147484147,2147484146,2147484145,2147484144,2147484143,2147484142,2147484141,2147484140,2147484139,2147484138,2147484137,2147484136,2147484135,2147484134,2147484133,2147484132,2147484131,2147484130,518,
2147484206,2147484205,2147484204,2147484203,2147484202,2147484201,2147484200,2147484199,2147484198,2147484197,2147484196,2147484195,2147484194,2147484193,2147484192,2147484191,2147484190,2147484189,2147484188,2147484187,2147484186,2147484185,2147484184,2147484183,2147484182,2147484181,2147484180,2147484179,2147484178,2147484177,2147484176,2147484175,2147484174,2147484173,2147484172,2147484171,2147484170,558,
2147484246,2147484245,2147484244,2147484243,2147484242,2147484241,2147484240,2147484239,2147484238,2147484237,2147484236,2147484235,2147484234,2147484233,2147484232,2147484231,2147484230,2147484229,2147484228,2147484227,2147484226,2147484225,2147484224,2147484223,2147484222,2147484221,2147484220,2147484219,2147484218,2147484217,2147484216,2147484215,2147484214,2147484213,2147484212,2147484211,2147484210,598,
2147484286,2147484285,2147484284,2147484283,2147484282,2147484281,2147484280,2147484279,2147484278,2147484277,2147484276,2147484275,2147484274,2147484273,2147484272,2147484271,2147484270,2147484269,2147484268,2147484267,2147484266,2147484265,2147484264,2147484263,2147484262,2147484261,2147484260,2147484259,2147484258,2147484257,2147484256,2147484255,2147484254,2147484253,2147484252,2147484251,2147484250,638,
2147484326,2147484325,2147484324,2147484323,2147484322,2147484321,2147484320,2147484319,2147484318,2147484317,2147484316,2147484315,2147484314,2147484313,2147484312,2147484311,2147484310,2147484309,2147484308,2147484307,2147484306,2147484305,2147484304,2147484303,2147484302,2147484301,2147484300,2147484299,2147484298,2147484297,2147484296,2147484295,2147484294,2147484293,2147484292,2147484291,2147484290,678,
2147484366,2147484365,2147484364,2147484363,2147484362,2147484361,2147484360,2147484359,2147484358,2147484357,2147484356,2147484355,2147484354,2147484353,2147484352,2147484351,2147484350,2147484349,2147484348,2147484347,2147484346,2147484345,2147484344,2147484343,2147484342,2147484341,2147484340,2147484339,2147484338,2147484337,2147484336,2147484335,2147484334,2147484333,2147484332,2147484331,2147484330,718,
2147484406,2147484405,2147484404,2147484403,2147484402,2147484401,2147484400,2147484399,2147484398,2147484397,2147484396,2147484395,2147484394,2147484393,2147484392,2147484391,2147484390,2147484389,2147484388,2147484387,2147484386,2147484385,2147484384,2147484383,2147484382,2147484381,2147484380,2147484379,2147484378,2147484377,2147484376,2147484375,2147484374,2147484373,2147484372,2147484371,2147484370,758,
2147484446,2147484445,2147484444,2147484443,2147484442,2147484441,2147484440,2147484439,2147484438,2147484437,2147484436,2147484435,2147484434,2147484433,2147484432,2147484431,2147484430,2147484429,2147484428,2147484427,2147484426,2147484425,2147484424,2147484423,2147484422,2147484421,2147484420,2147484419,2147484418,2147484417,2147484416,2147484415,2147484414,2147484413,2147484412,2147484411,2147484410,798,
2147484486,2147484485,2147484484,2147484483,2147484482,2147484481,2147484480,2147484479,2147484478,2147484477,2147484476,2147484475,2147484474,2147484473,2147484472,2147484471,2147484470,2147484469,2147484468,2147484467,2147484466,2147484465,2147484464,2147484463,2147484462,2147484461,2147484460,2147484459,2147484458,2147484457,2147484456,2147484455,2147484454,2147484453,2147484452,2147484451,2147484450,838,
2147484526,2147484525,2147484524,2147484523,2147484522,2147484521,2147484520,2147484519,2147484518,2147484517,2147484516,2147484515,2147484514,2147484513,2147484512,2147484511,2147484510,2147484509,2147484508,2147484507,2147484506,2147484505,2147484504,2147484503,2147484502,2147484501,2147484500,2147484499,2147484498,2147484497,2147484496,2147484495,2147484494,2147484493,2147484492,2147484491,2147484490,878,
2147484541,2147484540,2147484539,2147484538,2147484537,2147484536,2147484535,2147484534,2147484533,2147484532,2147484531,2147484530,2147484529,894,895,896,897,898,899,900,901,902,903,904,905,906,907,908,909,910,911,912,913,914,915,916,917,918
</data>
 </layer>
</map>
