<?xml version="1.0" encoding="UTF-8"?>
<map version="1.10" tiledversion="1.12.1" orientation="orthogonal" renderorder="right-down" width="38" height="23" tilewidth="32" tileheight="32" infinite="0" nextlayerid="3" nextobjectid="1">
 <tileset firstgid="1" name="Tierra arriba" tilewidth="32" tileheight="32" tilecount="920" columns="40">
  <image source="Tierra arriba.png" width="1280" height="736"/>
  <tile id="890" probability="105"/>
  <wangsets>
   <wangset name="Arbol" type="corner" tile="735">
    <wangcolor name="Arbol" color="#ff0000" tile="695" probability="1"/>
    <wangtile tileid="654" wangid="0,1,0,1,0,1,0,0"/>
    <wangtile tileid="655" wangid="0,0,0,0,0,1,0,1"/>
    <wangtile tileid="693" wangid="0,1,0,1,0,0,0,0"/>
    <wangtile tileid="694" wangid="0,1,0,1,0,1,0,1"/>
    <wangtile tileid="695" wangid="0,1,0,1,0,1,0,1"/>
    <wangtile tileid="696" wangid="0,0,0,0,0,1,0,1"/>
    <wangtile tileid="733" wangid="0,1,0,1,0,0,0,0"/>
    <wangtile tileid="734" wangid="0,1,0,1,0,1,0,1"/>
    <wangtile tileid="735" wangid="0,1,0,1,0,1,0,1"/>
    <wangtile tileid="736" wangid="0,0,0,0,0,1,0,1"/>
    <wangtile tileid="773" wangid="0,1,0,0,0,0,0,0"/>
    <wangtile tileid="774" wangid="0,1,0,0,0,0,0,1"/>
    <wangtile tileid="775" wangid="0,1,0,0,0,0,0,1"/>
    <wangtile tileid="776" wangid="0,0,0,0,0,0,0,1"/>
    <wangtile tileid="897" wangid="0,0,0,0,0,1,0,0"/>
   </wangset>
   <wangset name="Unnamed Set" type="mixed" tile="890">
    <wangcolor name="" color="#ff0000" tile="-1" probability="1"/>
    <wangtile tileid="850" wangid="0,0,0,1,1,0,0,0"/>
    <wangtile tileid="890" wangid="1,1,1,0,0,0,1,1"/>
   </wangset>
  </wangsets>
 </tileset>
 <tileset firstgid="921" source="Tierra arriba.tsx"/>
 <tileset firstgid="1841" source="Nubes.tsx"/>
 <layer id="1" name="Capa de patrones 1" width="38" height="23">
  <data encoding="csv">
2147484607,2147484606,2147484605,2147484604,2147484603,2147484602,2147484601,2147484600,2147484599,2147484598,2147484597,2147484596,2147484595,2147484594,2147484593,2147484592,2147484591,2147484590,2147484589,2147484588,2147484587,2147484586,2147484585,2147484584,2147484583,2147484582,2147484581,2147484580,2147484579,2147484578,2147484577,2147484576,2147484575,2147484574,2147484573,2147484572,2147484571,2147484570,
2147484647,2147484646,2147484645,2147484644,2147484643,2147484642,2147484641,2147484640,2147484639,2147484638,2147484637,2147484636,2147484635,2147484634,2147484633,2147484632,2147484631,2147484630,2147484629,2147484628,2147484627,2147484626,2147484625,2147484624,2147484623,2147484622,2147484621,2147484620,2147484619,2147484618,2147484617,2147484616,2147484615,2147484614,2147484613,2147484612,2147484611,2147484610,
2147484687,2147484686,2147484685,2147484684,2147484683,2147484682,2147484681,2147484680,2147484679,2147484678,2147484677,2147484676,2147484675,2147484674,2147484673,2147484672,2147484671,2147484670,2147484669,2147484668,2147484667,2147484666,2147484665,2147484664,2147484663,2147484662,2147484661,2147484660,2147484659,2147484658,2147484657,2147484656,2147484655,2147484654,2147484653,2147484652,2147484651,2147484650,
2147484727,2147484726,2147484725,2147484724,2147484723,2147484722,2147484721,2147484720,2147484719,2147484718,2147484717,2147484716,2147484715,2147484714,2147484713,2147484712,2147484711,2147484710,2147484709,2147484708,2147484707,2147484706,2147484705,2147484704,2147484703,2147484702,2147484701,2147484700,2147484699,2147484698,2147484697,2147484696,2147484695,2147484694,2147484693,2147484692,2147484691,2147484690,
2147484767,2147484766,2147484765,2147484764,2147484763,2147484762,2147484761,2147484760,2147484759,2147484758,2147484757,2147484756,2147484755,2147484754,2147484753,2147484752,2147484751,2147484750,2147484749,2147484748,2147484747,2147484746,2147484745,2147484744,2147484743,2147484742,2147484741,2147484740,2147484739,2147484738,2147484737,2147484736,2147484735,2147484734,2147484733,2147484732,2147484731,2147484730,
2147484807,2147484806,2147484805,2147484804,2147484803,2147484802,2147484801,2147484800,2147484799,2147484798,2147484797,2147484796,2147484795,2147484794,2147484793,2147484792,2147484791,2147484790,2147484789,2147484788,2147484787,2147484786,2147484785,2147484784,2147484783,2147484782,2147484781,2147484780,2147484779,2147484778,2147484777,2147484776,2147484775,2147484774,2147484773,2147484772,2147484771,2147484770,
2147484847,2147484846,2147484845,2147484844,2147484843,2147484842,2147484841,2147484840,2147484839,2147484838,2147484837,2147484836,2147484835,2147484834,2147484833,2147484832,2147484831,2147484830,2147484829,2147484828,2147484827,2147484826,2147484825,2147484824,2147484823,2147484822,2147484821,2147484820,2147484819,2147484818,2147484817,2147484816,2147484815,2147484814,2147484813,2147484812,2147484811,2147484810,
2147484887,2147484886,2147484885,2147484884,2147484883,2147484882,2147484881,2147484880,2147484879,2147484878,2147484877,2147484876,2147484875,2147484874,2147484873,2147484872,2147484871,2147484870,2147484869,2147484868,2147484867,2147484866,2147484865,2147484864,2147484863,2147484862,2147484861,2147484860,2147484859,2147484858,2147484857,2147484856,2147484855,2147484854,2147484853,2147484852,2147484851,2147484850,
2147484927,2147484926,2147484925,2147484924,2147484923,2147484922,2147484921,2147484920,2147484919,2147484918,2147484917,2147484916,2147484915,2147484914,2147484913,2147484912,2147484911,2147484910,2147484909,2147484908,2147484907,2147484906,2147484905,2147484904,2147484903,2147484902,2147484901,2147484900,2147484899,2147484898,2147484897,2147484896,2147484895,2147484894,2147484893,2147484892,2147484891,2147484890,
2147484967,2147484966,2147484965,2147484964,2147484963,2147484962,2147484961,2147484960,2147484959,2147484958,2147484957,2147484956,2147484955,2147484954,2147484953,2147484952,2147484951,2147484950,2147484949,2147484948,2147484947,2147484946,2147484945,2147484944,2147484943,2147484942,2147484941,2147484940,2147484939,2147484938,2147484937,2147484936,2147484935,2147484934,2147484933,2147484932,2147484931,2147484930,
2147485007,2147485006,2147485005,2147485004,2147485003,2147485002,2147485001,2147485000,2147484999,2147484998,2147484997,2147484996,2147484995,2147484994,2147484993,2147484992,2147484991,2147484990,2147484989,2147484988,2147484987,2147484986,2147484985,2147484984,2147484983,2147484982,2147484981,2147484980,2147484979,2147484978,2147484977,2147484976,2147484975,2147484974,2147484973,2147484972,2147484971,2147484970,
2147485047,2147485046,2147485045,2147485044,2147485043,2147485042,2147485041,2147485040,2147485039,2147485038,2147485037,2147485036,2147485035,2147485034,2147485033,2147485032,2147485031,2147485030,2147485029,2147485028,2147485027,2147485026,2147485025,2147485024,2147485023,2147485022,2147485021,2147485020,2147485019,2147485018,2147485017,2147485016,2147485015,2147485014,2147485013,2147485012,2147485011,2147485010,
2147485087,2147485086,2147485085,2147485084,2147485083,2147485082,2147485081,2147485080,2147485079,2147485078,2147485077,2147485076,2147485075,2147485074,2147485073,2147485072,2147485071,2147485070,2147485069,2147485068,2147485067,2147485066,2147485065,2147485064,2147485063,2147485062,2147485061,2147485060,2147485059,2147485058,2147485057,2147485056,2147485055,2147485054,2147485053,2147485052,2147485051,2147485050,
2147485127,2147485126,2147485125,2147485124,2147485123,2147485122,2147485121,2147485120,2147485119,2147485118,2147485117,2147485116,2147485115,2147485114,2147485113,2147485112,2147485111,2147485110,2147485109,2147485108,2147485107,2147485106,2147485105,2147485104,2147485103,2147485102,2147485101,2147485100,2147485099,2147485098,2147485097,2147485096,2147485095,2147485094,2147485093,2147485092,2147485091,2147485090,
2147485167,2147485166,2147485165,2147485164,2147485163,2147485162,2147485161,2147485160,2147485159,2147485158,2147485157,2147485156,2147485155,2147485154,2147485153,2147485152,2147485151,2147485150,2147485149,2147485148,2147485147,2147485146,2147485145,2147485144,2147485143,2147485142,2147485141,2147485140,2147485139,2147485138,2147485137,2147485136,2147485135,2147485134,2147485133,2147485132,2147485131,2147485130,
2147485207,2147485206,2147485205,2147485204,2147485203,2147485202,2147485201,2147485200,2147485199,2147485198,2147485197,2147485196,2147485195,2147485194,2147485193,2147485192,2147485191,2147485190,2147485189,2147485188,2147485187,2147485186,2147485185,2147485184,2147485183,2147485182,2147485181,2147485180,2147485179,2147485178,2147485177,2147485176,2147485175,2147485174,2147485173,2147485172,2147485171,2147485170,
2147485247,2147485246,2147485245,2147485244,2147485243,2147485242,2147485241,2147485240,2147485239,2147485238,2147485237,2147485236,2147485235,2147485234,2147485233,2147485232,2147485231,2147485230,2147485229,2147485228,2147485227,2147485226,2147485225,2147485224,2147485223,2147485222,2147485221,2147485220,2147485219,2147485218,2147485217,2147485216,2147485215,2147485214,2147485213,2147485212,2147485211,2147485210,
2147485287,2147485286,2147485285,2147485284,2147485283,2147485282,2147485281,2147485280,2147485279,2147485278,2147485277,2147485276,2147485275,2147485274,2147485273,2147485272,2147485271,2147485270,2147485269,2147485268,2147485267,2147485266,2147485265,2147485264,2147485263,2147485262,2147485261,2147485260,2147485259,2147485258,2147485257,2147485256,2147485255,2147485254,2147485253,2147485252,2147485251,2147485250,
2147485327,2147485326,2147485325,2147485324,2147485323,2147485322,2147485321,2147485320,2147485319,2147485318,2147485317,2147485316,2147485315,2147485314,2147485313,2147485312,2147485311,2147485310,2147485309,2147485308,2147485307,2147485306,2147485305,2147485304,2147485303,2147485302,2147485301,2147485300,2147485299,2147485298,2147485297,2147485296,2147485295,2147485294,2147485293,2147485292,2147485291,2147485290,
2147485367,2147485366,2147485365,2147485364,2147485363,2147485362,2147485361,2147485360,2147485359,2147485358,2147485357,2147485356,2147485355,2147485354,2147485353,2147485352,2147485351,2147485350,2147485349,2147485348,2147485347,2147485346,2147485345,2147485344,2147485343,2147485342,2147485341,2147485340,2147485339,2147485338,2147485337,2147485336,2147485335,2147485334,2147485333,2147485332,2147485331,2147485330,
2147485407,2147485406,2147485405,2147485404,2147485403,2147485402,2147485401,2147485400,2147485399,2147485398,2147485397,2147485396,2147485395,2147485394,2147485393,2147485392,2147485391,2147485390,2147485389,2147485388,2147485387,2147485386,2147485385,2147485384,2147485383,2147485382,2147485381,2147485380,2147485379,2147485378,2147485377,2147485376,2147485375,2147485374,2147485373,2147485372,2147485371,2147485370,
2147485447,2147485446,2147485445,2147485444,2147485443,2147485442,2147485441,2147485440,2147485439,2147485438,2147485437,2147485436,2147485435,2147485434,2147485433,2147485432,2147485431,2147485430,2147485429,2147485428,2147485427,2147485426,2147485425,2147485424,2147485423,2147485422,2147485421,2147485420,2147485419,2147485418,2147485417,2147485416,2147485415,2147485414,2147485413,2147485412,2147485411,2147485410,
2147485487,2147485486,2147485485,2147485484,2147485483,2147485482,2147485481,2147485480,2147485479,2147485478,2147485477,2147485476,2147485475,2147485474,2147485473,2147485472,2147485471,2147485470,2147485469,2147485468,2147485467,2147485466,2147485465,2147485464,2147485463,2147485462,2147485461,2147485460,2147485459,2147485458,2147485457,2147485456,2147485455,2147485454,2147485453,2147485452,2147485451,2147485450
</data>
 </layer>
 <layer id="2" name="Capa de patrones 2" width="38" height="23">
  <data encoding="csv">
0,0,0,0,0,0,0,0,0,0,0,0,0,0,0,0,0,0,0,0,0,0,0,0,0,0,0,0,0,0,0,0,0,0,0,0,0,0,
0,0,0,0,0,0,0,0,0,0,0,0,0,0,0,0,0,0,0,0,0,0,0,0,0,0,0,0,0,0,0,0,0,0,0,0,0,0,
0,0,0,0,0,0,0,0,0,0,0,0,0,0,0,0,0,0,0,0,0,0,0,0,0,0,0,0,0,0,0,0,0,0,0,0,0,0,
0,0,0,0,0,0,0,0,0,0,0,0,0,0,0,0,0,0,0,0,0,0,0,0,0,0,0,0,0,0,0,0,0,0,0,0,0,0,
0,0,0,0,0,0,0,0,0,0,0,0,0,0,0,0,0,0,0,0,0,0,0,0,0,0,0,0,0,0,0,0,0,0,0,0,0,0,
2147485779,2147485778,2147485777,2147485776,2147485775,2147485774,2147485773,2147485772,2147485730,2147485729,2147485728,2147485727,2147485726,2147485725,2147485724,2147485723,2147485722,2147485721,2147485720,2147485719,2147485718,2147485717,2147485716,2147485715,2147485714,2147485713,2147485712,2147485711,2147485710,2147485709,2147485708,2147485707,2147485706,2147485705,0,0,0,0,
2147485821,2147485820,2147485819,2147485818,2147485817,2147485816,2147485815,2147485814,2147485772,2147485771,2147485770,2147485769,2147485768,2147485767,2147485766,2147485765,2147485764,2147485763,2147485762,2147485761,2147485760,2147485759,2147485758,2147485757,2147485756,2147485755,2147485754,2147485753,2147485752,2147485751,2147485750,2147485749,2147485748,2147485747,0,0,0,0,
2147485863,2147485862,2147485861,2147485860,2147485859,2147485858,2147485857,2147485856,2147485814,2147485813,2147485812,2147485811,2147485810,2147485809,2147485808,2147485807,2147485806,2147485805,2147485804,2147485803,2147485802,2147485801,2147485800,2147485799,2147485798,2147485797,2147485796,2147485795,2147485794,2147485793,2147485792,2147485791,2147485790,2147485789,0,0,0,0,
2147485905,2147485904,2147485903,2147485902,2147485901,2147485900,2147485899,2147485898,2147485856,2147485855,2147485854,2147485853,2147485852,2147485851,2147485850,2147485849,2147485848,2147485847,2147485846,2147485845,2147485844,2147485843,2147485842,2147485841,2147485840,2147485839,2147485838,2147485837,2147485836,2147485835,2147485834,2147485833,2147485832,2147485831,0,0,0,0,
0,0,0,0,0,0,0,2147485899,2147485898,2147485897,2147485896,2147485895,2147485894,2147485893,2147485892,2147485891,2147485890,2147485889,2147485888,2147485887,2147485886,2147485885,2147485884,2147485883,2147485882,2147485881,2147485880,2147485879,2147485878,2147485877,2147485876,2147485875,2147485874,2147485873,0,0,0,0,
0,0,0,0,0,0,0,2147485941,2147485940,2147485939,2147485938,2147485937,2147485936,2147485935,2147485934,2147485933,2147485932,2147485931,2147485930,2147485929,2147485928,2147485927,2147485926,2147485925,2147485924,2147485923,2147485922,2147485921,2147485920,2147485919,2147485918,2147485917,2147485916,2147485915,0,0,0,0,
0,0,0,0,0,0,0,2147485983,2147485982,2147485981,2147485980,2147485979,2147485978,2147485977,2147485976,2147485975,2147485974,2147485973,2147485972,2147485971,2147485970,2147485969,2147485968,2147485967,2147485966,2147485965,2147485964,2147485963,2147485962,2147485961,2147485960,2147485959,2147485958,2147485957,0,0,0,0,
0,0,0,0,0,0,0,2147486025,2147486024,2147486023,2147486022,2147486021,2147486020,2147486019,2147486018,2147486017,2147486016,2147486015,2147486014,2147486013,2147486012,2147486011,2147486010,2147486009,2147486008,2147486007,2147486006,2147486005,2147486004,2147486003,2147486002,2147486001,2147486000,2147485999,0,0,0,0,
2147486075,2147486074,2147486073,2147486072,2147486071,2147486070,0,2147486067,2147486066,2147486065,2147486064,2147486063,2147486062,2147486061,2147486060,2147486059,2147486058,2147486057,2147486056,2147486055,2147486054,2147486053,2147486052,2147486051,2147486050,2147486049,2147486048,2147486047,2147486046,2147486045,2147486044,2147486043,2147486042,2147486041,0,0,0,0,
2147486117,2147486116,2147486115,2147486114,2147486113,2147486112,0,2147486109,2147486108,2147486107,2147486106,2147486105,2147486104,2147486103,2147486102,2147486101,2147486100,2147486099,2147486098,2147486097,2147486096,2147486095,2147486094,2147486093,2147486092,2147486091,2147486090,2147486089,2147486088,2147486087,2147486086,2147486085,2147486084,2147486083,0,0,0,0,
2147486159,2147486158,2147486157,2147486156,2147486155,2147486154,0,0,0,0,0,0,0,0,0,0,0,0,0,0,0,0,0,0,0,0,0,0,0,0,0,0,0,0,0,0,0,0,
2147486201,2147486200,2147486199,2147486198,2147486197,2147486196,0,0,0,0,0,0,0,0,0,0,0,0,0,0,0,0,0,0,0,0,0,0,0,0,0,0,0,0,0,0,0,0,
2147486243,2147486242,2147486241,2147486240,2147486239,2147486238,0,0,0,0,0,0,0,0,0,0,0,0,0,0,0,0,0,0,0,0,0,0,0,0,0,0,0,0,0,0,0,0,
0,0,0,0,0,0,0,0,0,0,0,0,0,0,0,0,0,0,0,0,0,0,0,0,0,0,0,0,0,0,0,0,0,0,0,0,0,0,
0,0,0,0,0,0,0,0,0,0,0,0,0,0,0,0,0,0,0,0,0,0,0,0,0,0,0,0,0,0,0,0,0,0,0,0,0,0,
0,0,0,0,0,0,0,0,0,0,0,0,0,0,0,0,0,0,0,0,0,0,0,0,0,0,0,0,0,0,0,0,0,0,0,0,0,0,
0,0,0,0,0,0,0,0,0,0,0,0,0,0,0,0,0,0,0,0,0,0,0,0,0,0,0,0,0,0,0,0,0,0,0,0,0,0,
2147486494,2147486493,2147486492,2147486491,2147486490,2147486489,2147486488,2147486487,2147486486,2147486485,2147486484,2147486483,2147486482,2147486481,2147486480,2147486479,2147486478,2147486477,2147486476,2147486475,2147486474,2147486473,2147486472,2147486471,2147486470,2147486469,2147486468,2147486467,2147486466,2147486465,2147486464,2147486463,2147486462,2147486461,2147486460,2147486459,2147486458,2147486457
</data>
 </layer>
</map>
